; POST PROCESSED
C1 S0 ; uncap the extruder
T0 ; switch the extruder
G1 Z25.0
C1 S255 ; cap the extruder
E0
M42 P16 S0 ; turn extruder 0 off
G1
G1 X92.0 Y42.0
G1 X92.0 Y42.0
C1 S255 ; cap the extruder
G1 Z0.2
M42 P16 S255 ; turn extruder 0 on
G1 X97.0 Y47.0
G1 X102.0 Y42.0
G1 X107.0 Y47.0
G1 X112.0 Y42.0
G1 X117.0 Y47.0
G1 X122.0 Y42.0
E0
M42 P16 S0 ; turn extruder 0 off
G1 X122.0 Y47.0
G1 X122.0 Y47.0
C1 S255 ; cap the extruder
G1 Z0.2
M42 P16 S255 ; turn extruder 0 on
G1 X117.0 Y52.0
G1 X112.0 Y47.0
G1 X107.0 Y52.0
G1 X102.0 Y47.0
G1 X97.0 Y52.0
G1 X92.0 Y47.0
E0
E0
M42 P16 S0 ; turn extruder 0 off
G1 X92.0 Y52.0 

G1 X92.0 Y52.0
C1 S255 ; cap the extruder
G1 Z0.2
M42 P16 S255 ; turn extruder 0 on
G1 X97.0 Y57.0
G1 X102.0 Y52.0
G1 X107.0 Y57.0
G1 X112.0 Y52.0
G1 X117.0 Y57.0
G1 X122.0 Y52.0
E0
E0 
M42 P16 S0 ; turn extruder 0 off
G1 X122.0 Y57.0 

G1 X122.0 Y57.0
C1 S255 ; cap the extruder
G1 Z0.2
M42 P16 S255 ; turn extruder 0 on
G1 X117.0 Y62.0
G1 X112.0 Y57.0
G1 X107.0 Y62.0
G1 X102.0 Y57.0
G1 X97.0 Y62.0
G1 X92.0 Y57.0
E0
E0
M42 P16 S0 ; turn extruder 0 off
G1 X92.0 Y62.0 

G1 X92.0 Y62.0
C1 S255 ; cap the extruder
G1 Z0.2
M42 P16 S255 ; turn extruder 0 on
G1 X97.0 Y67.0
G1 X102.0 Y62.0
G1 X107.0 Y67.0
G1 X112.0 Y62.0
G1 X117.0 Y67.0
G1 X122.0 Y62.0
E0
M42 P16 S0 ; turn extruder 0 off
G1 X122.0 Y67.0
G1 X122.0 Y67.0
C1 S255 ; cap the extruder
G1 Z0.2
M42 P16 S255 ; turn extruder 0 on
G1 X117.0 Y72.0
G1 X112.0 Y67.0
G1 X107.0 Y72.0
G1 X102.0 Y67.0
G1 X97.0 Y72.0
G1 X92.0 Y67.0
E0

C1 S0 ; uncap the extruder
T1 ; switch the extruder
G1 Z25.2
C1 S255 ; cap the extruder
M42 P16 S0 ; turn extruder 1 off
G1
G1 X92.0 Y42.0 

G1 X92.0 Y42.0
C1 S255 ; cap the extruder
G1 Z0.4
M42 P16 S255 ; turn extruder 1 on
G1 X92.0 Y72.0
E0
E0
M42 P16 S0 ; turn extruder 1 off
G1
G1 X97.0 Y42.0
G1 X97.0 Y42.0
C1 S255 ; cap the extruder
G1 Z0.4
M42 P16 S255 ; turn extruder 1 on
G1 X97.0 Y72.0
E0
E0
M42 P16 S0 ; turn extruder 1 off
G1
G1 X102.0 Y42.0
G1 X102.0 Y42.0
C1 S255 ; cap the extruder
G1 Z0.4
M42 P16 S255 ; turn extruder 1 on
G1 X102.0 Y72.0
E0
E0
M42 P16 S0 ; turn extruder 1 off
G1
G1 X107.0 Y42.0
G1 X107.0 Y42.0
C1 S255 ; cap the extruder
G1 Z0.4
M42 P16 S255 ; turn extruder 1 on
G1 X107.0 Y72.0
E0
E0
M42 P16 S0 ; turn extruder 1 off
G1
G1 X112.0 Y42.0
G1 X112.0 Y42.0
C1 S255 ; cap the extruder
G1 Z0.4
M42 P16 S255 ; turn extruder 1 on
G1 X112.0 Y72.0
E0
E0
M42 P16 S0 ; turn extruder 1 off
G1
G1 X117.0 Y42.0
G1 X117.0 Y42.0
C1 S255 ; cap the extruder
G1 Z0.4
M42 P16 S255 ; turn extruder 1 on
G1 X117.0 Y72.0
E0
E0
M42 P16 S0 ; turn extruder 1 off
G1
G1 X122.0 Y42.0
G1 X122.0 Y42.0
C1 S255 ; cap the extruder
G1 Z0.4
M42 P16 S255 ; turn extruder 1 on
G1 X122.0 Y72.0
E0



C1 S0 ; uncap the extruder
T2 ; switch the extruder
G1 Z25.4
C1 S255 ; cap the extruder
E0
M42 P16 S0 ; turn extruder 2 off
G1
G1 X92.0 Y42.0 

G1 X92.0 Y42.0
C1 S255 ; cap the extruder
G1 Z0.4
M42 P16 S255 ; turn extruder 2 on
G1 X122.0 Y42.0
E0
M42 P16 S0 ; turn extruder 2 off
G1
G1 X92.0 Y47.0 

G1 X92.0 Y47.0
C1 S255 ; cap the extruder
G1 Z0.4
M42 P16 S255 ; turn extruder 2 on
G1 X122.0 Y47.0
E0
M42 P16 S0 ; turn extruder 2 off
G1
G1 X92.0 Y52.0 

G1 X92.0 Y52.0
C1 S255 ; cap the extruder
G1 Z0.4
M42 P16 S255 ; turn extruder 2 on
G1 X122.0 Y52.0
E0
M42 P16 S0 ; turn extruder 2 off
G1
G1 X92.0 Y57.0 

G1 X92.0 Y57.0
C1 S255 ; cap the extruder
G1 Z0.4
M42 P16 S255 ; turn extruder 2 on
G1 X122.0 Y57.0
E0
M42 P16 S0 ; turn extruder 2 off
G1
G1 X92.0 Y62.0 

G1 X92.0 Y62.0
C1 S255 ; cap the extruder
G1 Z0.4
M42 P16 S255 ; turn extruder 2 on
G1 X122.0 Y62.0
E0
M42 P16 S0 ; turn extruder 2 off
G1
G1 X92.0 Y67.0 

G1 X92.0 Y67.0
C1 S255 ; cap the extruder
G1 Z0.4
M42 P16 S255 ; turn extruder 2 on
G1 X122.0 Y67.0
E0
M42 P16 S0 ; turn extruder 2 off
G1
G1 X92.0 Y72.0 

G1 X92.0 Y72.0
C1 S255 ; cap the extruder
G1 Z0.4
M42 P16 S255 ; turn extruder 2 on
G1 X122.0 Y72.0
E0

C1 S0 ; uncap the extruder
T3 ; switch the extruder
G1 Z25.4
C1 S255 ; cap the extruder
E0
M42 P16 S0 ; turn extruder 3 off
G1
G1 X92.0 Y42.0
G1 X92.0 Y42.0
C1 S255 ; cap the extruder
G1 Z0.6
M42 P16 S255 ; turn extruder 3 on
G1 X97.0 Y47.0
G1 X92.0 Y52.0
G1 X97.0 Y57.0
G1 X92.0 Y62.0
G1 X97.0 Y67.0
G1 X92.0 Y72.0
E0
E0
M42 P16 S0 ; turn extruder 3 off
G1
G1 X97.0 Y42.0
G1 X97.0 Y42.0
C1 S255 ; cap the extruder
G1 Z0.6
M42 P16 S255 ; turn extruder 3 on
G1 X102.0 Y47.0
G1 X97.0 Y52.0
G1 X102.0 Y57.0
G1 X97.0 Y62.0
G1 X102.0 Y67.0
G1 X97.0 Y72.0
E0
E0
M42 P16 S0 ; turn extruder 3 off
G1
G1 X102.0 Y42.0
G1 X102.0 Y42.0
C1 S255 ; cap the extruder
G1 Z0.6
M42 P16 S255 ; turn extruder 3 on
G1 X107.0 Y47.0
G1 X102.0 Y52.0
G1 X107.0 Y57.0
G1 X102.0 Y62.0
G1 X107.0 Y67.0M42 P16 S0 ; turn extruder 3 off
G1 X107.0 Y67.0
C1 S255 ; cap the extruder
G1 Z0.6
M42 P16 S255 ; turn extruder 3 on
G1 X102.0 Y72.0
E0
E0
M42 P16 S0 ; turn extruder 3 off
G1
G1 X107.0 Y42.0
G1 X107.0 Y42.0
C1 S255 ; cap the extruder
G1 Z0.6
M42 P16 S255 ; turn extruder 3 on
G1 X112.0 Y47.0
G1 X107.0 Y52.0
G1 X112.0 Y57.0
G1 X107.0 Y62.0
G1 X112.0 Y67.0
G1 X107.0 Y72.0
E0
E0
M42 P16 S0 ; turn extruder 3 off
G1
G1 X112.0 Y42.0
G1 X112.0 Y42.0
C1 S255 ; cap the extruder
G1 Z0.6
M42 P16 S255 ; turn extruder 3 on
G1 X117.0 Y47.0
G1 X112.0 Y52.0
G1 X117.0 Y57.0
G1 X112.0 Y62.0
G1 X117.0 Y67.0
G1 X112.0 Y72.0
E0
E0
M42 P16 S0 ; turn extruder 3 off
G1
G1 X102.0 Y42.0
G1 X102.0 Y42.0
C1 S255 ; cap the extruder
G1 Z0.6
M42 P16 S255 ; turn extruder 3 on
G1 X107.0 Y47.0
G1 X102.0 Y52.0
G1 X107.0 Y57.0
G1 X102.0 Y62.0
G1 X107.0 Y67.0
G1 X102.0 Y72.0
E0
E0
M42 P16 S0 ; turn extruder 3 off
G1
G1 X117.0 Y42.0
G1 X117.0 Y42.0
C1 S255 ; cap the extruder
G1 Z0.6
M42 P16 S255 ; turn extruder 3 on
G1 X122.0 Y47.0
G1 X117.0 Y52.0
G1 X122.0 Y57.0
G1 X117.0 Y62.0
G1 X122.0 Y67.0
G1 X117.0 Y72.0
E0

C1 S0 ; uncap the extruder
T4 ; switch the extruder
G1 Z25.6
C1 S255 ; cap the extruder
E0
M42 P16 S0 ; turn extruder 4 off
G1
G1 X92.0 Y42.0
G1 X92.0 Y42.0
C1 S255 ; cap the extruder
G1 Z0.8
M42 P16 S255 ; turn extruder 4 on
G1 X97.0 Y47.0
G1 X102.0 Y42.0
G1 X107.0 Y47.0
G1 X112.0 Y42.0
G1 X117.0 Y47.0
G1 X122.0 Y42.0
E0
M42 P16 S0 ; turn extruder 4 off
G1 X122.0 Y47.0
G1 X122.0 Y47.0
C1 S255 ; cap the extruder
G1 Z0.8
M42 P16 S255 ; turn extruder 4 on
G1 X117.0 Y52.0
G1 X112.0 Y47.0
G1 X107.0 Y52.0
G1 X102.0 Y47.0
G1 X97.0 Y52.0
G1 X92.0 Y47.0
E0
E0
M42 P16 S0 ; turn extruder 4 off
G1 X92.0 Y52.0 

G1 X92.0 Y52.0
C1 S255 ; cap the extruder
G1 Z0.8
M42 P16 S255 ; turn extruder 4 on
G1 X97.0 Y57.0
G1 X102.0 Y52.0
G1 X107.0 Y57.0
G1 X112.0 Y52.0
G1 X117.0 Y57.0
G1 X122.0 Y52.0
E0
E0 
M42 P16 S0 ; turn extruder 4 off
G1 X122.0 Y57.0 

G1 X122.0 Y57.0
C1 S255 ; cap the extruder
G1 Z0.8
M42 P16 S255 ; turn extruder 4 on
G1 X117.0 Y62.0
G1 X112.0 Y57.0
G1 X107.0 Y62.0
G1 X102.0 Y57.0
G1 X97.0 Y62.0
G1 X92.0 Y57.0
E0
E0
M42 P16 S0 ; turn extruder 4 off
G1 X92.0 Y62.0 

G1 X92.0 Y62.0
C1 S255 ; cap the extruder
G1 Z0.8
M42 P16 S255 ; turn extruder 4 on
G1 X97.0 Y67.0
G1 X102.0 Y62.0
G1 X107.0 Y67.0
G1 X112.0 Y62.0
G1 X117.0 Y67.0
G1 X122.0 Y62.0
E0
M42 P16 S0 ; turn extruder 4 off
G1 X122.0 Y67.0
G1 X122.0 Y67.0
C1 S255 ; cap the extruder
G1 Z0.8
M42 P16 S255 ; turn extruder 4 on
G1 X117.0 Y72.0
G1 X112.0 Y67.0
G1 X107.0 Y72.0
G1 X102.0 Y67.0
G1 X97.0 Y72.0
G1 X92.0 Y67.0
E0


C1 S0 ; uncap the extruder
T5 ; switch the extruder
G1 Z25.8
C1 S255 ; cap the extruder
E0
M42 P16 S0 ; turn extruder 5 off
G1
G1 X92.0 Y42.0 

G1 X92.0 Y42.0
C1 S255 ; cap the extruder
G1 Z1.0
M42 P16 S255 ; turn extruder 5 on
G1 X122.0 Y42.0
E0
M42 P16 S0 ; turn extruder 5 off
G1 X92.0 Y47.0 

G1 X92.0 Y47.0
C1 S255 ; cap the extruder
G1 Z1.0
M42 P16 S255 ; turn extruder 5 on
G1 X122.0 Y47.0
E0
M42 P16 S0 ; turn extruder 5 off
G1 X92.0 Y52.0 

G1 X92.0 Y52.0
C1 S255 ; cap the extruder
G1 Z1.0
M42 P16 S255 ; turn extruder 5 on
G1 X122.0 Y52.0
E0
M42 P16 S0 ; turn extruder 5 off
G1 X92.0 Y57.0 

G1 X92.0 Y57.0
C1 S255 ; cap the extruder
G1 Z1.0
M42 P16 S255 ; turn extruder 5 on
G1 X122.0 Y57.0
E0
M42 P16 S0 ; turn extruder 5 off
G1 X92.0 Y62.0 

G1 X92.0 Y62.0
C1 S255 ; cap the extruder
G1 Z1.0
M42 P16 S255 ; turn extruder 5 on
G1 X122.0 Y62.0
E0
M42 P16 S0 ; turn extruder 5 off
G1 X92.0 Y67.0 

G1 X92.0 Y67.0
C1 S255 ; cap the extruder
G1 Z1.0
M42 P16 S255 ; turn extruder 5 on
G1 X122.0 Y67.0
E0
M42 P16 S0 ; turn extruder 5 off
G1 X92.0 Y72.0 

G1 X92.0 Y72.0
C1 S255 ; cap the extruder
G1 Z1.0
M42 P16 S255 ; turn extruder 5 on
G1 X122.0 Y72.0
E0
C1 S0 ; uncap the extruder
T0 ; switch the extruder
G1 Z26.0
C1 S255 ; cap the extruder
E0
M42 P16 S0 ; turn extruder 0 off
G1
G1 X52.88 Y42.0
G1 X52.88 Y42.0
C1 S255 ; cap the extruder
G1 Z0.2
M42 P16 S255 ; turn extruder 0 on
G1 X57.88 Y47.0
G1 X62.88 Y42.0
G1 X67.88 Y47.0
G1 X72.88 Y42.0
G1 X77.88 Y47.0
G1 X82.88 Y42.0
E0
M42 P16 S0 ; turn extruder 0 off
G1 X82.88 Y47.0
G1 X82.88 Y47.0
C1 S255 ; cap the extruder
G1 Z0.2
M42 P16 S255 ; turn extruder 0 on
G1 X77.88 Y52.0
G1 X72.88 Y47.0
G1 X67.88 Y52.0
G1 X62.88 Y47.0
G1 X57.88 Y52.0
G1 X52.88 Y47.0
E0
E0
M42 P16 S0 ; turn extruder 0 off
G1 X52.88 Y52.0 

G1 X52.88 Y52.0
C1 S255 ; cap the extruder
G1 Z0.2
M42 P16 S255 ; turn extruder 0 on
G1 X57.88 Y57.0
G1 X62.88 Y52.0
G1 X67.88 Y57.0
G1 X72.88 Y52.0
G1 X77.88 Y57.0
G1 X82.88 Y52.0
E0
E0 
M42 P16 S0 ; turn extruder 0 off
G1 X82.88 Y57.0 

G1 X82.88 Y57.0
C1 S255 ; cap the extruder
G1 Z0.2
M42 P16 S255 ; turn extruder 0 on
G1 X77.88 Y62.0
G1 X72.88 Y57.0
G1 X67.88 Y62.0
G1 X62.88 Y57.0
G1 X57.88 Y62.0
G1 X52.88 Y57.0
E0
E0
M42 P16 S0 ; turn extruder 0 off
G1 X52.88 Y62.0 

G1 X52.88 Y62.0
C1 S255 ; cap the extruder
G1 Z0.2
M42 P16 S255 ; turn extruder 0 on
G1 X57.88 Y67.0
G1 X62.88 Y62.0
G1 X67.88 Y67.0
G1 X72.88 Y62.0
G1 X77.88 Y67.0
G1 X82.88 Y62.0
E0
M42 P16 S0 ; turn extruder 0 off
G1 X82.88 Y67.0
G1 X82.88 Y67.0
C1 S255 ; cap the extruder
G1 Z0.2
M42 P16 S255 ; turn extruder 0 on
G1 X77.88 Y72.0
G1 X72.88 Y67.0
G1 X67.88 Y72.0
G1 X62.88 Y67.0
G1 X57.88 Y72.0
G1 X52.88 Y67.0
E0

C1 S0 ; uncap the extruder
T1 ; switch the extruder
G1 Z25.2
C1 S255 ; cap the extruder
M42 P16 S0 ; turn extruder 1 off
G1
G1 X131.12 Y42.0 

G1 X131.12 Y42.0
C1 S255 ; cap the extruder
G1 Z0.4
M42 P16 S255 ; turn extruder 1 on
G1 X131.12 Y72.0
E0
E0
M42 P16 S0 ; turn extruder 1 off
G1
G1 X136.12 Y42.0
G1 X136.12 Y42.0
C1 S255 ; cap the extruder
G1 Z0.4
M42 P16 S255 ; turn extruder 1 on
G1 X136.12 Y72.0
E0
E0
M42 P16 S0 ; turn extruder 1 off
G1
G1 X141.12 Y42.0
G1 X141.12 Y42.0
C1 S255 ; cap the extruder
G1 Z0.4
M42 P16 S255 ; turn extruder 1 on
G1 X141.12 Y72.0
E0
E0
M42 P16 S0 ; turn extruder 1 off
G1
G1 X146.12 Y42.0
G1 X146.12 Y42.0
C1 S255 ; cap the extruder
G1 Z0.4
M42 P16 S255 ; turn extruder 1 on
G1 X146.12 Y72.0
E0
E0
M42 P16 S0 ; turn extruder 1 off
G1
G1 X151.12 Y42.0
G1 X151.12 Y42.0
C1 S255 ; cap the extruder
G1 Z0.4
M42 P16 S255 ; turn extruder 1 on
G1 X151.12 Y72.0
E0
E0
M42 P16 S0 ; turn extruder 1 off
G1
G1 X156.12 Y42.0
G1 X156.12 Y42.0
C1 S255 ; cap the extruder
G1 Z0.4
M42 P16 S255 ; turn extruder 1 on
G1 X156.12 Y72.0
E0
E0
M42 P16 S0 ; turn extruder 1 off
G1
G1 X161.12 Y42.0
G1 X161.12 Y42.0
C1 S255 ; cap the extruder
G1 Z0.4
M42 P16 S255 ; turn extruder 1 on
G1 X161.12 Y72.0
E0



C1 S0 ; uncap the extruder
T2 ; switch the extruder
G1 Z25.4
C1 S255 ; cap the extruder
E0
M42 P16 S0 ; turn extruder 2 off
G1
G1 X131.12 Y42.0 

G1 X131.12 Y42.0
C1 S255 ; cap the extruder
G1 Z0.4
M42 P16 S255 ; turn extruder 2 on
G1 X161.12 Y42.0
E0
M42 P16 S0 ; turn extruder 2 off
G1
G1 X131.12 Y47.0 

G1 X131.12 Y47.0
C1 S255 ; cap the extruder
G1 Z0.4
M42 P16 S255 ; turn extruder 2 on
G1 X161.12 Y47.0
E0
M42 P16 S0 ; turn extruder 2 off
G1
G1 X131.12 Y52.0 

G1 X131.12 Y52.0
C1 S255 ; cap the extruder
G1 Z0.4
M42 P16 S255 ; turn extruder 2 on
G1 X161.12 Y52.0
E0
M42 P16 S0 ; turn extruder 2 off
G1
G1 X131.12 Y57.0 

G1 X131.12 Y57.0
C1 S255 ; cap the extruder
G1 Z0.4
M42 P16 S255 ; turn extruder 2 on
G1 X161.12 Y57.0
E0
M42 P16 S0 ; turn extruder 2 off
G1
G1 X131.12 Y62.0 

G1 X131.12 Y62.0
C1 S255 ; cap the extruder
G1 Z0.4
M42 P16 S255 ; turn extruder 2 on
G1 X161.12 Y62.0
E0
M42 P16 S0 ; turn extruder 2 off
G1
G1 X131.12 Y67.0 

G1 X131.12 Y67.0
C1 S255 ; cap the extruder
G1 Z0.4
M42 P16 S255 ; turn extruder 2 on
G1 X161.12 Y67.0
E0
M42 P16 S0 ; turn extruder 2 off
G1
G1 X131.12 Y72.0 

G1 X131.12 Y72.0
C1 S255 ; cap the extruder
G1 Z0.4
M42 P16 S255 ; turn extruder 2 on
G1 X161.12 Y72.0
E0

C1 S0 ; uncap the extruder
T3 ; switch the extruder
G1 Z25.4
C1 S255 ; cap the extruder
E0
M42 P16 S0 ; turn extruder 3 off
G1
G1 X131.12 Y42.0
G1 X131.12 Y42.0
C1 S255 ; cap the extruder
G1 Z0.6
M42 P16 S255 ; turn extruder 3 on
G1 X136.12 Y47.0
G1 X131.12 Y52.0
G1 X136.12 Y57.0
G1 X131.12 Y62.0
G1 X136.12 Y67.0
G1 X131.12 Y72.0
E0
E0
M42 P16 S0 ; turn extruder 3 off
G1
G1 X136.12 Y42.0
G1 X136.12 Y42.0
C1 S255 ; cap the extruder
G1 Z0.6
M42 P16 S255 ; turn extruder 3 on
G1 X141.12 Y47.0
G1 X136.12 Y52.0
G1 X141.12 Y57.0
G1 X136.12 Y62.0
G1 X141.12 Y67.0
G1 X136.12 Y72.0
E0
E0
M42 P16 S0 ; turn extruder 3 off
G1
G1 X141.12 Y42.0
G1 X141.12 Y42.0
C1 S255 ; cap the extruder
G1 Z0.6
M42 P16 S255 ; turn extruder 3 on
G1 X146.12 Y47.0
G1 X141.12 Y52.0
G1 X146.12 Y57.0
G1 X141.12 Y62.0
G1 X146.12 Y67.0M42 P16 S0 ; turn extruder 3 off
G1 X146.12 Y67.0
C1 S255 ; cap the extruder
G1 Z0.6
M42 P16 S255 ; turn extruder 3 on
G1 X141.12 Y72.0
E0
E0
M42 P16 S0 ; turn extruder 3 off
G1
G1 X146.12 Y42.0
G1 X146.12 Y42.0
C1 S255 ; cap the extruder
G1 Z0.6
M42 P16 S255 ; turn extruder 3 on
G1 X151.12 Y47.0
G1 X146.12 Y52.0
G1 X151.12 Y57.0
G1 X146.12 Y62.0
G1 X151.12 Y67.0
G1 X146.12 Y72.0
E0
E0
M42 P16 S0 ; turn extruder 3 off
G1
G1 X151.12 Y42.0
G1 X151.12 Y42.0
C1 S255 ; cap the extruder
G1 Z0.6
M42 P16 S255 ; turn extruder 3 on
G1 X156.12 Y47.0
G1 X151.12 Y52.0
G1 X156.12 Y57.0
G1 X151.12 Y62.0
G1 X156.12 Y67.0
G1 X151.12 Y72.0
E0
E0
M42 P16 S0 ; turn extruder 3 off
G1
G1 X141.12 Y42.0
G1 X141.12 Y42.0
C1 S255 ; cap the extruder
G1 Z0.6
M42 P16 S255 ; turn extruder 3 on
G1 X146.12 Y47.0
G1 X141.12 Y52.0
G1 X146.12 Y57.0
G1 X141.12 Y62.0
G1 X146.12 Y67.0
G1 X141.12 Y72.0
E0
E0
M42 P16 S0 ; turn extruder 3 off
G1
G1 X156.12 Y42.0
G1 X156.12 Y42.0
C1 S255 ; cap the extruder
G1 Z0.6
M42 P16 S255 ; turn extruder 3 on
G1 X161.12 Y47.0
G1 X156.12 Y52.0
G1 X161.12 Y57.0
G1 X156.12 Y62.0
G1 X161.12 Y67.0
G1 X156.12 Y72.0
E0

C1 S0 ; uncap the extruder
T4 ; switch the extruder
G1 Z25.6
C1 S255 ; cap the extruder
E0
M42 P16 S0 ; turn extruder 4 off
G1
G1 X131.12 Y42.0
G1 X131.12 Y42.0
C1 S255 ; cap the extruder
G1 Z0.8
M42 P16 S255 ; turn extruder 4 on
G1 X136.12 Y47.0
G1 X141.12 Y42.0
G1 X146.12 Y47.0
G1 X151.12 Y42.0
G1 X156.12 Y47.0
G1 X161.12 Y42.0
E0
M42 P16 S0 ; turn extruder 4 off
G1 X161.12 Y47.0
G1 X161.12 Y47.0
C1 S255 ; cap the extruder
G1 Z0.8
M42 P16 S255 ; turn extruder 4 on
G1 X156.12 Y52.0
G1 X151.12 Y47.0
G1 X146.12 Y52.0
G1 X141.12 Y47.0
G1 X136.12 Y52.0
G1 X131.12 Y47.0
E0
E0
M42 P16 S0 ; turn extruder 4 off
G1 X131.12 Y52.0 

G1 X131.12 Y52.0
C1 S255 ; cap the extruder
G1 Z0.8
M42 P16 S255 ; turn extruder 4 on
G1 X136.12 Y57.0
G1 X141.12 Y52.0
G1 X146.12 Y57.0
G1 X151.12 Y52.0
G1 X156.12 Y57.0
G1 X161.12 Y52.0
E0
E0 
M42 P16 S0 ; turn extruder 4 off
G1 X161.12 Y57.0 

G1 X161.12 Y57.0
C1 S255 ; cap the extruder
G1 Z0.8
M42 P16 S255 ; turn extruder 4 on
G1 X156.12 Y62.0
G1 X151.12 Y57.0
G1 X146.12 Y62.0
G1 X141.12 Y57.0
G1 X136.12 Y62.0
G1 X131.12 Y57.0
E0
E0
M42 P16 S0 ; turn extruder 4 off
G1 X131.12 Y62.0 

G1 X131.12 Y62.0
C1 S255 ; cap the extruder
G1 Z0.8
M42 P16 S255 ; turn extruder 4 on
G1 X136.12 Y67.0
G1 X141.12 Y62.0
G1 X146.12 Y67.0
G1 X151.12 Y62.0
G1 X156.12 Y67.0
G1 X161.12 Y62.0
E0
M42 P16 S0 ; turn extruder 4 off
G1 X161.12 Y67.0
G1 X161.12 Y67.0
C1 S255 ; cap the extruder
G1 Z0.8
M42 P16 S255 ; turn extruder 4 on
G1 X156.12 Y72.0
G1 X151.12 Y67.0
G1 X146.12 Y72.0
G1 X141.12 Y67.0
G1 X136.12 Y72.0
G1 X131.12 Y67.0
E0


C1 S0 ; uncap the extruder
T5 ; switch the extruder
G1 Z25.8
C1 S255 ; cap the extruder
E0
M42 P16 S0 ; turn extruder 5 off
G1
G1 X131.12 Y42.0 

G1 X131.12 Y42.0
C1 S255 ; cap the extruder
G1 Z1.0
M42 P16 S255 ; turn extruder 5 on
G1 X161.12 Y42.0
E0
M42 P16 S0 ; turn extruder 5 off
G1 X131.12 Y47.0 

G1 X131.12 Y47.0
C1 S255 ; cap the extruder
G1 Z1.0
M42 P16 S255 ; turn extruder 5 on
G1 X161.12 Y47.0
E0
M42 P16 S0 ; turn extruder 5 off
G1 X131.12 Y52.0 

G1 X131.12 Y52.0
C1 S255 ; cap the extruder
G1 Z1.0
M42 P16 S255 ; turn extruder 5 on
G1 X161.12 Y52.0
E0
M42 P16 S0 ; turn extruder 5 off
G1 X131.12 Y57.0 

G1 X131.12 Y57.0
C1 S255 ; cap the extruder
G1 Z1.0
M42 P16 S255 ; turn extruder 5 on
G1 X161.12 Y57.0
E0
M42 P16 S0 ; turn extruder 5 off
G1 X131.12 Y62.0 

G1 X131.12 Y62.0
C1 S255 ; cap the extruder
G1 Z1.0
M42 P16 S255 ; turn extruder 5 on
G1 X161.12 Y62.0
E0
M42 P16 S0 ; turn extruder 5 off
G1 X131.12 Y67.0 

G1 X131.12 Y67.0
C1 S255 ; cap the extruder
G1 Z1.0
M42 P16 S255 ; turn extruder 5 on
G1 X161.12 Y67.0
E0
M42 P16 S0 ; turn extruder 5 off
G1 X131.12 Y72.0 

G1 X131.12 Y72.0
C1 S255 ; cap the extruder
G1 Z1.0
M42 P16 S255 ; turn extruder 5 on
G1 X161.12 Y72.0
E0
C1 S0 ; uncap the extruder
T0 ; switch the extruder
G1 Z26.0
C1 S255 ; cap the extruder
E0
M42 P16 S0 ; turn extruder 0 off
G1
G1 X13.76 Y42.0
G1 X13.76 Y42.0
C1 S255 ; cap the extruder
G1 Z0.2
M42 P16 S255 ; turn extruder 0 on
G1 X18.76 Y47.0
G1 X23.76 Y42.0
G1 X28.76 Y47.0
G1 X33.76 Y42.0
G1 X38.76 Y47.0
G1 X43.76 Y42.0
E0
M42 P16 S0 ; turn extruder 0 off
G1 X43.76 Y47.0
G1 X43.76 Y47.0
C1 S255 ; cap the extruder
G1 Z0.2
M42 P16 S255 ; turn extruder 0 on
G1 X38.76 Y52.0
G1 X33.76 Y47.0
G1 X28.76 Y52.0
G1 X23.76 Y47.0
G1 X18.76 Y52.0
G1 X13.76 Y47.0
E0
E0
M42 P16 S0 ; turn extruder 0 off
G1 X13.76 Y52.0 

G1 X13.76 Y52.0
C1 S255 ; cap the extruder
G1 Z0.2
M42 P16 S255 ; turn extruder 0 on
G1 X18.76 Y57.0
G1 X23.76 Y52.0
G1 X28.76 Y57.0
G1 X33.76 Y52.0
G1 X38.76 Y57.0
G1 X43.76 Y52.0
E0
E0 
M42 P16 S0 ; turn extruder 0 off
G1 X43.76 Y57.0 

G1 X43.76 Y57.0
C1 S255 ; cap the extruder
G1 Z0.2
M42 P16 S255 ; turn extruder 0 on
G1 X38.76 Y62.0
G1 X33.76 Y57.0
G1 X28.76 Y62.0
G1 X23.76 Y57.0
G1 X18.76 Y62.0
G1 X13.76 Y57.0
E0
E0
M42 P16 S0 ; turn extruder 0 off
G1 X13.76 Y62.0 

G1 X13.76 Y62.0
C1 S255 ; cap the extruder
G1 Z0.2
M42 P16 S255 ; turn extruder 0 on
G1 X18.76 Y67.0
G1 X23.76 Y62.0
G1 X28.76 Y67.0
G1 X33.76 Y62.0
G1 X38.76 Y67.0
G1 X43.76 Y62.0
E0
M42 P16 S0 ; turn extruder 0 off
G1 X43.76 Y67.0
G1 X43.76 Y67.0
C1 S255 ; cap the extruder
G1 Z0.2
M42 P16 S255 ; turn extruder 0 on
G1 X38.76 Y72.0
G1 X33.76 Y67.0
G1 X28.76 Y72.0
G1 X23.76 Y67.0
G1 X18.76 Y72.0
G1 X13.76 Y67.0
E0

C1 S0 ; uncap the extruder
T1 ; switch the extruder
G1 Z25.2
C1 S255 ; cap the extruder
M42 P16 S0 ; turn extruder 1 off
G1
G1 X170.24 Y42.0 

G1 X170.24 Y42.0
C1 S255 ; cap the extruder
G1 Z0.4
M42 P16 S255 ; turn extruder 1 on
G1 X170.24 Y72.0
E0
E0
M42 P16 S0 ; turn extruder 1 off
G1
G1 X175.24 Y42.0
G1 X175.24 Y42.0
C1 S255 ; cap the extruder
G1 Z0.4
M42 P16 S255 ; turn extruder 1 on
G1 X175.24 Y72.0
E0
E0
M42 P16 S0 ; turn extruder 1 off
G1
G1 X180.24 Y42.0
G1 X180.24 Y42.0
C1 S255 ; cap the extruder
G1 Z0.4
M42 P16 S255 ; turn extruder 1 on
G1 X180.24 Y72.0
E0
E0
M42 P16 S0 ; turn extruder 1 off
G1
G1 X185.24 Y42.0
G1 X185.24 Y42.0
C1 S255 ; cap the extruder
G1 Z0.4
M42 P16 S255 ; turn extruder 1 on
G1 X185.24 Y72.0
E0
E0
M42 P16 S0 ; turn extruder 1 off
G1
G1 X190.24 Y42.0
G1 X190.24 Y42.0
C1 S255 ; cap the extruder
G1 Z0.4
M42 P16 S255 ; turn extruder 1 on
G1 X190.24 Y72.0
E0
E0
M42 P16 S0 ; turn extruder 1 off
G1
G1 X195.24 Y42.0
G1 X195.24 Y42.0
C1 S255 ; cap the extruder
G1 Z0.4
M42 P16 S255 ; turn extruder 1 on
G1 X195.24 Y72.0
E0
E0
M42 P16 S0 ; turn extruder 1 off
G1
G1 X200.24 Y42.0
G1 X200.24 Y42.0
C1 S255 ; cap the extruder
G1 Z0.4
M42 P16 S255 ; turn extruder 1 on
G1 X200.24 Y72.0
E0



C1 S0 ; uncap the extruder
T2 ; switch the extruder
G1 Z25.4
C1 S255 ; cap the extruder
E0
M42 P16 S0 ; turn extruder 2 off
G1
G1 X170.24 Y42.0 

G1 X170.24 Y42.0
C1 S255 ; cap the extruder
G1 Z0.4
M42 P16 S255 ; turn extruder 2 on
G1 X200.24 Y42.0
E0
M42 P16 S0 ; turn extruder 2 off
G1
G1 X170.24 Y47.0 

G1 X170.24 Y47.0
C1 S255 ; cap the extruder
G1 Z0.4
M42 P16 S255 ; turn extruder 2 on
G1 X200.24 Y47.0
E0
M42 P16 S0 ; turn extruder 2 off
G1
G1 X170.24 Y52.0 

G1 X170.24 Y52.0
C1 S255 ; cap the extruder
G1 Z0.4
M42 P16 S255 ; turn extruder 2 on
G1 X200.24 Y52.0
E0
M42 P16 S0 ; turn extruder 2 off
G1
G1 X170.24 Y57.0 

G1 X170.24 Y57.0
C1 S255 ; cap the extruder
G1 Z0.4
M42 P16 S255 ; turn extruder 2 on
G1 X200.24 Y57.0
E0
M42 P16 S0 ; turn extruder 2 off
G1
G1 X170.24 Y62.0 

G1 X170.24 Y62.0
C1 S255 ; cap the extruder
G1 Z0.4
M42 P16 S255 ; turn extruder 2 on
G1 X200.24 Y62.0
E0
M42 P16 S0 ; turn extruder 2 off
G1
G1 X170.24 Y67.0 

G1 X170.24 Y67.0
C1 S255 ; cap the extruder
G1 Z0.4
M42 P16 S255 ; turn extruder 2 on
G1 X200.24 Y67.0
E0
M42 P16 S0 ; turn extruder 2 off
G1
G1 X170.24 Y72.0 

G1 X170.24 Y72.0
C1 S255 ; cap the extruder
G1 Z0.4
M42 P16 S255 ; turn extruder 2 on
G1 X200.24 Y72.0
E0

C1 S0 ; uncap the extruder
T3 ; switch the extruder
G1 Z25.4
C1 S255 ; cap the extruder
E0
M42 P16 S0 ; turn extruder 3 off
G1
G1 X170.24 Y42.0
G1 X170.24 Y42.0
C1 S255 ; cap the extruder
G1 Z0.6
M42 P16 S255 ; turn extruder 3 on
G1 X175.24 Y47.0
G1 X170.24 Y52.0
G1 X175.24 Y57.0
G1 X170.24 Y62.0
G1 X175.24 Y67.0
G1 X170.24 Y72.0
E0
E0
M42 P16 S0 ; turn extruder 3 off
G1
G1 X175.24 Y42.0
G1 X175.24 Y42.0
C1 S255 ; cap the extruder
G1 Z0.6
M42 P16 S255 ; turn extruder 3 on
G1 X180.24 Y47.0
G1 X175.24 Y52.0
G1 X180.24 Y57.0
G1 X175.24 Y62.0
G1 X180.24 Y67.0
G1 X175.24 Y72.0
E0
E0
M42 P16 S0 ; turn extruder 3 off
G1
G1 X180.24 Y42.0
G1 X180.24 Y42.0
C1 S255 ; cap the extruder
G1 Z0.6
M42 P16 S255 ; turn extruder 3 on
G1 X185.24 Y47.0
G1 X180.24 Y52.0
G1 X185.24 Y57.0
G1 X180.24 Y62.0
G1 X185.24 Y67.0M42 P16 S0 ; turn extruder 3 off
G1 X185.24 Y67.0
C1 S255 ; cap the extruder
G1 Z0.6
M42 P16 S255 ; turn extruder 3 on
G1 X180.24 Y72.0
E0
E0
M42 P16 S0 ; turn extruder 3 off
G1
G1 X185.24 Y42.0
G1 X185.24 Y42.0
C1 S255 ; cap the extruder
G1 Z0.6
M42 P16 S255 ; turn extruder 3 on
G1 X190.24 Y47.0
G1 X185.24 Y52.0
G1 X190.24 Y57.0
G1 X185.24 Y62.0
G1 X190.24 Y67.0
G1 X185.24 Y72.0
E0
E0
M42 P16 S0 ; turn extruder 3 off
G1
G1 X190.24 Y42.0
G1 X190.24 Y42.0
C1 S255 ; cap the extruder
G1 Z0.6
M42 P16 S255 ; turn extruder 3 on
G1 X195.24 Y47.0
G1 X190.24 Y52.0
G1 X195.24 Y57.0
G1 X190.24 Y62.0
G1 X195.24 Y67.0
G1 X190.24 Y72.0
E0
E0
M42 P16 S0 ; turn extruder 3 off
G1
G1 X180.24 Y42.0
G1 X180.24 Y42.0
C1 S255 ; cap the extruder
G1 Z0.6
M42 P16 S255 ; turn extruder 3 on
G1 X185.24 Y47.0
G1 X180.24 Y52.0
G1 X185.24 Y57.0
G1 X180.24 Y62.0
G1 X185.24 Y67.0
G1 X180.24 Y72.0
E0
E0
M42 P16 S0 ; turn extruder 3 off
G1
G1 X195.24 Y42.0
G1 X195.24 Y42.0
C1 S255 ; cap the extruder
G1 Z0.6
M42 P16 S255 ; turn extruder 3 on
G1 X200.24 Y47.0
G1 X195.24 Y52.0
G1 X200.24 Y57.0
G1 X195.24 Y62.0
G1 X200.24 Y67.0
G1 X195.24 Y72.0
E0

C1 S0 ; uncap the extruder
T4 ; switch the extruder
G1 Z25.6
C1 S255 ; cap the extruder
E0
M42 P16 S0 ; turn extruder 4 off
G1
G1 X170.24 Y42.0
G1 X170.24 Y42.0
C1 S255 ; cap the extruder
G1 Z0.8
M42 P16 S255 ; turn extruder 4 on
G1 X175.24 Y47.0
G1 X180.24 Y42.0
G1 X185.24 Y47.0
G1 X190.24 Y42.0
G1 X195.24 Y47.0
G1 X200.24 Y42.0
E0
M42 P16 S0 ; turn extruder 4 off
G1 X200.24 Y47.0
G1 X200.24 Y47.0
C1 S255 ; cap the extruder
G1 Z0.8
M42 P16 S255 ; turn extruder 4 on
G1 X195.24 Y52.0
G1 X190.24 Y47.0
G1 X185.24 Y52.0
G1 X180.24 Y47.0
G1 X175.24 Y52.0
G1 X170.24 Y47.0
E0
E0
M42 P16 S0 ; turn extruder 4 off
G1 X170.24 Y52.0 

G1 X170.24 Y52.0
C1 S255 ; cap the extruder
G1 Z0.8
M42 P16 S255 ; turn extruder 4 on
G1 X175.24 Y57.0
G1 X180.24 Y52.0
G1 X185.24 Y57.0
G1 X190.24 Y52.0
G1 X195.24 Y57.0
G1 X200.24 Y52.0
E0
E0 
M42 P16 S0 ; turn extruder 4 off
G1 X200.24 Y57.0 

G1 X200.24 Y57.0
C1 S255 ; cap the extruder
G1 Z0.8
M42 P16 S255 ; turn extruder 4 on
G1 X195.24 Y62.0
G1 X190.24 Y57.0
G1 X185.24 Y62.0
G1 X180.24 Y57.0
G1 X175.24 Y62.0
G1 X170.24 Y57.0
E0
E0
M42 P16 S0 ; turn extruder 4 off
G1 X170.24 Y62.0 

G1 X170.24 Y62.0
C1 S255 ; cap the extruder
G1 Z0.8
M42 P16 S255 ; turn extruder 4 on
G1 X175.24 Y67.0
G1 X180.24 Y62.0
G1 X185.24 Y67.0
G1 X190.24 Y62.0
G1 X195.24 Y67.0
G1 X200.24 Y62.0
E0
M42 P16 S0 ; turn extruder 4 off
G1 X200.24 Y67.0
G1 X200.24 Y67.0
C1 S255 ; cap the extruder
G1 Z0.8
M42 P16 S255 ; turn extruder 4 on
G1 X195.24 Y72.0
G1 X190.24 Y67.0
G1 X185.24 Y72.0
G1 X180.24 Y67.0
G1 X175.24 Y72.0
G1 X170.24 Y67.0
E0


C1 S0 ; uncap the extruder
T5 ; switch the extruder
G1 Z25.8
C1 S255 ; cap the extruder
E0
M42 P16 S0 ; turn extruder 5 off
G1
G1 X170.24 Y42.0 

G1 X170.24 Y42.0
C1 S255 ; cap the extruder
G1 Z1.0
M42 P16 S255 ; turn extruder 5 on
G1 X200.24 Y42.0
E0
M42 P16 S0 ; turn extruder 5 off
G1 X170.24 Y47.0 

G1 X170.24 Y47.0
C1 S255 ; cap the extruder
G1 Z1.0
M42 P16 S255 ; turn extruder 5 on
G1 X200.24 Y47.0
E0
M42 P16 S0 ; turn extruder 5 off
G1 X170.24 Y52.0 

G1 X170.24 Y52.0
C1 S255 ; cap the extruder
G1 Z1.0
M42 P16 S255 ; turn extruder 5 on
G1 X200.24 Y52.0
E0
M42 P16 S0 ; turn extruder 5 off
G1 X170.24 Y57.0 

G1 X170.24 Y57.0
C1 S255 ; cap the extruder
G1 Z1.0
M42 P16 S255 ; turn extruder 5 on
G1 X200.24 Y57.0
E0
M42 P16 S0 ; turn extruder 5 off
G1 X170.24 Y62.0 

G1 X170.24 Y62.0
C1 S255 ; cap the extruder
G1 Z1.0
M42 P16 S255 ; turn extruder 5 on
G1 X200.24 Y62.0
E0
M42 P16 S0 ; turn extruder 5 off
G1 X170.24 Y67.0 

G1 X170.24 Y67.0
C1 S255 ; cap the extruder
G1 Z1.0
M42 P16 S255 ; turn extruder 5 on
G1 X200.24 Y67.0
E0
M42 P16 S0 ; turn extruder 5 off
G1 X170.24 Y72.0 

G1 X170.24 Y72.0
C1 S255 ; cap the extruder
G1 Z1.0
M42 P16 S255 ; turn extruder 5 on
G1 X200.24 Y72.0
E0
C1 S0 ; uncap the extruder
T0 ; switch the extruder
G1 Z26.0
C1 S255 ; cap the extruder
E0
M42 P16 S0 ; turn extruder 0 off
G1
G1 X92.0 Y2.88
G1 X92.0 Y2.88
C1 S255 ; cap the extruder
G1 Z0.2
M42 P16 S255 ; turn extruder 0 on
G1 X97.0 Y7.88
G1 X102.0 Y2.88
G1 X107.0 Y7.88
G1 X112.0 Y2.88
G1 X117.0 Y7.88
G1 X122.0 Y2.88
E0
M42 P16 S0 ; turn extruder 0 off
G1 X122.0 Y7.88
G1 X122.0 Y7.88
C1 S255 ; cap the extruder
G1 Z0.2
M42 P16 S255 ; turn extruder 0 on
G1 X117.0 Y12.88
G1 X112.0 Y7.88
G1 X107.0 Y12.88
G1 X102.0 Y7.88
G1 X97.0 Y12.88
G1 X92.0 Y7.88
E0
E0
M42 P16 S0 ; turn extruder 0 off
G1 X92.0 Y12.88 

G1 X92.0 Y12.88
C1 S255 ; cap the extruder
G1 Z0.2
M42 P16 S255 ; turn extruder 0 on
G1 X97.0 Y17.88
G1 X102.0 Y12.88
G1 X107.0 Y17.88
G1 X112.0 Y12.88
G1 X117.0 Y17.88
G1 X122.0 Y12.88
E0
E0 
M42 P16 S0 ; turn extruder 0 off
G1 X122.0 Y17.88 

G1 X122.0 Y17.88
C1 S255 ; cap the extruder
G1 Z0.2
M42 P16 S255 ; turn extruder 0 on
G1 X117.0 Y22.88
G1 X112.0 Y17.88
G1 X107.0 Y22.88
G1 X102.0 Y17.88
G1 X97.0 Y22.88
G1 X92.0 Y17.88
E0
E0
M42 P16 S0 ; turn extruder 0 off
G1 X92.0 Y22.88 

G1 X92.0 Y22.88
C1 S255 ; cap the extruder
G1 Z0.2
M42 P16 S255 ; turn extruder 0 on
G1 X97.0 Y27.88
G1 X102.0 Y22.88
G1 X107.0 Y27.88
G1 X112.0 Y22.88
G1 X117.0 Y27.88
G1 X122.0 Y22.88
E0
M42 P16 S0 ; turn extruder 0 off
G1 X122.0 Y27.88
G1 X122.0 Y27.88
C1 S255 ; cap the extruder
G1 Z0.2
M42 P16 S255 ; turn extruder 0 on
G1 X117.0 Y32.88
G1 X112.0 Y27.88
G1 X107.0 Y32.88
G1 X102.0 Y27.88
G1 X97.0 Y32.88
G1 X92.0 Y27.88
E0

C1 S0 ; uncap the extruder
T1 ; switch the extruder
G1 Z25.2
C1 S255 ; cap the extruder
M42 P16 S0 ; turn extruder 1 off
G1
G1 X92.0 Y81.12 

G1 X92.0 Y81.12
C1 S255 ; cap the extruder
G1 Z0.4
M42 P16 S255 ; turn extruder 1 on
G1 X92.0 Y111.12
E0
E0
M42 P16 S0 ; turn extruder 1 off
G1
G1 X97.0 Y81.12
G1 X97.0 Y81.12
C1 S255 ; cap the extruder
G1 Z0.4
M42 P16 S255 ; turn extruder 1 on
G1 X97.0 Y111.12
E0
E0
M42 P16 S0 ; turn extruder 1 off
G1
G1 X102.0 Y81.12
G1 X102.0 Y81.12
C1 S255 ; cap the extruder
G1 Z0.4
M42 P16 S255 ; turn extruder 1 on
G1 X102.0 Y111.12
E0
E0
M42 P16 S0 ; turn extruder 1 off
G1
G1 X107.0 Y81.12
G1 X107.0 Y81.12
C1 S255 ; cap the extruder
G1 Z0.4
M42 P16 S255 ; turn extruder 1 on
G1 X107.0 Y111.12
E0
E0
M42 P16 S0 ; turn extruder 1 off
G1
G1 X112.0 Y81.12
G1 X112.0 Y81.12
C1 S255 ; cap the extruder
G1 Z0.4
M42 P16 S255 ; turn extruder 1 on
G1 X112.0 Y111.12
E0
E0
M42 P16 S0 ; turn extruder 1 off
G1
G1 X117.0 Y81.12
G1 X117.0 Y81.12
C1 S255 ; cap the extruder
G1 Z0.4
M42 P16 S255 ; turn extruder 1 on
G1 X117.0 Y111.12
E0
E0
M42 P16 S0 ; turn extruder 1 off
G1
G1 X122.0 Y81.12
G1 X122.0 Y81.12
C1 S255 ; cap the extruder
G1 Z0.4
M42 P16 S255 ; turn extruder 1 on
G1 X122.0 Y111.12
E0



C1 S0 ; uncap the extruder
T2 ; switch the extruder
G1 Z25.4
C1 S255 ; cap the extruder
E0
M42 P16 S0 ; turn extruder 2 off
G1
G1 X92.0 Y81.12 

G1 X92.0 Y81.12
C1 S255 ; cap the extruder
G1 Z0.4
M42 P16 S255 ; turn extruder 2 on
G1 X122.0 Y81.12
E0
M42 P16 S0 ; turn extruder 2 off
G1
G1 X92.0 Y86.12 

G1 X92.0 Y86.12
C1 S255 ; cap the extruder
G1 Z0.4
M42 P16 S255 ; turn extruder 2 on
G1 X122.0 Y86.12
E0
M42 P16 S0 ; turn extruder 2 off
G1
G1 X92.0 Y91.12 

G1 X92.0 Y91.12
C1 S255 ; cap the extruder
G1 Z0.4
M42 P16 S255 ; turn extruder 2 on
G1 X122.0 Y91.12
E0
M42 P16 S0 ; turn extruder 2 off
G1
G1 X92.0 Y96.12 

G1 X92.0 Y96.12
C1 S255 ; cap the extruder
G1 Z0.4
M42 P16 S255 ; turn extruder 2 on
G1 X122.0 Y96.12
E0
M42 P16 S0 ; turn extruder 2 off
G1
G1 X92.0 Y101.12 

G1 X92.0 Y101.12
C1 S255 ; cap the extruder
G1 Z0.4
M42 P16 S255 ; turn extruder 2 on
G1 X122.0 Y101.12
E0
M42 P16 S0 ; turn extruder 2 off
G1
G1 X92.0 Y106.12 

G1 X92.0 Y106.12
C1 S255 ; cap the extruder
G1 Z0.4
M42 P16 S255 ; turn extruder 2 on
G1 X122.0 Y106.12
E0
M42 P16 S0 ; turn extruder 2 off
G1
G1 X92.0 Y111.12 

G1 X92.0 Y111.12
C1 S255 ; cap the extruder
G1 Z0.4
M42 P16 S255 ; turn extruder 2 on
G1 X122.0 Y111.12
E0

C1 S0 ; uncap the extruder
T3 ; switch the extruder
G1 Z25.4
C1 S255 ; cap the extruder
E0
M42 P16 S0 ; turn extruder 3 off
G1
G1 X92.0 Y81.12
G1 X92.0 Y81.12
C1 S255 ; cap the extruder
G1 Z0.6
M42 P16 S255 ; turn extruder 3 on
G1 X97.0 Y86.12
G1 X92.0 Y91.12
G1 X97.0 Y96.12
G1 X92.0 Y101.12
G1 X97.0 Y106.12
G1 X92.0 Y111.12
E0
E0
M42 P16 S0 ; turn extruder 3 off
G1
G1 X97.0 Y81.12
G1 X97.0 Y81.12
C1 S255 ; cap the extruder
G1 Z0.6
M42 P16 S255 ; turn extruder 3 on
G1 X102.0 Y86.12
G1 X97.0 Y91.12
G1 X102.0 Y96.12
G1 X97.0 Y101.12
G1 X102.0 Y106.12
G1 X97.0 Y111.12
E0
E0
M42 P16 S0 ; turn extruder 3 off
G1
G1 X102.0 Y81.12
G1 X102.0 Y81.12
C1 S255 ; cap the extruder
G1 Z0.6
M42 P16 S255 ; turn extruder 3 on
G1 X107.0 Y86.12
G1 X102.0 Y91.12
G1 X107.0 Y96.12
G1 X102.0 Y101.12
G1 X107.0 Y106.12M42 P16 S0 ; turn extruder 3 off
G1 X107.0 Y106.12
C1 S255 ; cap the extruder
G1 Z0.6
M42 P16 S255 ; turn extruder 3 on
G1 X102.0 Y111.12
E0
E0
M42 P16 S0 ; turn extruder 3 off
G1
G1 X107.0 Y81.12
G1 X107.0 Y81.12
C1 S255 ; cap the extruder
G1 Z0.6
M42 P16 S255 ; turn extruder 3 on
G1 X112.0 Y86.12
G1 X107.0 Y91.12
G1 X112.0 Y96.12
G1 X107.0 Y101.12
G1 X112.0 Y106.12
G1 X107.0 Y111.12
E0
E0
M42 P16 S0 ; turn extruder 3 off
G1
G1 X112.0 Y81.12
G1 X112.0 Y81.12
C1 S255 ; cap the extruder
G1 Z0.6
M42 P16 S255 ; turn extruder 3 on
G1 X117.0 Y86.12
G1 X112.0 Y91.12
G1 X117.0 Y96.12
G1 X112.0 Y101.12
G1 X117.0 Y106.12
G1 X112.0 Y111.12
E0
E0
M42 P16 S0 ; turn extruder 3 off
G1
G1 X102.0 Y81.12
G1 X102.0 Y81.12
C1 S255 ; cap the extruder
G1 Z0.6
M42 P16 S255 ; turn extruder 3 on
G1 X107.0 Y86.12
G1 X102.0 Y91.12
G1 X107.0 Y96.12
G1 X102.0 Y101.12
G1 X107.0 Y106.12
G1 X102.0 Y111.12
E0
E0
M42 P16 S0 ; turn extruder 3 off
G1
G1 X117.0 Y81.12
G1 X117.0 Y81.12
C1 S255 ; cap the extruder
G1 Z0.6
M42 P16 S255 ; turn extruder 3 on
G1 X122.0 Y86.12
G1 X117.0 Y91.12
G1 X122.0 Y96.12
G1 X117.0 Y101.12
G1 X122.0 Y106.12
G1 X117.0 Y111.12
E0

C1 S0 ; uncap the extruder
T4 ; switch the extruder
G1 Z25.6
C1 S255 ; cap the extruder
E0
M42 P16 S0 ; turn extruder 4 off
G1
G1 X92.0 Y81.12
G1 X92.0 Y81.12
C1 S255 ; cap the extruder
G1 Z0.8
M42 P16 S255 ; turn extruder 4 on
G1 X97.0 Y86.12
G1 X102.0 Y81.12
G1 X107.0 Y86.12
G1 X112.0 Y81.12
G1 X117.0 Y86.12
G1 X122.0 Y81.12
E0
M42 P16 S0 ; turn extruder 4 off
G1 X122.0 Y86.12
G1 X122.0 Y86.12
C1 S255 ; cap the extruder
G1 Z0.8
M42 P16 S255 ; turn extruder 4 on
G1 X117.0 Y91.12
G1 X112.0 Y86.12
G1 X107.0 Y91.12
G1 X102.0 Y86.12
G1 X97.0 Y91.12
G1 X92.0 Y86.12
E0
E0
M42 P16 S0 ; turn extruder 4 off
G1 X92.0 Y91.12 

G1 X92.0 Y91.12
C1 S255 ; cap the extruder
G1 Z0.8
M42 P16 S255 ; turn extruder 4 on
G1 X97.0 Y96.12
G1 X102.0 Y91.12
G1 X107.0 Y96.12
G1 X112.0 Y91.12
G1 X117.0 Y96.12
G1 X122.0 Y91.12
E0
E0 
M42 P16 S0 ; turn extruder 4 off
G1 X122.0 Y96.12 

G1 X122.0 Y96.12
C1 S255 ; cap the extruder
G1 Z0.8
M42 P16 S255 ; turn extruder 4 on
G1 X117.0 Y101.12
G1 X112.0 Y96.12
G1 X107.0 Y101.12
G1 X102.0 Y96.12
G1 X97.0 Y101.12
G1 X92.0 Y96.12
E0
E0
M42 P16 S0 ; turn extruder 4 off
G1 X92.0 Y101.12 

G1 X92.0 Y101.12
C1 S255 ; cap the extruder
G1 Z0.8
M42 P16 S255 ; turn extruder 4 on
G1 X97.0 Y106.12
G1 X102.0 Y101.12
G1 X107.0 Y106.12
G1 X112.0 Y101.12
G1 X117.0 Y106.12
G1 X122.0 Y101.12
E0
M42 P16 S0 ; turn extruder 4 off
G1 X122.0 Y106.12
G1 X122.0 Y106.12
C1 S255 ; cap the extruder
G1 Z0.8
M42 P16 S255 ; turn extruder 4 on
G1 X117.0 Y111.12
G1 X112.0 Y106.12
G1 X107.0 Y111.12
G1 X102.0 Y106.12
G1 X97.0 Y111.12
G1 X92.0 Y106.12
E0


C1 S0 ; uncap the extruder
T5 ; switch the extruder
G1 Z25.8
C1 S255 ; cap the extruder
E0
M42 P16 S0 ; turn extruder 5 off
G1
G1 X92.0 Y81.12 

G1 X92.0 Y81.12
C1 S255 ; cap the extruder
G1 Z1.0
M42 P16 S255 ; turn extruder 5 on
G1 X122.0 Y81.12
E0
M42 P16 S0 ; turn extruder 5 off
G1 X92.0 Y86.12 

G1 X92.0 Y86.12
C1 S255 ; cap the extruder
G1 Z1.0
M42 P16 S255 ; turn extruder 5 on
G1 X122.0 Y86.12
E0
M42 P16 S0 ; turn extruder 5 off
G1 X92.0 Y91.12 

G1 X92.0 Y91.12
C1 S255 ; cap the extruder
G1 Z1.0
M42 P16 S255 ; turn extruder 5 on
G1 X122.0 Y91.12
E0
M42 P16 S0 ; turn extruder 5 off
G1 X92.0 Y96.12 

G1 X92.0 Y96.12
C1 S255 ; cap the extruder
G1 Z1.0
M42 P16 S255 ; turn extruder 5 on
G1 X122.0 Y96.12
E0
M42 P16 S0 ; turn extruder 5 off
G1 X92.0 Y101.12 

G1 X92.0 Y101.12
C1 S255 ; cap the extruder
G1 Z1.0
M42 P16 S255 ; turn extruder 5 on
G1 X122.0 Y101.12
E0
M42 P16 S0 ; turn extruder 5 off
G1 X92.0 Y106.12 

G1 X92.0 Y106.12
C1 S255 ; cap the extruder
G1 Z1.0
M42 P16 S255 ; turn extruder 5 on
G1 X122.0 Y106.12
E0
M42 P16 S0 ; turn extruder 5 off
G1 X92.0 Y111.12 

G1 X92.0 Y111.12
C1 S255 ; cap the extruder
G1 Z1.0
M42 P16 S255 ; turn extruder 5 on
G1 X122.0 Y111.12
E0
C1 S0 ; uncap the extruder
T0 ; switch the extruder
G1 Z26.0
C1 S255 ; cap the extruder
E0
M42 P16 S0 ; turn extruder 0 off
G1
G1 X52.88 Y2.88
G1 X52.88 Y2.88
C1 S255 ; cap the extruder
G1 Z0.2
M42 P16 S255 ; turn extruder 0 on
G1 X57.88 Y7.88
G1 X62.88 Y2.88
G1 X67.88 Y7.88
G1 X72.88 Y2.88
G1 X77.88 Y7.88
G1 X82.88 Y2.88
E0
M42 P16 S0 ; turn extruder 0 off
G1 X82.88 Y7.88
G1 X82.88 Y7.88
C1 S255 ; cap the extruder
G1 Z0.2
M42 P16 S255 ; turn extruder 0 on
G1 X77.88 Y12.88
G1 X72.88 Y7.88
G1 X67.88 Y12.88
G1 X62.88 Y7.88
G1 X57.88 Y12.88
G1 X52.88 Y7.88
E0
E0
M42 P16 S0 ; turn extruder 0 off
G1 X52.88 Y12.88 

G1 X52.88 Y12.88
C1 S255 ; cap the extruder
G1 Z0.2
M42 P16 S255 ; turn extruder 0 on
G1 X57.88 Y17.88
G1 X62.88 Y12.88
G1 X67.88 Y17.88
G1 X72.88 Y12.88
G1 X77.88 Y17.88
G1 X82.88 Y12.88
E0
E0 
M42 P16 S0 ; turn extruder 0 off
G1 X82.88 Y17.88 

G1 X82.88 Y17.88
C1 S255 ; cap the extruder
G1 Z0.2
M42 P16 S255 ; turn extruder 0 on
G1 X77.88 Y22.88
G1 X72.88 Y17.88
G1 X67.88 Y22.88
G1 X62.88 Y17.88
G1 X57.88 Y22.88
G1 X52.88 Y17.88
E0
E0
M42 P16 S0 ; turn extruder 0 off
G1 X52.88 Y22.88 

G1 X52.88 Y22.88
C1 S255 ; cap the extruder
G1 Z0.2
M42 P16 S255 ; turn extruder 0 on
G1 X57.88 Y27.88
G1 X62.88 Y22.88
G1 X67.88 Y27.88
G1 X72.88 Y22.88
G1 X77.88 Y27.88
G1 X82.88 Y22.88
E0
M42 P16 S0 ; turn extruder 0 off
G1 X82.88 Y27.88
G1 X82.88 Y27.88
C1 S255 ; cap the extruder
G1 Z0.2
M42 P16 S255 ; turn extruder 0 on
G1 X77.88 Y32.88
G1 X72.88 Y27.88
G1 X67.88 Y32.88
G1 X62.88 Y27.88
G1 X57.88 Y32.88
G1 X52.88 Y27.88
E0

C1 S0 ; uncap the extruder
T1 ; switch the extruder
G1 Z25.2
C1 S255 ; cap the extruder
M42 P16 S0 ; turn extruder 1 off
G1
G1 X131.12 Y81.12 

G1 X131.12 Y81.12
C1 S255 ; cap the extruder
G1 Z0.4
M42 P16 S255 ; turn extruder 1 on
G1 X131.12 Y111.12
E0
E0
M42 P16 S0 ; turn extruder 1 off
G1
G1 X136.12 Y81.12
G1 X136.12 Y81.12
C1 S255 ; cap the extruder
G1 Z0.4
M42 P16 S255 ; turn extruder 1 on
G1 X136.12 Y111.12
E0
E0
M42 P16 S0 ; turn extruder 1 off
G1
G1 X141.12 Y81.12
G1 X141.12 Y81.12
C1 S255 ; cap the extruder
G1 Z0.4
M42 P16 S255 ; turn extruder 1 on
G1 X141.12 Y111.12
E0
E0
M42 P16 S0 ; turn extruder 1 off
G1
G1 X146.12 Y81.12
G1 X146.12 Y81.12
C1 S255 ; cap the extruder
G1 Z0.4
M42 P16 S255 ; turn extruder 1 on
G1 X146.12 Y111.12
E0
E0
M42 P16 S0 ; turn extruder 1 off
G1
G1 X151.12 Y81.12
G1 X151.12 Y81.12
C1 S255 ; cap the extruder
G1 Z0.4
M42 P16 S255 ; turn extruder 1 on
G1 X151.12 Y111.12
E0
E0
M42 P16 S0 ; turn extruder 1 off
G1
G1 X156.12 Y81.12
G1 X156.12 Y81.12
C1 S255 ; cap the extruder
G1 Z0.4
M42 P16 S255 ; turn extruder 1 on
G1 X156.12 Y111.12
E0
E0
M42 P16 S0 ; turn extruder 1 off
G1
G1 X161.12 Y81.12
G1 X161.12 Y81.12
C1 S255 ; cap the extruder
G1 Z0.4
M42 P16 S255 ; turn extruder 1 on
G1 X161.12 Y111.12
E0



C1 S0 ; uncap the extruder
T2 ; switch the extruder
G1 Z25.4
C1 S255 ; cap the extruder
E0
M42 P16 S0 ; turn extruder 2 off
G1
G1 X131.12 Y81.12 

G1 X131.12 Y81.12
C1 S255 ; cap the extruder
G1 Z0.4
M42 P16 S255 ; turn extruder 2 on
G1 X161.12 Y81.12
E0
M42 P16 S0 ; turn extruder 2 off
G1
G1 X131.12 Y86.12 

G1 X131.12 Y86.12
C1 S255 ; cap the extruder
G1 Z0.4
M42 P16 S255 ; turn extruder 2 on
G1 X161.12 Y86.12
E0
M42 P16 S0 ; turn extruder 2 off
G1
G1 X131.12 Y91.12 

G1 X131.12 Y91.12
C1 S255 ; cap the extruder
G1 Z0.4
M42 P16 S255 ; turn extruder 2 on
G1 X161.12 Y91.12
E0
M42 P16 S0 ; turn extruder 2 off
G1
G1 X131.12 Y96.12 

G1 X131.12 Y96.12
C1 S255 ; cap the extruder
G1 Z0.4
M42 P16 S255 ; turn extruder 2 on
G1 X161.12 Y96.12
E0
M42 P16 S0 ; turn extruder 2 off
G1
G1 X131.12 Y101.12 

G1 X131.12 Y101.12
C1 S255 ; cap the extruder
G1 Z0.4
M42 P16 S255 ; turn extruder 2 on
G1 X161.12 Y101.12
E0
M42 P16 S0 ; turn extruder 2 off
G1
G1 X131.12 Y106.12 

G1 X131.12 Y106.12
C1 S255 ; cap the extruder
G1 Z0.4
M42 P16 S255 ; turn extruder 2 on
G1 X161.12 Y106.12
E0
M42 P16 S0 ; turn extruder 2 off
G1
G1 X131.12 Y111.12 

G1 X131.12 Y111.12
C1 S255 ; cap the extruder
G1 Z0.4
M42 P16 S255 ; turn extruder 2 on
G1 X161.12 Y111.12
E0

C1 S0 ; uncap the extruder
T3 ; switch the extruder
G1 Z25.4
C1 S255 ; cap the extruder
E0
M42 P16 S0 ; turn extruder 3 off
G1
G1 X131.12 Y81.12
G1 X131.12 Y81.12
C1 S255 ; cap the extruder
G1 Z0.6
M42 P16 S255 ; turn extruder 3 on
G1 X136.12 Y86.12
G1 X131.12 Y91.12
G1 X136.12 Y96.12
G1 X131.12 Y101.12
G1 X136.12 Y106.12
G1 X131.12 Y111.12
E0
E0
M42 P16 S0 ; turn extruder 3 off
G1
G1 X136.12 Y81.12
G1 X136.12 Y81.12
C1 S255 ; cap the extruder
G1 Z0.6
M42 P16 S255 ; turn extruder 3 on
G1 X141.12 Y86.12
G1 X136.12 Y91.12
G1 X141.12 Y96.12
G1 X136.12 Y101.12
G1 X141.12 Y106.12
G1 X136.12 Y111.12
E0
E0
M42 P16 S0 ; turn extruder 3 off
G1
G1 X141.12 Y81.12
G1 X141.12 Y81.12
C1 S255 ; cap the extruder
G1 Z0.6
M42 P16 S255 ; turn extruder 3 on
G1 X146.12 Y86.12
G1 X141.12 Y91.12
G1 X146.12 Y96.12
G1 X141.12 Y101.12
G1 X146.12 Y106.12M42 P16 S0 ; turn extruder 3 off
G1 X146.12 Y106.12
C1 S255 ; cap the extruder
G1 Z0.6
M42 P16 S255 ; turn extruder 3 on
G1 X141.12 Y111.12
E0
E0
M42 P16 S0 ; turn extruder 3 off
G1
G1 X146.12 Y81.12
G1 X146.12 Y81.12
C1 S255 ; cap the extruder
G1 Z0.6
M42 P16 S255 ; turn extruder 3 on
G1 X151.12 Y86.12
G1 X146.12 Y91.12
G1 X151.12 Y96.12
G1 X146.12 Y101.12
G1 X151.12 Y106.12
G1 X146.12 Y111.12
E0
E0
M42 P16 S0 ; turn extruder 3 off
G1
G1 X151.12 Y81.12
G1 X151.12 Y81.12
C1 S255 ; cap the extruder
G1 Z0.6
M42 P16 S255 ; turn extruder 3 on
G1 X156.12 Y86.12
G1 X151.12 Y91.12
G1 X156.12 Y96.12
G1 X151.12 Y101.12
G1 X156.12 Y106.12
G1 X151.12 Y111.12
E0
E0
M42 P16 S0 ; turn extruder 3 off
G1
G1 X141.12 Y81.12
G1 X141.12 Y81.12
C1 S255 ; cap the extruder
G1 Z0.6
M42 P16 S255 ; turn extruder 3 on
G1 X146.12 Y86.12
G1 X141.12 Y91.12
G1 X146.12 Y96.12
G1 X141.12 Y101.12
G1 X146.12 Y106.12
G1 X141.12 Y111.12
E0
E0
M42 P16 S0 ; turn extruder 3 off
G1
G1 X156.12 Y81.12
G1 X156.12 Y81.12
C1 S255 ; cap the extruder
G1 Z0.6
M42 P16 S255 ; turn extruder 3 on
G1 X161.12 Y86.12
G1 X156.12 Y91.12
G1 X161.12 Y96.12
G1 X156.12 Y101.12
G1 X161.12 Y106.12
G1 X156.12 Y111.12
E0

C1 S0 ; uncap the extruder
T4 ; switch the extruder
G1 Z25.6
C1 S255 ; cap the extruder
E0
M42 P16 S0 ; turn extruder 4 off
G1
G1 X131.12 Y81.12
G1 X131.12 Y81.12
C1 S255 ; cap the extruder
G1 Z0.8
M42 P16 S255 ; turn extruder 4 on
G1 X136.12 Y86.12
G1 X141.12 Y81.12
G1 X146.12 Y86.12
G1 X151.12 Y81.12
G1 X156.12 Y86.12
G1 X161.12 Y81.12
E0
M42 P16 S0 ; turn extruder 4 off
G1 X161.12 Y86.12
G1 X161.12 Y86.12
C1 S255 ; cap the extruder
G1 Z0.8
M42 P16 S255 ; turn extruder 4 on
G1 X156.12 Y91.12
G1 X151.12 Y86.12
G1 X146.12 Y91.12
G1 X141.12 Y86.12
G1 X136.12 Y91.12
G1 X131.12 Y86.12
E0
E0
M42 P16 S0 ; turn extruder 4 off
G1 X131.12 Y91.12 

G1 X131.12 Y91.12
C1 S255 ; cap the extruder
G1 Z0.8
M42 P16 S255 ; turn extruder 4 on
G1 X136.12 Y96.12
G1 X141.12 Y91.12
G1 X146.12 Y96.12
G1 X151.12 Y91.12
G1 X156.12 Y96.12
G1 X161.12 Y91.12
E0
E0 
M42 P16 S0 ; turn extruder 4 off
G1 X161.12 Y96.12 

G1 X161.12 Y96.12
C1 S255 ; cap the extruder
G1 Z0.8
M42 P16 S255 ; turn extruder 4 on
G1 X156.12 Y101.12
G1 X151.12 Y96.12
G1 X146.12 Y101.12
G1 X141.12 Y96.12
G1 X136.12 Y101.12
G1 X131.12 Y96.12
E0
E0
M42 P16 S0 ; turn extruder 4 off
G1 X131.12 Y101.12 

G1 X131.12 Y101.12
C1 S255 ; cap the extruder
G1 Z0.8
M42 P16 S255 ; turn extruder 4 on
G1 X136.12 Y106.12
G1 X141.12 Y101.12
G1 X146.12 Y106.12
G1 X151.12 Y101.12
G1 X156.12 Y106.12
G1 X161.12 Y101.12
E0
M42 P16 S0 ; turn extruder 4 off
G1 X161.12 Y106.12
G1 X161.12 Y106.12
C1 S255 ; cap the extruder
G1 Z0.8
M42 P16 S255 ; turn extruder 4 on
G1 X156.12 Y111.12
G1 X151.12 Y106.12
G1 X146.12 Y111.12
G1 X141.12 Y106.12
G1 X136.12 Y111.12
G1 X131.12 Y106.12
E0


C1 S0 ; uncap the extruder
T5 ; switch the extruder
G1 Z25.8
C1 S255 ; cap the extruder
E0
M42 P16 S0 ; turn extruder 5 off
G1
G1 X131.12 Y81.12 

G1 X131.12 Y81.12
C1 S255 ; cap the extruder
G1 Z1.0
M42 P16 S255 ; turn extruder 5 on
G1 X161.12 Y81.12
E0
M42 P16 S0 ; turn extruder 5 off
G1 X131.12 Y86.12 

G1 X131.12 Y86.12
C1 S255 ; cap the extruder
G1 Z1.0
M42 P16 S255 ; turn extruder 5 on
G1 X161.12 Y86.12
E0
M42 P16 S0 ; turn extruder 5 off
G1 X131.12 Y91.12 

G1 X131.12 Y91.12
C1 S255 ; cap the extruder
G1 Z1.0
M42 P16 S255 ; turn extruder 5 on
G1 X161.12 Y91.12
E0
M42 P16 S0 ; turn extruder 5 off
G1 X131.12 Y96.12 

G1 X131.12 Y96.12
C1 S255 ; cap the extruder
G1 Z1.0
M42 P16 S255 ; turn extruder 5 on
G1 X161.12 Y96.12
E0
M42 P16 S0 ; turn extruder 5 off
G1 X131.12 Y101.12 

G1 X131.12 Y101.12
C1 S255 ; cap the extruder
G1 Z1.0
M42 P16 S255 ; turn extruder 5 on
G1 X161.12 Y101.12
E0
M42 P16 S0 ; turn extruder 5 off
G1 X131.12 Y106.12 

G1 X131.12 Y106.12
C1 S255 ; cap the extruder
G1 Z1.0
M42 P16 S255 ; turn extruder 5 on
G1 X161.12 Y106.12
E0
M42 P16 S0 ; turn extruder 5 off
G1 X131.12 Y111.12 

G1 X131.12 Y111.12
C1 S255 ; cap the extruder
G1 Z1.0
M42 P16 S255 ; turn extruder 5 on
G1 X161.12 Y111.12
E0
C1 S0 ; uncap the extruder
T0 ; switch the extruder
G1 Z26.0
C1 S255 ; cap the extruder
E0
M42 P16 S0 ; turn extruder 0 off
G1
G1 X13.76 Y2.88
G1 X13.76 Y2.88
C1 S255 ; cap the extruder
G1 Z0.2
M42 P16 S255 ; turn extruder 0 on
G1 X18.76 Y7.88
G1 X23.76 Y2.88
G1 X28.76 Y7.88
G1 X33.76 Y2.88
G1 X38.76 Y7.88
G1 X43.76 Y2.88
E0
M42 P16 S0 ; turn extruder 0 off
G1 X43.76 Y7.88
G1 X43.76 Y7.88
C1 S255 ; cap the extruder
G1 Z0.2
M42 P16 S255 ; turn extruder 0 on
G1 X38.76 Y12.88
G1 X33.76 Y7.88
G1 X28.76 Y12.88
G1 X23.76 Y7.88
G1 X18.76 Y12.88
G1 X13.76 Y7.88
E0
E0
M42 P16 S0 ; turn extruder 0 off
G1 X13.76 Y12.88 

G1 X13.76 Y12.88
C1 S255 ; cap the extruder
G1 Z0.2
M42 P16 S255 ; turn extruder 0 on
G1 X18.76 Y17.88
G1 X23.76 Y12.88
G1 X28.76 Y17.88
G1 X33.76 Y12.88
G1 X38.76 Y17.88
G1 X43.76 Y12.88
E0
E0 
M42 P16 S0 ; turn extruder 0 off
G1 X43.76 Y17.88 

G1 X43.76 Y17.88
C1 S255 ; cap the extruder
G1 Z0.2
M42 P16 S255 ; turn extruder 0 on
G1 X38.76 Y22.88
G1 X33.76 Y17.88
G1 X28.76 Y22.88
G1 X23.76 Y17.88
G1 X18.76 Y22.88
G1 X13.76 Y17.88
E0
E0
M42 P16 S0 ; turn extruder 0 off
G1 X13.76 Y22.88 

G1 X13.76 Y22.88
C1 S255 ; cap the extruder
G1 Z0.2
M42 P16 S255 ; turn extruder 0 on
G1 X18.76 Y27.88
G1 X23.76 Y22.88
G1 X28.76 Y27.88
G1 X33.76 Y22.88
G1 X38.76 Y27.88
G1 X43.76 Y22.88
E0
M42 P16 S0 ; turn extruder 0 off
G1 X43.76 Y27.88
G1 X43.76 Y27.88
C1 S255 ; cap the extruder
G1 Z0.2
M42 P16 S255 ; turn extruder 0 on
G1 X38.76 Y32.88
G1 X33.76 Y27.88
G1 X28.76 Y32.88
G1 X23.76 Y27.88
G1 X18.76 Y32.88
G1 X13.76 Y27.88
E0

C1 S0 ; uncap the extruder
T1 ; switch the extruder
G1 Z25.2
C1 S255 ; cap the extruder
M42 P16 S0 ; turn extruder 1 off
G1
G1 X170.24 Y81.12 

G1 X170.24 Y81.12
C1 S255 ; cap the extruder
G1 Z0.4
M42 P16 S255 ; turn extruder 1 on
G1 X170.24 Y111.12
E0
E0
M42 P16 S0 ; turn extruder 1 off
G1
G1 X175.24 Y81.12
G1 X175.24 Y81.12
C1 S255 ; cap the extruder
G1 Z0.4
M42 P16 S255 ; turn extruder 1 on
G1 X175.24 Y111.12
E0
E0
M42 P16 S0 ; turn extruder 1 off
G1
G1 X180.24 Y81.12
G1 X180.24 Y81.12
C1 S255 ; cap the extruder
G1 Z0.4
M42 P16 S255 ; turn extruder 1 on
G1 X180.24 Y111.12
E0
E0
M42 P16 S0 ; turn extruder 1 off
G1
G1 X185.24 Y81.12
G1 X185.24 Y81.12
C1 S255 ; cap the extruder
G1 Z0.4
M42 P16 S255 ; turn extruder 1 on
G1 X185.24 Y111.12
E0
E0
M42 P16 S0 ; turn extruder 1 off
G1
G1 X190.24 Y81.12
G1 X190.24 Y81.12
C1 S255 ; cap the extruder
G1 Z0.4
M42 P16 S255 ; turn extruder 1 on
G1 X190.24 Y111.12
E0
E0
M42 P16 S0 ; turn extruder 1 off
G1
G1 X195.24 Y81.12
G1 X195.24 Y81.12
C1 S255 ; cap the extruder
G1 Z0.4
M42 P16 S255 ; turn extruder 1 on
G1 X195.24 Y111.12
E0
E0
M42 P16 S0 ; turn extruder 1 off
G1
G1 X200.24 Y81.12
G1 X200.24 Y81.12
C1 S255 ; cap the extruder
G1 Z0.4
M42 P16 S255 ; turn extruder 1 on
G1 X200.24 Y111.12
E0



C1 S0 ; uncap the extruder
T2 ; switch the extruder
G1 Z25.4
C1 S255 ; cap the extruder
E0
M42 P16 S0 ; turn extruder 2 off
G1
G1 X170.24 Y81.12 

G1 X170.24 Y81.12
C1 S255 ; cap the extruder
G1 Z0.4
M42 P16 S255 ; turn extruder 2 on
G1 X200.24 Y81.12
E0
M42 P16 S0 ; turn extruder 2 off
G1
G1 X170.24 Y86.12 

G1 X170.24 Y86.12
C1 S255 ; cap the extruder
G1 Z0.4
M42 P16 S255 ; turn extruder 2 on
G1 X200.24 Y86.12
E0
M42 P16 S0 ; turn extruder 2 off
G1
G1 X170.24 Y91.12 

G1 X170.24 Y91.12
C1 S255 ; cap the extruder
G1 Z0.4
M42 P16 S255 ; turn extruder 2 on
G1 X200.24 Y91.12
E0
M42 P16 S0 ; turn extruder 2 off
G1
G1 X170.24 Y96.12 

G1 X170.24 Y96.12
C1 S255 ; cap the extruder
G1 Z0.4
M42 P16 S255 ; turn extruder 2 on
G1 X200.24 Y96.12
E0
M42 P16 S0 ; turn extruder 2 off
G1
G1 X170.24 Y101.12 

G1 X170.24 Y101.12
C1 S255 ; cap the extruder
G1 Z0.4
M42 P16 S255 ; turn extruder 2 on
G1 X200.24 Y101.12
E0
M42 P16 S0 ; turn extruder 2 off
G1
G1 X170.24 Y106.12 

G1 X170.24 Y106.12
C1 S255 ; cap the extruder
G1 Z0.4
M42 P16 S255 ; turn extruder 2 on
G1 X200.24 Y106.12
E0
M42 P16 S0 ; turn extruder 2 off
G1
G1 X170.24 Y111.12 

G1 X170.24 Y111.12
C1 S255 ; cap the extruder
G1 Z0.4
M42 P16 S255 ; turn extruder 2 on
G1 X200.24 Y111.12
E0

C1 S0 ; uncap the extruder
T3 ; switch the extruder
G1 Z25.4
C1 S255 ; cap the extruder
E0
M42 P16 S0 ; turn extruder 3 off
G1
G1 X170.24 Y81.12
G1 X170.24 Y81.12
C1 S255 ; cap the extruder
G1 Z0.6
M42 P16 S255 ; turn extruder 3 on
G1 X175.24 Y86.12
G1 X170.24 Y91.12
G1 X175.24 Y96.12
G1 X170.24 Y101.12
G1 X175.24 Y106.12
G1 X170.24 Y111.12
E0
E0
M42 P16 S0 ; turn extruder 3 off
G1
G1 X175.24 Y81.12
G1 X175.24 Y81.12
C1 S255 ; cap the extruder
G1 Z0.6
M42 P16 S255 ; turn extruder 3 on
G1 X180.24 Y86.12
G1 X175.24 Y91.12
G1 X180.24 Y96.12
G1 X175.24 Y101.12
G1 X180.24 Y106.12
G1 X175.24 Y111.12
E0
E0
M42 P16 S0 ; turn extruder 3 off
G1
G1 X180.24 Y81.12
G1 X180.24 Y81.12
C1 S255 ; cap the extruder
G1 Z0.6
M42 P16 S255 ; turn extruder 3 on
G1 X185.24 Y86.12
G1 X180.24 Y91.12
G1 X185.24 Y96.12
G1 X180.24 Y101.12
G1 X185.24 Y106.12M42 P16 S0 ; turn extruder 3 off
G1 X185.24 Y106.12
C1 S255 ; cap the extruder
G1 Z0.6
M42 P16 S255 ; turn extruder 3 on
G1 X180.24 Y111.12
E0
E0
M42 P16 S0 ; turn extruder 3 off
G1
G1 X185.24 Y81.12
G1 X185.24 Y81.12
C1 S255 ; cap the extruder
G1 Z0.6
M42 P16 S255 ; turn extruder 3 on
G1 X190.24 Y86.12
G1 X185.24 Y91.12
G1 X190.24 Y96.12
G1 X185.24 Y101.12
G1 X190.24 Y106.12
G1 X185.24 Y111.12
E0
E0
M42 P16 S0 ; turn extruder 3 off
G1
G1 X190.24 Y81.12
G1 X190.24 Y81.12
C1 S255 ; cap the extruder
G1 Z0.6
M42 P16 S255 ; turn extruder 3 on
G1 X195.24 Y86.12
G1 X190.24 Y91.12
G1 X195.24 Y96.12
G1 X190.24 Y101.12
G1 X195.24 Y106.12
G1 X190.24 Y111.12
E0
E0
M42 P16 S0 ; turn extruder 3 off
G1
G1 X180.24 Y81.12
G1 X180.24 Y81.12
C1 S255 ; cap the extruder
G1 Z0.6
M42 P16 S255 ; turn extruder 3 on
G1 X185.24 Y86.12
G1 X180.24 Y91.12
G1 X185.24 Y96.12
G1 X180.24 Y101.12
G1 X185.24 Y106.12
G1 X180.24 Y111.12
E0
E0
M42 P16 S0 ; turn extruder 3 off
G1
G1 X195.24 Y81.12
G1 X195.24 Y81.12
C1 S255 ; cap the extruder
G1 Z0.6
M42 P16 S255 ; turn extruder 3 on
G1 X200.24 Y86.12
G1 X195.24 Y91.12
G1 X200.24 Y96.12
G1 X195.24 Y101.12
G1 X200.24 Y106.12
G1 X195.24 Y111.12
E0

C1 S0 ; uncap the extruder
T4 ; switch the extruder
G1 Z25.6
C1 S255 ; cap the extruder
E0
M42 P16 S0 ; turn extruder 4 off
G1
G1 X170.24 Y81.12
G1 X170.24 Y81.12
C1 S255 ; cap the extruder
G1 Z0.8
M42 P16 S255 ; turn extruder 4 on
G1 X175.24 Y86.12
G1 X180.24 Y81.12
G1 X185.24 Y86.12
G1 X190.24 Y81.12
G1 X195.24 Y86.12
G1 X200.24 Y81.12
E0
M42 P16 S0 ; turn extruder 4 off
G1 X200.24 Y86.12
G1 X200.24 Y86.12
C1 S255 ; cap the extruder
G1 Z0.8
M42 P16 S255 ; turn extruder 4 on
G1 X195.24 Y91.12
G1 X190.24 Y86.12
G1 X185.24 Y91.12
G1 X180.24 Y86.12
G1 X175.24 Y91.12
G1 X170.24 Y86.12
E0
E0
M42 P16 S0 ; turn extruder 4 off
G1 X170.24 Y91.12 

G1 X170.24 Y91.12
C1 S255 ; cap the extruder
G1 Z0.8
M42 P16 S255 ; turn extruder 4 on
G1 X175.24 Y96.12
G1 X180.24 Y91.12
G1 X185.24 Y96.12
G1 X190.24 Y91.12
G1 X195.24 Y96.12
G1 X200.24 Y91.12
E0
E0 
M42 P16 S0 ; turn extruder 4 off
G1 X200.24 Y96.12 

G1 X200.24 Y96.12
C1 S255 ; cap the extruder
G1 Z0.8
M42 P16 S255 ; turn extruder 4 on
G1 X195.24 Y101.12
G1 X190.24 Y96.12
G1 X185.24 Y101.12
G1 X180.24 Y96.12
G1 X175.24 Y101.12
G1 X170.24 Y96.12
E0
E0
M42 P16 S0 ; turn extruder 4 off
G1 X170.24 Y101.12 

G1 X170.24 Y101.12
C1 S255 ; cap the extruder
G1 Z0.8
M42 P16 S255 ; turn extruder 4 on
G1 X175.24 Y106.12
G1 X180.24 Y101.12
G1 X185.24 Y106.12
G1 X190.24 Y101.12
G1 X195.24 Y106.12
G1 X200.24 Y101.12
E0
M42 P16 S0 ; turn extruder 4 off
G1 X200.24 Y106.12
G1 X200.24 Y106.12
C1 S255 ; cap the extruder
G1 Z0.8
M42 P16 S255 ; turn extruder 4 on
G1 X195.24 Y111.12
G1 X190.24 Y106.12
G1 X185.24 Y111.12
G1 X180.24 Y106.12
G1 X175.24 Y111.12
G1 X170.24 Y106.12
E0


C1 S0 ; uncap the extruder
T5 ; switch the extruder
G1 Z25.8
C1 S255 ; cap the extruder
E0
M42 P16 S0 ; turn extruder 5 off
G1
G1 X170.24 Y81.12 

G1 X170.24 Y81.12
C1 S255 ; cap the extruder
G1 Z1.0
M42 P16 S255 ; turn extruder 5 on
G1 X200.24 Y81.12
E0
M42 P16 S0 ; turn extruder 5 off
G1 X170.24 Y86.12 

G1 X170.24 Y86.12
C1 S255 ; cap the extruder
G1 Z1.0
M42 P16 S255 ; turn extruder 5 on
G1 X200.24 Y86.12
E0
M42 P16 S0 ; turn extruder 5 off
G1 X170.24 Y91.12 

G1 X170.24 Y91.12
C1 S255 ; cap the extruder
G1 Z1.0
M42 P16 S255 ; turn extruder 5 on
G1 X200.24 Y91.12
E0
M42 P16 S0 ; turn extruder 5 off
G1 X170.24 Y96.12 

G1 X170.24 Y96.12
C1 S255 ; cap the extruder
G1 Z1.0
M42 P16 S255 ; turn extruder 5 on
G1 X200.24 Y96.12
E0
M42 P16 S0 ; turn extruder 5 off
G1 X170.24 Y101.12 

G1 X170.24 Y101.12
C1 S255 ; cap the extruder
G1 Z1.0
M42 P16 S255 ; turn extruder 5 on
G1 X200.24 Y101.12
E0
M42 P16 S0 ; turn extruder 5 off
G1 X170.24 Y106.12 

G1 X170.24 Y106.12
C1 S255 ; cap the extruder
G1 Z1.0
M42 P16 S255 ; turn extruder 5 on
G1 X200.24 Y106.12
E0
M42 P16 S0 ; turn extruder 5 off
G1 X170.24 Y111.12 

G1 X170.24 Y111.12
C1 S255 ; cap the extruder
G1 Z1.0
M42 P16 S255 ; turn extruder 5 on
G1 X200.24 Y111.12
E0
M42 P16 S0
M42 P17 S0
G1 Z50 F1000
G1 E0 F1000
G1 X0 Y0 F1000
