; generated by Slic3r 1.2.9 on 2015-12-22 at 17:51:47

; external perimeters extrusion width = 0.20mm
; perimeters extrusion width = 0.21mm
; infill extrusion width = 0.21mm
; solid infill extrusion width = 0.21mm
; top infill extrusion width = 0.21mm

M104 S200 ; set temperature
G28 ; home all axes
G1 Z5 F5000 ; lift nozzle
M109 S200 ; wait for temperature to be reached
G21 ; set units to millimeters
G90 ; use absolute coordinates
M82 ; use absolute distances for extrusion
G92 E0
G1 E-1.00000 F1800.00000
G92 E0
G1 Z0.200 F480.000
G1 X9.894 Y20.002 F480.000
G1 E1.00000 F1800.00000
G1 X8.192 Y19.921 E1.01722 F240.000
G1 X6.307 Y19.650 E1.03646
G1 X4.457 Y19.201 E1.05570
G1 X2.657 Y18.578 E1.07494
G1 X0.925 Y17.787 E1.09418
G1 X-0.725 Y16.835 E1.11342
G1 X-2.276 Y15.730 E1.13266
G1 X-3.715 Y14.483 E1.15190
G1 X-5.029 Y13.105 E1.17114
G1 X-6.207 Y11.608 E1.19038
G1 X-7.236 Y10.006 E1.20962
G1 X-8.109 Y8.313 E1.22886
G1 X-8.817 Y6.545 E1.24810
G1 X-9.353 Y4.718 E1.26734
G1 X-9.713 Y2.848 E1.28658
G1 X-9.894 Y0.952 E1.30583
G1 X-9.894 Y-0.952 E1.32507
G1 X-9.713 Y-2.848 E1.34431
G1 X-9.353 Y-4.718 E1.36355
G1 X-8.817 Y-6.545 E1.38279
G1 X-8.112 Y-8.304 E1.40193
G1 X-7.236 Y-10.006 E1.42127
G1 X-6.207 Y-11.608 E1.44051
G1 X-5.029 Y-13.105 E1.45975
G1 X-3.715 Y-14.483 E1.47899
G1 X-2.276 Y-15.730 E1.49823
G1 X-0.725 Y-16.835 E1.51747
G1 X0.925 Y-17.787 E1.53671
G1 X2.657 Y-18.578 E1.55595
G1 X4.457 Y-19.201 E1.57519
G1 X6.307 Y-19.650 E1.59443
G1 X8.192 Y-19.921 E1.61367
G1 X9.894 Y-20.002 E1.63089
G1 X9.894 Y19.972 E2.03476
G1 X9.686 Y19.680 F480.000
G1 X9.686 Y19.442 E2.03717 F240.000
G1 X9.360 Y19.768 E2.04183
G1 X9.588 Y19.779 E2.04414
G1 X9.686 Y19.680 E2.04554
G1 X9.686 Y19.203 F480.000
G1 X9.686 Y18.967 E2.04793 F240.000
G1 X8.906 Y19.746 E2.05907
G1 X9.134 Y19.757 E2.06137
G1 X9.686 Y19.203 E2.06927
G1 X9.686 Y18.728 F480.000
G1 X9.686 Y18.487 E2.07171 F240.000
G1 X8.448 Y19.724 E2.08939
G1 X8.676 Y19.735 E2.09169
G1 X9.686 Y18.728 E2.10610
G1 X9.686 Y18.248 F480.000
G1 X9.686 Y18.012 E2.10849 F240.000
G1 X8.013 Y19.685 E2.13239
G1 X8.223 Y19.714 E2.13453
G1 X9.686 Y18.248 E2.15545
G1 X9.686 Y17.773 F480.000
G1 X9.686 Y17.535 E2.15786 F240.000
G1 X7.594 Y19.624 E2.18773
G1 X7.803 Y19.654 E2.18986
G1 X9.686 Y17.773 E2.21676
G1 X9.686 Y17.294 F480.000
G1 X9.686 Y17.055 E2.21917 F240.000
G1 X7.177 Y19.564 E2.25502
G1 X7.387 Y19.595 E2.25717
G1 X9.686 Y17.294 E2.29003
G1 X9.686 Y16.819 F480.000
G1 X9.686 Y16.580 E2.29245 F240.000
G1 X6.761 Y19.505 E2.33423
G1 X6.968 Y19.534 E2.33634
G1 X9.686 Y16.819 E2.37516
G1 X9.686 Y16.339 F480.000
G1 X9.686 Y16.100 E2.37757 F240.000
G1 X6.342 Y19.444 E2.42535
G1 X6.553 Y19.475 E2.42750
G1 X9.686 Y16.339 E2.47228
G1 X9.686 Y15.862 F480.000
G1 X9.686 Y15.625 E2.47467 F240.000
G1 X5.960 Y19.351 E2.52791
G1 X6.152 Y19.398 E2.52990
G1 X9.686 Y15.862 E2.58041
G1 X9.686 Y15.387 F480.000
G1 X9.686 Y15.146 E2.58285 F240.000
G1 X5.574 Y19.258 E2.64160
G1 X5.766 Y19.304 E2.64360
G1 X9.686 Y15.387 E2.69959
G1 X9.686 Y14.907 F480.000
G1 X9.686 Y14.668 E2.70200 F240.000
G1 X5.190 Y19.164 E2.76624
G1 X5.384 Y19.211 E2.76826
G1 X9.686 Y14.907 E2.82975
G1 X9.686 Y14.432 F480.000
G1 X9.686 Y14.193 E2.83216 F240.000
G1 X4.808 Y19.072 E2.90186
G1 X4.998 Y19.118 E2.90384
G1 X5.013 Y19.105 E2.90404
G1 X9.686 Y14.432 E2.97081
G1 X9.686 Y13.952 F480.000
G1 X9.686 Y13.714 E2.97322 F240.000
G1 X4.429 Y18.971 E3.04833
G1 X4.614 Y19.025 E3.05028
G1 X9.686 Y13.952 E3.12275
G1 X9.686 Y13.477 F480.000
G1 X9.686 Y13.239 E3.12517 F240.000
G1 X4.074 Y18.848 E3.20533
G1 X4.253 Y18.910 E3.20725
G1 X9.686 Y13.477 E3.28487
G1 X9.686 Y13.000 F480.000
G1 X9.686 Y12.759 E3.28731 F240.000
G1 X3.721 Y18.726 E3.37255
G1 X3.899 Y18.787 E3.37444
G1 X9.686 Y13.000 E3.45713
G1 X9.686 Y12.520 F480.000
G1 X9.686 Y12.284 E3.45952 F240.000
G1 X3.367 Y18.603 E3.54981
G1 X3.542 Y18.664 E3.55169
G1 X9.686 Y12.520 E3.63947
G1 X9.686 Y12.045 F480.000
G1 X9.686 Y11.804 E3.64191 F240.000
G1 X3.010 Y18.480 E3.73729
G1 X3.189 Y18.542 E3.73921
G1 X9.686 Y12.045 E3.83203
G1 X9.686 Y11.565 F480.000
G1 X9.686 Y11.327 E3.83444 F240.000
G1 X2.662 Y18.351 E3.93481
G1 X2.835 Y18.419 E3.93668
G1 X9.686 Y11.565 E4.03459
G1 X9.686 Y11.090 F480.000
G1 X9.686 Y10.852 E4.03700 F240.000
G1 X2.336 Y18.202 E4.14203
G1 X2.498 Y18.276 E4.14383
G1 X2.516 Y18.261 E4.14407
G1 X9.686 Y11.090 E4.24652
G1 X9.686 Y10.611 F480.000
G1 X9.686 Y10.372 E4.24893 F240.000
G1 X2.008 Y18.053 E4.35865
G1 X2.170 Y18.127 E4.36045
G1 X9.686 Y10.611 E4.46784
G1 X9.686 Y10.133 F480.000
G1 X9.686 Y9.897 E4.47023 F240.000
G1 X1.679 Y17.902 E4.58462
G1 X1.842 Y17.977 E4.58644
G1 X9.686 Y10.133 E4.69851
G1 X9.686 Y9.658 F480.000
G1 X9.686 Y9.417 E4.70095 F240.000
G1 X1.351 Y17.752 E4.82004
G1 X1.516 Y17.828 E4.82188
G1 X9.686 Y9.658 E4.93861
G1 X9.686 Y9.179 F480.000
G1 X9.686 Y8.942 E4.94100 F240.000
G1 X1.025 Y17.604 E5.06475
G1 X1.189 Y17.678 E5.06657
G1 X9.686 Y9.179 E5.18800
G1 X9.686 Y8.704 F480.000
G1 X9.686 Y8.465 E5.19041 F240.000
G1 X0.722 Y17.429 E5.31849
G1 X0.872 Y17.516 E5.32024
G1 X0.909 Y17.481 E5.32075
G1 X9.686 Y8.704 E5.44616
G1 X9.686 Y8.224 F480.000
G1 X9.686 Y7.985 E5.44857 F240.000
G1 X0.419 Y17.254 E5.58099
G1 X0.569 Y17.341 E5.58274
G1 X9.686 Y8.224 E5.71301
G1 X9.686 Y7.749 F480.000
G1 X9.686 Y7.510 E5.71542 F240.000
G1 X0.117 Y17.080 E5.85215
G1 X0.266 Y17.166 E5.85389
G1 X9.686 Y7.749 E5.98847
G1 X9.686 Y7.269 F480.000
G1 X9.686 Y7.031 E5.99088 F240.000
G1 X-0.188 Y16.904 E6.13195
G1 X-0.035 Y16.992 E6.13373
G1 X9.686 Y7.269 E6.27264
G1 X9.686 Y6.792 F480.000
G1 X9.686 Y6.556 E6.27503 F240.000
G1 X-0.490 Y16.729 E6.42041
G1 X-0.337 Y16.818 E6.42219
G1 X9.686 Y6.792 E6.56543
G1 X9.686 Y6.317 F480.000
G1 X9.686 Y6.076 E6.56786 F240.000
G1 X-0.779 Y16.540 E6.71738
G1 X-0.638 Y16.641 E6.71913
G1 X9.686 Y6.317 E6.86663
G1 X9.686 Y5.837 F480.000
G1 X9.686 Y5.601 E6.86902 F240.000
G1 X-1.057 Y16.342 E7.02251
G1 X-0.917 Y16.442 E7.02425
G1 X9.686 Y5.837 E7.17575
G1 X9.686 Y5.362 F480.000
G1 X9.686 Y5.124 E7.17817 F240.000
G1 X-1.335 Y16.144 E7.33563
G1 X-1.197 Y16.243 E7.33734
G1 X-1.175 Y16.224 E7.33764
G1 X9.686 Y5.362 E7.49282
G1 X9.686 Y4.883 F480.000
G1 X9.686 Y4.644 E7.49523 F240.000
G1 X-1.614 Y15.946 E7.65670
G1 X-1.476 Y16.044 E7.65841
G1 X-1.414 Y15.985 E7.65928
G1 X9.686 Y4.883 E7.81789
G1 X9.686 Y4.408 F480.000
G1 X9.686 Y4.169 E7.82030 F240.000
G1 X-1.892 Y15.747 E7.98574
G1 X-1.754 Y15.846 E7.98745
G1 X-1.653 Y15.746 E7.98888
G1 X9.686 Y4.408 E8.15089
G1 X9.686 Y3.930 F480.000
G1 X9.686 Y3.689 E8.15333 F240.000
G1 X-2.169 Y15.547 E8.32273
G1 X-2.033 Y15.647 E8.32444
G1 X9.686 Y3.930 E8.49187
G1 X9.686 Y3.451 F480.000
G1 X9.686 Y3.214 E8.49426 F240.000
G1 X-2.425 Y15.325 E8.66730
G1 X-2.298 Y15.435 E8.66899
G1 X9.686 Y3.451 E8.84022
G1 X9.686 Y2.976 F480.000
G1 X9.686 Y2.735 E8.84266 F240.000
G1 X-2.681 Y15.104 E9.01937
G1 X-2.554 Y15.213 E9.02107
G1 X9.686 Y2.976 E9.19594
G1 X9.686 Y2.496 F480.000
G1 X9.686 Y2.257 E9.19835 F240.000
G1 X-2.938 Y14.881 E9.37872
G1 X-2.810 Y14.992 E9.38043
G1 X9.686 Y2.496 E9.55897
G1 X9.686 Y2.021 F480.000
G1 X9.686 Y1.782 E9.56138 F240.000
G1 X-3.193 Y14.659 E9.74539
G1 X-3.064 Y14.771 E9.74711
G1 X9.686 Y2.021 E9.92929
G1 X9.686 Y1.541 F480.000
G1 X9.686 Y1.303 E9.93170 F240.000
G1 X-3.449 Y14.438 E10.11938
G1 X-3.320 Y14.550 E10.12111
G1 X9.686 Y1.541 E10.30696
G1 X9.686 Y1.066 F480.000
G1 X9.686 Y0.828 E10.30937 F240.000
G1 X-3.693 Y14.204 E10.50051
G1 X-3.575 Y14.328 E10.50223
G1 X9.686 Y1.066 E10.69171
G1 X9.686 Y0.589 F480.000
G1 X9.686 Y0.348 E10.69415 F240.000
G1 X-3.926 Y13.960 E10.88864
G1 X-3.808 Y14.083 E10.89036
G1 X9.686 Y0.589 E11.08317
G1 X9.686 Y0.109 F480.000
G1 X9.686 Y-0.127 E11.08556 F240.000
G1 X-4.159 Y13.715 E11.28336
G1 X-4.041 Y13.839 E11.28508
G1 X9.686 Y0.109 E11.48124
G1 X9.686 Y-0.366 F480.000
G1 X9.686 Y-0.607 E11.48368 F240.000
G1 X-4.392 Y13.471 E11.68482
G1 X-4.274 Y13.594 E11.68655
G1 X9.686 Y-0.366 E11.88601
G1 X9.686 Y-0.846 F480.000
G1 X9.686 Y-1.084 E11.88842 F240.000
G1 X-4.625 Y13.227 E12.09290
G1 X-4.507 Y13.350 E12.09462
G1 X9.686 Y-0.846 E12.29744
G1 X9.686 Y-1.321 F480.000
G1 X9.686 Y-1.559 E12.29985 F240.000
G1 X-4.858 Y12.982 E12.50764
G1 X-4.740 Y13.106 E12.50936
G1 X9.686 Y-1.321 E12.71549
G1 X9.686 Y-1.800 F480.000
G1 X9.686 Y-2.039 E12.71790 F240.000
G1 X-5.068 Y12.718 E12.92873
G1 X-4.963 Y12.851 E12.93045
G1 X9.686 Y-1.800 E13.13977
G1 X9.686 Y-2.278 F480.000
G1 X9.686 Y-2.514 E13.14216 F240.000
G1 X-5.279 Y12.451 E13.35598
G1 X-5.174 Y12.583 E13.35768
G1 X9.686 Y-2.278 E13.57001
G1 X9.686 Y-2.753 F480.000
G1 X9.686 Y-2.994 E13.57244 F240.000
G1 X-5.353 Y12.046 E13.78732
G1 X-5.489 Y12.183 E13.78928
G1 X-5.385 Y12.316 E13.79098
G1 X9.686 Y-2.753 E14.00629
G1 X9.686 Y-3.232 F480.000
G1 X9.686 Y-3.469 E14.00868 F240.000
G1 X-5.592 Y11.807 E14.22695
G1 X-5.699 Y11.916 E14.22850
G1 X-5.595 Y12.048 E14.23020
G1 X9.686 Y-3.232 E14.44853
G1 X9.686 Y-3.707 F480.000
G1 X9.686 Y-3.946 E14.45095 F240.000
G1 X-5.831 Y11.568 E14.67263
G1 X-5.909 Y11.649 E14.67377
G1 X-5.805 Y11.781 E14.67547
G1 X9.686 Y-3.707 E14.89679
G1 X9.686 Y-4.187 F480.000
G1 X9.686 Y-4.426 E14.89920 F240.000
G1 X-6.069 Y11.330 E15.12431
G1 X-6.110 Y11.373 E15.12491
G1 X-6.015 Y11.514 E15.12663
G1 X9.686 Y-4.187 E15.35097
G1 X9.686 Y-4.662 F480.000
G1 X9.686 Y-4.901 E15.35338 F240.000
G1 X-6.298 Y11.081 E15.58174
G1 X-6.204 Y11.226 E15.58349
G1 X9.686 Y-4.662 E15.81051
G1 X9.686 Y-5.142 F480.000
G1 X9.686 Y-5.380 E15.81292 F240.000
G1 X-6.484 Y10.790 E16.04397
G1 X-6.390 Y10.937 E16.04573
G1 X9.686 Y-5.142 E16.27544
G1 X9.686 Y-5.619 F480.000
G1 X9.686 Y-5.855 E16.27783 F240.000
G1 X-6.671 Y10.499 E16.51152
G1 X-6.577 Y10.646 E16.51329
G1 X9.686 Y-5.619 E16.74567
G1 X9.686 Y-6.094 F480.000
G1 X9.686 Y-6.335 E16.74810 F240.000
G1 X-6.858 Y10.209 E16.98449
G1 X-6.764 Y10.355 E16.98625
G1 X9.686 Y-6.094 E17.22128
G1 X9.686 Y-6.574 F480.000
G1 X9.686 Y-6.810 E17.22367 F240.000
G1 X-7.044 Y9.920 E17.46270
G1 X-6.950 Y10.065 E17.46445
G1 X9.686 Y-6.574 E17.70217
G1 X9.686 Y-7.049 F480.000
G1 X9.686 Y-7.287 E17.70458 F240.000
G1 X-7.088 Y9.484 E17.94423
G1 X-7.208 Y9.606 E17.94596
G1 X-7.127 Y9.762 E17.94773
G1 X9.686 Y-7.049 E18.18794
G1 X9.686 Y-7.528 F480.000
G1 X9.686 Y-7.767 E18.19035 F240.000
G1 X-7.327 Y9.245 E18.43343
G1 X-7.370 Y9.291 E18.43407
G1 X-7.290 Y9.447 E18.43584
G1 X9.686 Y-7.528 E18.67839
G1 X9.686 Y-8.003 F480.000
G1 X9.686 Y-8.242 E18.68080 F240.000
G1 X-7.533 Y8.975 E18.92681
G1 X-7.452 Y9.132 E18.92860
G1 X9.686 Y-8.003 E19.17346
G1 X9.686 Y-8.481 F480.000
G1 X9.686 Y-8.722 E19.17589 F240.000
G1 X-7.695 Y8.660 E19.42424
G1 X-7.613 Y8.819 E19.42605
G1 X9.686 Y-8.481 E19.67323
G1 X9.686 Y-8.960 F480.000
G1 X9.686 Y-9.197 E19.67561 F240.000
G1 X-7.858 Y8.345 E19.92627
G1 X-7.776 Y8.504 E19.92807
G1 X9.686 Y-8.960 E20.17759
G1 X9.686 Y-9.435 F480.000
G1 X9.686 Y-9.676 E20.18003 F240.000
G1 X-7.868 Y7.877 E20.43084
G1 X-8.003 Y8.015 E20.43279
G1 X-7.936 Y8.184 E20.43463
G1 X9.686 Y-9.435 E20.68639
G1 X9.686 Y-9.915 F480.000
G1 X9.686 Y-10.154 E20.68881 F240.000
G1 X-8.107 Y7.639 E20.94303
G1 X-8.140 Y7.674 E20.94352
G1 X-8.072 Y7.843 E20.94536
G1 X9.686 Y-9.915 E21.19909
G1 X9.686 Y-10.390 F480.000
G1 X9.686 Y-10.629 E21.20150 F240.000
G1 X-8.277 Y7.332 E21.45814
G1 X-8.208 Y7.504 E21.46002
G1 X9.686 Y-10.390 E21.71569
G1 X9.686 Y-10.870 F480.000
G1 X9.686 Y-11.108 E21.71810 F240.000
G1 X-8.413 Y6.991 E21.97671
G1 X-8.345 Y7.163 E21.97858
G1 X9.686 Y-10.870 E22.23622
G1 X9.686 Y-11.345 F480.000
G1 X9.686 Y-11.583 E22.23864 F240.000
G1 X-8.409 Y6.509 E22.49717
G1 X-8.549 Y6.652 E22.49918
G1 X-8.482 Y6.820 E22.50102
G1 X9.686 Y-11.345 E22.76059
G1 X9.686 Y-11.822 F480.000
G1 X9.686 Y-12.063 E22.76302 F240.000
G1 X-8.648 Y6.271 E23.02498
G1 X-8.672 Y6.297 E23.02534
G1 X-8.618 Y6.480 E23.02726
G1 X9.686 Y-11.822 E23.28878
G1 X9.686 Y-12.302 F480.000
G1 X9.686 Y-12.538 E23.29117 F240.000
G1 X-8.781 Y5.926 E23.55501
G1 X-8.726 Y6.113 E23.55697
G1 X9.686 Y-12.302 E23.82006
G1 X9.685 Y-13.015 F480.000
G1 X-8.712 Y5.380 E24.08291 F240.000
G1 X-8.889 Y5.559 E24.08546
G1 X-8.835 Y5.744 E24.08740
G1 X9.686 Y-12.777 E24.35202
G1 X9.685 Y-13.015 E24.35443
G1 X9.686 Y-13.257 F480.000
G1 X9.686 Y-13.495 E24.35684 F240.000
G1 X-8.950 Y5.141 E24.62312
G1 X-8.997 Y5.190 E24.62381
G1 X-8.943 Y5.373 E24.62573
G1 X9.686 Y-13.257 E24.89191
G1 X9.686 Y-13.732 F480.000
G1 X9.686 Y-13.970 E24.89432 F240.000
G1 X-9.106 Y4.819 E25.16281
G1 X-9.051 Y5.006 E25.16477
G1 X9.686 Y-13.732 E25.43249
G1 X9.686 Y-14.211 F480.000
G1 X9.686 Y-14.450 E25.43490 F240.000
G1 X-9.014 Y4.250 E25.70209
G1 X-9.195 Y4.434 E25.70470
G1 X-9.157 Y4.634 E25.70676
G1 X9.686 Y-14.211 E25.97601
G1 X9.686 Y-14.689 F480.000
G1 X9.686 Y-14.925 E25.97839 F240.000
G1 X-9.253 Y4.012 E26.24898
G1 X-9.273 Y4.034 E26.24928
G1 X-9.234 Y4.232 E26.25131
G1 X9.686 Y-14.689 E26.52165
G1 X9.686 Y-15.164 F480.000
G1 X9.686 Y-15.405 E26.52409 F240.000
G1 X-9.350 Y3.631 E26.79608
G1 X-9.311 Y3.834 E26.79816
G1 X9.686 Y-15.164 E27.06959
G1 X9.686 Y-15.643 F480.000
G1 X9.686 Y-15.880 E27.07198 F240.000
G1 X-9.317 Y3.121 E27.34348
G1 X-9.427 Y3.233 E27.34507
G1 X-9.389 Y3.431 E27.34711
G1 X9.686 Y-15.643 E27.61965
G1 X9.686 Y-16.118 F480.000
G1 X9.686 Y-16.357 E27.62206 F240.000
G1 X-9.504 Y2.831 E27.89624
G1 X-9.466 Y3.031 E27.89830
G1 X9.686 Y-16.118 E28.17192
G1 X9.686 Y-16.598 F480.000
G1 X9.686 Y-16.837 E28.17434 F240.000
G1 X-9.381 Y2.230 E28.44677
G1 X-9.547 Y2.399 E28.44916
G1 X-9.526 Y2.616 E28.45137
G1 X9.686 Y-16.598 E28.72589
G1 X9.686 Y-17.073 F480.000
G1 X9.686 Y-17.312 E28.72830 F240.000
G1 X-9.589 Y1.961 E29.00369
G1 X-9.568 Y2.179 E29.00590
G1 X9.686 Y-17.073 E29.28098
G1 X9.686 Y-17.553 F480.000
G1 X9.686 Y-17.791 E29.28339 F240.000
G1 X-9.445 Y1.340 E29.55674
G1 X-9.630 Y1.527 E29.55940
G1 X-9.609 Y1.745 E29.56161
G1 X9.686 Y-17.553 E29.83733
G1 X9.686 Y-18.030 F480.000
G1 X9.686 Y-18.266 E29.83971 F240.000
G1 X-9.672 Y1.089 E30.11629
G1 X-9.651 Y1.307 E30.11850
G1 X9.686 Y-18.030 E30.39479
G1 X9.686 Y-18.505 F480.000
G1 X9.686 Y-18.746 E30.39722 F240.000
G1 X-9.509 Y0.449 E30.67148
G1 X-9.686 Y0.628 E30.67403
G1 X-9.686 Y0.867 E30.67644
G1 X9.686 Y-18.505 E30.95323
G1 X9.686 Y-18.985 F480.000
G1 X9.686 Y-19.223 E30.95564 F240.000
G1 X-9.686 Y0.149 E31.23243
G1 X-9.686 Y0.387 E31.23485
G1 X9.686 Y-18.985 E31.51164
G1 X9.686 Y-19.460 F480.000
G1 X9.686 Y-19.698 E31.51405 F240.000
G1 X-9.573 Y-0.442 E31.78920
G1 X-9.686 Y-0.326 E31.79084
G1 X-9.686 Y-0.088 E31.79325
G1 X9.686 Y-19.460 E32.07004
G1 X9.325 Y-19.576 F480.000
G1 X9.525 Y-19.776 E32.07289 F240.000
G1 X9.272 Y-19.764 E32.07545
G1 X-9.686 Y-0.806 E32.34632
G1 X-9.686 Y-0.565 E32.34875
G1 X9.325 Y-19.576 E32.62039
G1 X8.879 Y-19.609 F480.000
G1 X9.021 Y-19.752 E32.62242 F240.000
G1 X8.759 Y-19.728 E32.62508
G1 X6.486 Y-17.455 E32.65756
G1 X-9.637 Y-1.333 E32.88792
G1 X-9.675 Y-1.056 E32.89075
G1 X8.879 Y-19.609 E33.15585
G1 X8.434 Y-19.640 F480.000
G1 X8.522 Y-19.728 E33.15710 F240.000
G1 X8.272 Y-19.716 E33.15964
G1 X8.107 Y-19.553 E33.16198
G1 X-9.462 Y-1.985 E33.41300
G1 X-9.600 Y-1.845 E33.41499
G1 X-9.625 Y-1.581 E33.41766
G1 X8.434 Y-19.640 E33.67570
G1 X7.988 Y-19.673 F480.000
G1 X7.997 Y-19.682 E33.67583 F240.000
G1 X7.718 Y-19.642 E33.67867
G1 X-9.549 Y-2.375 E33.92539
G1 X-9.575 Y-2.108 E33.92809
G1 X7.988 Y-19.673 E34.17905
G1 X7.336 Y-19.499 F480.000
G1 X7.439 Y-19.602 E34.18053 F240.000
G1 X7.161 Y-19.562 E34.18337
G1 X-9.489 Y-2.913 E34.42126
G1 X-9.524 Y-2.639 E34.42405
G1 X7.336 Y-19.499 E34.66494
G1 X6.684 Y-19.324 F480.000
G1 X6.882 Y-19.522 E34.66777 F240.000
G1 X6.606 Y-19.482 E34.67059
G1 X6.564 Y-19.443 E34.67118
G1 X-9.351 Y-3.528 E34.89857
G1 X-9.375 Y-3.501 E34.89893
G1 X-9.432 Y-3.209 E34.90194
G1 X6.684 Y-19.324 E35.13220
G1 X6.240 Y-19.355 F480.000
G1 X6.324 Y-19.440 E35.13341 F240.000
G1 X6.009 Y-19.363 E35.13669
G1 X2.812 Y-16.168 E35.18236
G1 X-9.177 Y-4.180 E35.35365
G1 X-9.261 Y-4.093 E35.35488
G1 X-9.318 Y-3.797 E35.35792
G1 X6.240 Y-19.355 E35.58021
G1 X5.587 Y-19.180 F480.000
G1 X5.694 Y-19.287 E35.58174 F240.000
