; generated by Slic3r 1.2.9 on 2015-12-03 at 19:34:28

; external perimeters extrusion width = 0.50mm
; perimeters extrusion width = 0.58mm
; infill extrusion width = 0.58mm
; solid infill extrusion width = 0.58mm
; top infill extrusion width = 0.58mm

; external perimeters extrusion width = 0.50mm
; perimeters extrusion width = 0.58mm
; infill extrusion width = 0.58mm
; solid infill extrusion width = 0.58mm
; top infill extrusion width = 0.58mm

M107
M190 S5 ; set bed temperature
M104 S205 T0 ; set temperature
M104 S200 T1 ; set temperature
G28 ; home all axes
G1 Z5 F5000 ; lift nozzle
M109 S205 T0 ; wait for temperature to be reached
M109 S200 T1 ; wait for temperature to be reached
G21 ; set units to millimeters
G90 ; use absolute coordinates
M82 ; use absolute distances for extrusion
G92 E0
T0
G92 E0
G1 E-1.00000 F1800.00000
G92 E0
G1 Z0.500 F7800.000
G1 X81.157 Y80.601 F7800.000
G1 E1.00000 F1800.00000
G1 X81.631 Y80.148 E1.04142 F1080.000
G1 X83.085 Y78.889 E1.16287
G1 X83.601 Y78.483 E1.20429
G1 X85.167 Y77.368 E1.32575
G1 X85.719 Y77.013 E1.36717
G1 X87.385 Y76.051 E1.48862
G1 X87.968 Y75.751 E1.53004
G1 X89.718 Y74.952 E1.65150
G1 X90.326 Y74.708 E1.69292
G1 X92.144 Y74.079 E1.81438
G1 X92.773 Y73.894 E1.85580
G1 X94.643 Y73.441 E1.97725
G1 X95.287 Y73.316 E2.01867
G1 X97.191 Y73.043 E2.14013
G1 X97.844 Y72.980 E2.18155
G1 X99.765 Y72.889 E2.30300
G1 X100.570 Y72.898 E2.35382
G1 X102.305 Y73.018 E2.46368 F1080.000
G1 X102.809 Y73.072 E2.49569
G1 X104.714 Y73.345 E2.61717
G1 X105.357 Y73.469 E2.65857
G1 X107.227 Y73.923 E2.78003
G1 X107.856 Y74.108 E2.82145
G1 X109.674 Y74.737 E2.94290
G1 X110.282 Y74.981 E2.98432
G1 X112.032 Y75.780 E3.10578
G1 X112.615 Y76.080 E3.14720
G1 X114.281 Y77.042 E3.26865
G1 X114.833 Y77.397 E3.31007
G1 X116.399 Y78.512 E3.43153
G1 X116.915 Y78.918 E3.47295
G1 X118.369 Y80.177 E3.59441
G1 X118.843 Y80.630 E3.63582
G1 X120.171 Y82.022 E3.75728
G1 X120.600 Y82.518 E3.79870
G1 X121.774 Y84.011 E3.91864
G1 X122.170 Y84.564 E3.96157
G1 X123.210 Y86.182 E4.08304
G1 X123.538 Y86.750 E4.12445
G1 X124.419 Y88.460 E4.24591
G1 X124.691 Y89.056 E4.28733
G1 X125.406 Y90.842 E4.40878
G1 X125.621 Y91.462 E4.45020
G1 X126.163 Y93.307 E4.57166
G1 X126.317 Y93.945 E4.61308
G1 X126.681 Y95.834 E4.73454
G1 X126.775 Y96.483 E4.77595
G1 X126.958 Y98.397 E4.89741
G1 X126.989 Y99.053 E4.93883
G1 X126.989 Y100.976 E5.06029
G1 X126.958 Y101.631 E5.10170
G1 X126.775 Y103.546 E5.22316
G1 X126.681 Y104.195 E5.26458
G1 X126.317 Y106.084 E5.38604
G1 X126.163 Y106.721 E5.42746
G1 X125.621 Y108.567 E5.54891
G1 X125.406 Y109.187 E5.59033
G1 X124.691 Y110.973 E5.71180
G1 X124.419 Y111.569 E5.75321
G1 X123.538 Y113.279 E5.87467
G1 X123.210 Y113.847 E5.91608
G1 X122.170 Y115.465 E6.03755
G1 X121.789 Y115.999 E6.07896
G1 X120.600 Y117.511 E6.20042
G1 X120.171 Y118.007 E6.24184
G1 X118.843 Y119.399 E6.36331
G1 X118.369 Y119.852 E6.40471
G1 X116.933 Y121.095 E6.52465
G1 X116.399 Y121.517 E6.56758
G1 X114.833 Y122.632 E6.68904
G1 X114.281 Y122.987 E6.73046
G1 X112.615 Y123.949 E6.85194
G1 X112.032 Y124.249 E6.89334
G1 X110.282 Y125.048 E7.01479
G1 X109.674 Y125.292 E7.05621
G1 X107.856 Y125.921 E7.17767
G1 X107.227 Y126.106 E7.21909
G1 X105.357 Y126.559 E7.34054
G1 X104.713 Y126.684 E7.38196
G1 X102.809 Y126.957 E7.50346
G1 X102.156 Y127.020 E7.54484
G1 X100.235 Y127.111 E7.66630
G1 X99.430 Y127.102 E7.71711
G1 X97.695 Y126.982 E7.82697
G1 X97.191 Y126.928 E7.85899
G1 X95.287 Y126.655 E7.98044
G1 X94.643 Y126.531 E8.02186
G1 X92.773 Y126.077 E8.14332
G1 X92.144 Y125.892 E8.18474
G1 X90.326 Y125.263 E8.30621
G1 X89.718 Y125.019 E8.34761
G1 X87.968 Y124.220 E8.46908
G1 X87.385 Y123.920 E8.51049
G1 X85.719 Y122.958 E8.63195
G1 X85.167 Y122.603 E8.67336
G1 X83.620 Y121.502 E8.79330
G1 X83.085 Y121.082 E8.83624
G1 X81.631 Y119.823 E8.95770
G1 X81.157 Y119.370 E8.99912
G1 X79.829 Y117.978 E9.12057
G1 X79.400 Y117.482 E9.16199
G1 X78.211 Y115.970 E9.28346
G1 X77.830 Y115.436 E9.32487
G1 X76.790 Y113.818 E9.44632
G1 X76.462 Y113.250 E9.48774
G1 X75.581 Y111.540 E9.60920
G1 X75.309 Y110.944 E9.65062
G1 X74.594 Y109.158 E9.77208
G1 X74.379 Y108.538 E9.81349
G1 X73.837 Y106.693 E9.93496
G1 X73.683 Y106.055 E9.97637
G1 X73.319 Y104.166 E10.09784
G1 X73.225 Y103.517 E10.13925
G1 X73.042 Y101.602 E10.26073
G1 X73.011 Y100.947 E10.30212
G1 X73.011 Y99.024 E10.42358
G1 X73.042 Y98.369 E10.46500
G1 X73.225 Y96.454 E10.58645
G1 X73.319 Y95.805 E10.62787
G1 X73.683 Y93.916 E10.74934
G1 X73.837 Y93.279 E10.79075
G1 X74.372 Y91.456 E10.91069
G1 X74.594 Y90.813 E10.95362
G1 X75.309 Y89.027 E11.07509
G1 X75.581 Y88.431 E11.11650
G1 X76.462 Y86.721 E11.23796
G1 X76.790 Y86.153 E11.27937
G1 X77.830 Y84.535 E11.40083
G1 X78.211 Y84.001 E11.44225
G1 X79.400 Y82.489 E11.56372
G1 X79.829 Y81.993 E11.60513
G1 X81.105 Y80.655 E11.72185
G1 E10.72185 F1800.00000
G92 E0
G1 X97.807 Y117.745 F7800.000
G1 E1.00000 F1800.00000
G1 X96.701 Y117.586 E1.07060 F540.000
G1 X95.043 Y117.183 E1.17831
G1 X93.431 Y116.626 E1.28602
G1 X91.880 Y115.917 E1.39372
G1 X90.402 Y115.064 E1.50143
G1 X89.013 Y114.075 E1.60914
G1 X87.724 Y112.958 E1.71685
G1 X86.547 Y111.723 E1.82455
G1 X85.493 Y110.382 E1.93226
G1 X84.570 Y108.948 E2.03997
G1 X83.789 Y107.431 E2.14768
G1 X83.155 Y105.848 E2.25538
G1 X82.674 Y104.211 E2.36309
G1 X82.351 Y102.536 E2.47080
G1 X82.189 Y100.838 E2.57851
G1 X82.189 Y99.133 E2.68621
G1 X82.351 Y97.435 E2.79392
G1 X82.674 Y95.760 E2.90163
G1 X83.155 Y94.123 E3.00934
G1 X83.789 Y92.540 E3.11704
G1 X84.570 Y91.024 E3.22475
G1 X85.493 Y89.589 E3.33246
G1 X86.547 Y88.248 E3.44017
G1 X87.708 Y87.030 E3.54644
G1 X89.014 Y85.896 E3.65566
G1 X90.402 Y84.907 E3.76328
G1 X91.880 Y84.054 E3.87099
G1 X93.431 Y83.346 E3.97870
G1 X95.043 Y82.788 E4.08640
G1 X96.701 Y82.386 E4.19411
G1 X97.807 Y82.227 E4.26471
G1 X97.807 Y117.670 E6.50279
G1 X98.700 Y118.737 F7800.000
G1 X98.304 Y118.718 E6.52782 F540.000
G1 X96.532 Y118.463 E6.64090
G1 X94.791 Y118.041 E6.75398
G1 X93.099 Y117.455 E6.86706
G1 X91.470 Y116.711 E6.98013
G1 X89.919 Y115.816 E7.09321
G1 X88.461 Y114.777 E7.20629
G1 X87.107 Y113.604 E7.31937
G1 X85.871 Y112.308 E7.43245
G1 X84.765 Y110.901 E7.54552
G1 X83.796 Y109.394 E7.65860
G1 X82.976 Y107.803 E7.77168
G1 X82.310 Y106.140 E7.88476
G1 X81.806 Y104.422 E7.99784
G1 X81.467 Y102.664 E8.11091
G1 X81.297 Y100.881 E8.22399
G1 X81.297 Y99.090 E8.33707
G1 X81.467 Y97.308 E8.45015
G1 X81.806 Y95.549 E8.56323
G1 X82.310 Y93.831 E8.67630
G1 X82.976 Y92.168 E8.78938
G1 X83.796 Y90.577 E8.90246
G1 X84.765 Y89.070 E9.01554
G1 X85.871 Y87.663 E9.12861
G1 X87.091 Y86.383 E9.24023
G1 X88.461 Y85.194 E9.35482
G1 X89.919 Y84.155 E9.46784
G1 X91.470 Y83.260 E9.58092
G1 X93.099 Y82.516 E9.69400
G1 X94.791 Y81.930 E9.80708
G1 X96.532 Y81.508 E9.92015
G1 X98.304 Y81.253 E10.03323
G1 X98.700 Y81.234 E10.05827
G1 X98.700 Y118.662 E12.42164
G1 X99.593 Y119.673 F7800.000
G1 X98.219 Y119.608 E12.50848 F378.000
G1 X96.362 Y119.341 E12.62693
G1 X94.540 Y118.898 E12.74538
G1 X92.767 Y118.285 E12.86383
G1 X91.061 Y117.506 E12.98227
G1 X89.436 Y116.568 E13.10072
G1 X87.908 Y115.480 E13.21917
G1 X86.491 Y114.251 E13.33762
G1 X85.196 Y112.894 E13.45607
G1 X84.037 Y111.419 E13.57452
G1 X83.022 Y109.841 E13.69296
G1 X82.163 Y108.174 E13.81141
G1 X81.466 Y106.433 E13.92986
G1 X80.937 Y104.633 E14.04831
G1 X80.582 Y102.791 E14.16676
G1 X80.404 Y100.923 E14.28521
G1 X80.404 Y99.048 E14.40365
G1 X80.582 Y97.180 E14.52210
G1 X80.937 Y95.338 E14.64055
G1 X81.466 Y93.539 E14.75900
G1 X82.163 Y91.797 E14.87745
G1 X83.022 Y90.130 E14.99590
G1 X84.037 Y88.552 E15.11434
G1 X85.196 Y87.077 E15.23279
G1 X86.474 Y85.737 E15.34974
G1 X87.908 Y84.491 E15.46970
G1 X89.436 Y83.403 E15.58813
G1 X91.061 Y82.466 E15.70658
G1 X92.767 Y81.686 E15.82503
G1 X94.540 Y81.073 E15.94348
G1 X96.362 Y80.631 E16.06192
G1 X98.219 Y80.364 E16.18037
G1 X99.593 Y80.298 E16.26721
G1 X99.593 Y119.598 E18.74883
G1 X99.168 Y119.409 F7800.000
G1 X92.687 Y115.576 F7800.000
G1 X84.514 Y107.403 E19.48317 F1080.000
G1 X83.609 Y105.228 F7800.000
G1 X94.834 Y116.453 E20.49168 F1080.000
G1 X96.594 Y116.943 E20.60775
G1 X83.133 Y103.482 E21.81715
G1 X82.866 Y101.945 E21.91631
G1 X97.258 Y116.337 E23.20944
G1 X97.258 Y115.067 E23.29013
G1 X82.739 Y100.547 E24.59468
G1 X82.739 Y99.277 E24.67538
G1 X97.258 Y113.797 E25.97992
G1 X97.258 Y112.526 E26.06062
G1 X82.823 Y98.092 E27.35755
G1 X82.968 Y96.966 E27.42964
G1 X97.258 Y111.256 E28.71356
G1 X97.258 Y109.986 E28.79426
G1 X83.173 Y95.901 E30.05974
G1 X83.450 Y94.907 E30.12529
G1 X97.258 Y108.716 E31.36596
G1 X97.258 Y107.445 E31.44666
G1 X83.757 Y93.944 E32.65971
G1 X84.120 Y93.037 E32.72179
G1 X97.258 Y106.175 E33.90221
G1 X97.258 Y104.905 E33.98291
G1 X84.523 Y92.170 E35.12711
G1 X84.955 Y91.332 E35.18701
G1 X97.258 Y103.635 E36.29239
G1 X97.258 Y102.365 E36.37309
G1 X85.442 Y90.549 E37.43470
G1 X85.944 Y89.780 E37.49302
G1 X97.258 Y101.094 E38.50961
G1 X97.258 Y99.824 E38.59031
G1 X86.503 Y89.069 E39.55665
G1 X87.078 Y88.374 E39.61397
G1 X97.258 Y98.554 E40.52865
G1 X97.258 Y97.284 E40.60935
G1 X87.704 Y87.730 E41.46779
G1 X88.346 Y87.101 E41.52485
G1 X97.258 Y96.014 E42.32563
G1 X97.258 Y94.743 E42.40633
G1 X89.025 Y86.511 E43.14603
G1 X89.744 Y85.959 E43.20358
G1 X97.258 Y93.473 E43.87873
G1 X97.258 Y92.203 E43.95943
G1 X90.486 Y85.431 E44.56792
G1 X91.280 Y84.955 E44.62675
G1 X97.258 Y90.933 E45.16387
G1 X97.258 Y89.663 E45.24457
G1 X92.090 Y84.495 E45.70892
G1 X92.962 Y84.096 E45.76982
G1 X97.258 Y88.392 E46.15582
G1 X97.258 Y87.122 E46.23652
G1 X93.860 Y83.724 E46.54183
G1 X94.804 Y83.398 E46.60527
G1 X97.258 Y85.852 E46.82580
G1 X97.258 Y84.582 E46.90650
G1 X95.804 Y83.128 E47.03711
G1 X96.842 Y82.895 E47.10466
G1 X97.258 Y83.312 E47.14207
G1 X87.465 Y111.624 F7800.000
G1 X88.636 Y112.795 E47.24730 F1080.000
G1 E46.24730 F1800.00000
G92 E0
G1 Z0.500 F7800.000
G1 E-9.00000 F1800.00000
G92 E0
T1
G92 E0
G1 E-1.00000 F1800.00000
G92 E0
G1 X102.193 Y117.773 F7800.000
G1 E1.00000 F1800.00000
G1 X102.193 Y82.257 E3.24272 F540.000
G1 X103.301 Y82.415 E3.31339
G1 X104.957 Y82.817 E3.42101
G1 X106.569 Y83.374 E3.52872
G1 X108.120 Y84.083 E3.63643
G1 X109.598 Y84.936 E3.74414
G1 X110.987 Y85.925 E3.85184
G1 X112.276 Y87.042 E3.95955
G1 X113.453 Y88.277 E4.06726
G1 X114.507 Y89.618 E4.17497
G1 X115.430 Y91.052 E4.28267
G1 X116.211 Y92.569 E4.39038
G1 X116.845 Y94.152 E4.49809
G1 X117.326 Y95.789 E4.60580
G1 X117.649 Y97.464 E4.71350
G1 X117.811 Y99.162 E4.82121
G1 X117.811 Y100.867 E4.92892
G1 X117.649 Y102.565 E5.03663
G1 X117.326 Y104.240 E5.14433
G1 X116.845 Y105.877 E5.25204
G1 X116.211 Y107.460 E5.35975
G1 X115.430 Y108.976 E5.46746
G1 X114.507 Y110.411 E5.57516
G1 X113.453 Y111.752 E5.68287
G1 X112.276 Y112.987 E5.79058
G1 X110.987 Y114.104 E5.89829
G1 X109.598 Y115.093 E6.00599
G1 X108.120 Y115.946 E6.11370
G1 X106.569 Y116.654 E6.22141
G1 X104.957 Y117.212 E6.32912
G1 X103.299 Y117.614 E6.43682
G1 X102.267 Y117.763 E6.50269
G1 X101.300 Y118.766 F7800.000
G1 X101.300 Y81.263 E8.87080 F540.000
G1 X101.673 Y81.281 E8.89437
G1 X103.469 Y81.537 E9.00896
G1 X105.209 Y81.959 E9.12198
G1 X106.901 Y82.545 E9.23506
G1 X108.530 Y83.289 E9.34814
G1 X110.081 Y84.184 E9.46122
G1 X111.539 Y85.223 E9.57430
G1 X112.893 Y86.396 E9.68737
G1 X114.129 Y87.692 E9.80045
G1 X115.235 Y89.099 E9.91353
G1 X116.204 Y90.606 E10.02661
G1 X117.024 Y92.197 E10.13969
G1 X117.690 Y93.860 E10.25276
G1 X118.194 Y95.578 E10.36584
G1 X118.533 Y97.336 E10.47892
G1 X118.703 Y99.119 E10.59200
G1 X118.703 Y100.910 E10.70507
G1 X118.533 Y102.692 E10.81815
G1 X118.194 Y104.451 E10.93123
G1 X117.690 Y106.169 E11.04431
G1 X117.024 Y107.832 E11.15739
G1 X116.204 Y109.423 E11.27046
G1 X115.235 Y110.930 E11.38354
G1 X114.129 Y112.337 E11.49662
G1 X112.893 Y113.633 E11.60970
G1 X111.539 Y114.806 E11.72278
G1 X110.081 Y115.845 E11.83585
G1 X108.530 Y116.740 E11.94893
G1 X106.901 Y117.484 E12.06201
G1 X105.209 Y118.070 E12.17509
G1 X103.468 Y118.492 E12.28817
G1 X101.696 Y118.747 E12.40124
G1 X101.375 Y118.762 E12.42154
G1 X100.407 Y119.702 F7800.000
G1 X100.407 Y80.327 E14.90789 F378.000
G1 X101.757 Y80.391 E14.99323
G1 X103.638 Y80.659 E15.11319
G1 X105.460 Y81.102 E15.23162
G1 X107.233 Y81.715 E15.35007
G1 X108.939 Y82.494 E15.46852
G1 X110.564 Y83.432 E15.58697
G1 X112.092 Y84.520 E15.70541
G1 X113.509 Y85.749 E15.82386
G1 X114.804 Y87.106 E15.94231
G1 X115.963 Y88.581 E16.06076
G1 X116.978 Y90.159 E16.17921
G1 X117.837 Y91.826 E16.29766
G1 X118.534 Y93.567 E16.41610
G1 X119.063 Y95.367 E16.53455
G1 X119.418 Y97.209 E16.65300
G1 X119.596 Y99.077 E16.77145
G1 X119.596 Y100.952 E16.88990
G1 X119.418 Y102.820 E17.00835
G1 X119.063 Y104.662 E17.12679
G1 X118.534 Y106.461 E17.24524
G1 X117.837 Y108.203 E17.36369
G1 X116.978 Y109.870 E17.48214
G1 X115.963 Y111.448 E17.60059
G1 X114.804 Y112.923 E17.71904
G1 X113.509 Y114.280 E17.83748
G1 X112.092 Y115.509 E17.95593
G1 X110.564 Y116.597 E18.07438
G1 X108.939 Y117.534 E18.19283
G1 X107.233 Y118.314 E18.31128
G1 X105.460 Y118.927 E18.42973
G1 X103.638 Y119.369 E18.54817
G1 X101.781 Y119.636 E18.66662
G1 X100.482 Y119.698 E18.74873
G1 X100.650 Y119.265 F7800.000
G1 X102.742 Y116.688 F7800.000
G1 X103.158 Y117.105 E18.78614 F1080.000
G1 X104.196 Y116.872 E18.85369
G1 X102.742 Y115.418 E18.98430
G1 X102.742 Y114.148 E19.06500
G1 X105.196 Y116.602 E19.28553
G1 X106.140 Y116.276 E19.34897
G1 X102.742 Y112.878 E19.65428
G1 X102.742 Y111.608 E19.73498
G1 X107.038 Y115.904 E20.12098
G1 X107.910 Y115.505 E20.18188
G1 X102.742 Y110.337 E20.64623
G1 X102.742 Y109.067 E20.72693
G1 X108.720 Y115.045 E21.26404
G1 X109.514 Y114.569 E21.32288
G1 X102.742 Y107.797 E21.93137
G1 X102.742 Y106.527 E22.01207
G1 X110.256 Y114.041 E22.68722
G1 X110.975 Y113.490 E22.74477
G1 X102.742 Y105.257 E23.48451
G1 X102.742 Y103.986 E23.56521
G1 X111.656 Y112.900 E24.36609
G1 X112.297 Y112.271 E24.42315
G1 X102.742 Y102.716 E25.28162
G1 X102.742 Y101.446 E25.36232
G1 X112.922 Y111.626 E26.27700
G1 X113.497 Y110.931 E26.33432
G1 X102.742 Y100.176 E27.30067
G1 X102.742 Y98.906 E27.38137
G1 X114.056 Y110.220 E28.39795
G1 X114.558 Y109.451 E28.45627
G1 X102.742 Y97.635 E29.51788
G1 X102.742 Y96.365 E29.59858
G1 X115.045 Y108.668 E30.70396
G1 X115.477 Y107.830 E30.76387
G1 X102.742 Y95.095 E31.90806
G1 X102.742 Y93.825 E31.98876
G1 X115.880 Y106.963 E33.16918
G1 X116.243 Y106.056 E33.23126
G1 X102.742 Y92.555 E34.44431
G1 X102.742 Y91.284 E34.52501
G1 X116.550 Y105.093 E35.76568
G1 X116.827 Y104.099 E35.83123
G1 X102.742 Y90.014 E37.09671
G1 X102.742 Y88.744 E37.17741
G1 X117.032 Y103.034 E38.46133
G1 X117.177 Y101.908 E38.53342
G1 X102.742 Y87.474 E39.83035
G1 X102.742 Y86.203 E39.91105
G1 X117.261 Y100.723 E41.21559
G1 X117.261 Y99.453 E41.29629
G1 X102.742 Y84.933 E42.60083
G1 X102.742 Y83.663 E42.68153
G1 X117.134 Y98.055 E43.97466
G1 X116.867 Y96.518 E44.07382
G1 X103.406 Y83.057 E45.28322
G1 X105.166 Y83.547 E45.39929
G1 X116.391 Y94.772 E46.40780
G1 X115.486 Y92.597 F7800.000
G1 X107.313 Y84.424 E47.14214 F1080.000
G1 X111.364 Y87.204 F7800.000
G1 X112.535 Y88.376 E47.24738 F1080.000
M106 S102
M104 S200 T0 ; set temperature
G1 E46.24738 F1800.00000
G92 E0
G1 Z0.900 F7800.000
G1 E-9.00000 F1800.00000
G92 E0
T0
G92 E0
G1 X98.899 Y118.946 F7800.000
G1 E10.00000 F1800.00000
G1 X98.285 Y118.917 E10.01708 F1800.000
G1 X96.494 Y118.659 E10.06735
G1 X94.735 Y118.232 E10.11762
G1 X93.025 Y117.640 E10.16789
G1 X91.379 Y116.889 E10.21817
G1 X89.811 Y115.984 E10.26844
G1 X88.337 Y114.934 E10.31871
G1 X86.970 Y113.749 E10.36898
G1 X85.721 Y112.439 E10.41925
G1 X84.602 Y111.017 E10.46952
G1 X83.624 Y109.494 E10.51979
G1 X82.794 Y107.886 E10.57006
G1 X82.122 Y106.205 E10.62033
G1 X81.612 Y104.469 E10.67060
G1 X81.269 Y102.692 E10.72087
G1 X81.097 Y100.890 E10.77114
G1 X81.097 Y99.081 E10.82141
G1 X81.269 Y97.279 E10.87168
G1 X81.612 Y95.502 E10.92195
G1 X82.122 Y93.766 E10.97222
G1 X82.794 Y92.086 E11.02249
G1 X83.624 Y90.477 E11.07276
G1 X84.602 Y88.955 E11.12303
G1 X85.721 Y87.532 E11.17331
G1 X86.924 Y86.270 E11.22176
G1 X88.339 Y85.036 E11.27389
G1 X89.811 Y83.987 E11.32411
G1 X91.379 Y83.083 E11.37438
