; generated by Slic3r 1.2.9 on 2015-12-03 at 19:34:28

; external perimeters extrusion width = 0.50mm
; perimeters extrusion width = 0.58mm
; infill extrusion width = 0.58mm
; solid infill extrusion width = 0.58mm
; top infill extrusion width = 0.58mm

; external perimeters extrusion width = 0.50mm
; perimeters extrusion width = 0.58mm
; infill extrusion width = 0.58mm
; solid infill extrusion width = 0.58mm
; top infill extrusion width = 0.58mm

M107
M190 S5 ; set bed temperature
M104 S205 T0 ; set temperature
M104 S200 T1 ; set temperature
G28 ; home all axes
G1 Z10.0 F5000 ; lift nozzle ; Extruder 0 Z Offset of 5 added.
M109 S205 T0 ; wait for temperature to be reached
M109 S200 T1 ; wait for temperature to be reached
G21 ; set units to millimeters
G90 ; use absolute coordinates
M82 ; use absolute distances for extrusion
M400 ; wait for commands to complete
M42 P16 S0 ; turn extruder 0 off
T0 ; ensure we keep T0 active to prevent changing pressure
M400 ; wait for commands to complete
G1 E8 F100.0 ; move extruder to midpoint
M400 ; wait for commands to complete
G1 X-49 F1800.0 ; move over by x offset
M400 ; wait for commands to complete
G1 E0 F100.0 ; move extruder 0 into position
M400 ; wait for commands to complete
M42 P16 S0 ; turn extruder 0 off
G1 F1800.00000
M400 ; wait for commands to complete
M42 P16 S0 ; turn extruder 0 off
G1 Z5.5 F7800.000 ; Extruder 0 Z Offset of 5 added.
G1 X81.157 Y80.601 F7800.000
M400 ; wait for commands to complete
M42 P16 S255 ; turn extruder 0 on
G1 X81.631 Y80.148 F1080.000
G1 X83.085 Y78.889
G1 X83.601 Y78.483
G1 X85.167 Y77.368
G1 X85.719 Y77.013
G1 X87.385 Y76.051
G1 X87.968 Y75.751
G1 X89.718 Y74.952
G1 X90.326 Y74.708
G1 X92.144 Y74.079
G1 X92.773 Y73.894
G1 X94.643 Y73.441
G1 X95.287 Y73.316
G1 X97.191 Y73.043
G1 X97.844 Y72.980
G1 X99.765 Y72.889
G1 X100.570 Y72.898
G1 X102.305 Y73.018 F1080.000
G1 X102.809 Y73.072
G1 X104.714 Y73.345
G1 X105.357 Y73.469
G1 X107.227 Y73.923
G1 X107.856 Y74.108
G1 X109.674 Y74.737
G1 X110.282 Y74.981
G1 X112.032 Y75.780
G1 X112.615 Y76.080
G1 X114.281 Y77.042
G1 X114.833 Y77.397
G1 X116.399 Y78.512
G1 X116.915 Y78.918
G1 X118.369 Y80.177
G1 X118.843 Y80.630
G1 X120.171 Y82.022
G1 X120.600 Y82.518
G1 X121.774 Y84.011
G1 X122.170 Y84.564
G1 X123.210 Y86.182
G1 X123.538 Y86.750
G1 X124.419 Y88.460
G1 X124.691 Y89.056
G1 X125.406 Y90.842
G1 X125.621 Y91.462
G1 X126.163 Y93.307
G1 X126.317 Y93.945
G1 X126.681 Y95.834
G1 X126.775 Y96.483
G1 X126.958 Y98.397
G1 X126.989 Y99.053
G1 X126.989 Y100.976
G1 X126.958 Y101.631
G1 X126.775 Y103.546
G1 X126.681 Y104.195
G1 X126.317 Y106.084
G1 X126.163 Y106.721
G1 X125.621 Y108.567
G1 X125.406 Y109.187
G1 X124.691 Y110.973
G1 X124.419 Y111.569
G1 X123.538 Y113.279
G1 X123.210 Y113.847
G1 X122.170 Y115.465
G1 X121.789 Y115.999
G1 X120.600 Y117.511
G1 X120.171 Y118.007
G1 X118.843 Y119.399
G1 X118.369 Y119.852
G1 X116.933 Y121.095
G1 X116.399 Y121.517
G1 X114.833 Y122.632
G1 X114.281 Y122.987
G1 X112.615 Y123.949
G1 X112.032 Y124.249
G1 X110.282 Y125.048
G1 X109.674 Y125.292
G1 X107.856 Y125.921
G1 X107.227 Y126.106
G1 X105.357 Y126.559
G1 X104.713 Y126.684
G1 X102.809 Y126.957
G1 X102.156 Y127.020
G1 X100.235 Y127.111
G1 X99.430 Y127.102
G1 X97.695 Y126.982
G1 X97.191 Y126.928
G1 X95.287 Y126.655
G1 X94.643 Y126.531
G1 X92.773 Y126.077
G1 X92.144 Y125.892
G1 X90.326 Y125.263
G1 X89.718 Y125.019
G1 X87.968 Y124.220
G1 X87.385 Y123.920
G1 X85.719 Y122.958
G1 X85.167 Y122.603
G1 X83.620 Y121.502
G1 X83.085 Y121.082
G1 X81.631 Y119.823
G1 X81.157 Y119.370
G1 X79.829 Y117.978
G1 X79.400 Y117.482
G1 X78.211 Y115.970
G1 X77.830 Y115.436
G1 X76.790 Y113.818
G1 X76.462 Y113.250
G1 X75.581 Y111.540
G1 X75.309 Y110.944
G1 X74.594 Y109.158
G1 X74.379 Y108.538
G1 X73.837 Y106.693
G1 X73.683 Y106.055
G1 X73.319 Y104.166
G1 X73.225 Y103.517
G1 X73.042 Y101.602
G1 X73.011 Y100.947
G1 X73.011 Y99.024
G1 X73.042 Y98.369
G1 X73.225 Y96.454
G1 X73.319 Y95.805
G1 X73.683 Y93.916
G1 X73.837 Y93.279
G1 X74.372 Y91.456
G1 X74.594 Y90.813
G1 X75.309 Y89.027
G1 X75.581 Y88.431
G1 X76.462 Y86.721
G1 X76.790 Y86.153
G1 X77.830 Y84.535
G1 X78.211 Y84.001
G1 X79.400 Y82.489
G1 X79.829 Y81.993
G1 X81.105 Y80.655
G1 F1800.00000
M400 ; wait for commands to complete
M42 P16 S0 ; turn extruder 0 off
G1 X97.807 Y117.745 F7800.000
M400 ; wait for commands to complete
M42 P16 S255 ; turn extruder 0 on
G1 X96.701 Y117.586 F540.000
G1 X95.043 Y117.183
G1 X93.431 Y116.626
G1 X91.880 Y115.917
G1 X90.402 Y115.064
G1 X89.013 Y114.075
G1 X87.724 Y112.958
G1 X86.547 Y111.723
G1 X85.493 Y110.382
G1 X84.570 Y108.948
G1 X83.789 Y107.431
G1 X83.155 Y105.848
G1 X82.674 Y104.211
G1 X82.351 Y102.536
G1 X82.189 Y100.838
G1 X82.189 Y99.133
G1 X82.351 Y97.435
G1 X82.674 Y95.760
G1 X83.155 Y94.123
G1 X83.789 Y92.540
G1 X84.570 Y91.024
G1 X85.493 Y89.589
G1 X86.547 Y88.248
G1 X87.708 Y87.030
G1 X89.014 Y85.896
G1 X90.402 Y84.907
G1 X91.880 Y84.054
G1 X93.431 Y83.346
G1 X95.043 Y82.788
G1 X96.701 Y82.386
G1 X97.807 Y82.227
G1 X97.807 Y117.670
G1 X98.700 Y118.737 F7800.000
G1 X98.304 Y118.718 F540.000
G1 X96.532 Y118.463
G1 X94.791 Y118.041
G1 X93.099 Y117.455
G1 X91.470 Y116.711
G1 X89.919 Y115.816
G1 X88.461 Y114.777
G1 X87.107 Y113.604
G1 X85.871 Y112.308
G1 X84.765 Y110.901
G1 X83.796 Y109.394
G1 X82.976 Y107.803
G1 X82.310 Y106.140
G1 X81.806 Y104.422
G1 X81.467 Y102.664
G1 X81.297 Y100.881
G1 X81.297 Y99.090
G1 X81.467 Y97.308
G1 X81.806 Y95.549
G1 X82.310 Y93.831
G1 X82.976 Y92.168
G1 X83.796 Y90.577
G1 X84.765 Y89.070
G1 X85.871 Y87.663
G1 X87.091 Y86.383
G1 X88.461 Y85.194
G1 X89.919 Y84.155
G1 X91.470 Y83.260
G1 X93.099 Y82.516
G1 X94.791 Y81.930
G1 X96.532 Y81.508
G1 X98.304 Y81.253
G1 X98.700 Y81.234
G1 X98.700 Y118.662
G1 X99.593 Y119.673 F7800.000
G1 X98.219 Y119.608 F378.000
G1 X96.362 Y119.341
G1 X94.540 Y118.898
G1 X92.767 Y118.285
G1 X91.061 Y117.506
G1 X89.436 Y116.568
G1 X87.908 Y115.480
G1 X86.491 Y114.251
G1 X85.196 Y112.894
G1 X84.037 Y111.419
G1 X83.022 Y109.841
G1 X82.163 Y108.174
G1 X81.466 Y106.433
G1 X80.937 Y104.633
G1 X80.582 Y102.791
G1 X80.404 Y100.923
G1 X80.404 Y99.048
G1 X80.582 Y97.180
G1 X80.937 Y95.338
G1 X81.466 Y93.539
G1 X82.163 Y91.797
G1 X83.022 Y90.130
G1 X84.037 Y88.552
G1 X85.196 Y87.077
G1 X86.474 Y85.737
G1 X87.908 Y84.491
G1 X89.436 Y83.403
G1 X91.061 Y82.466
G1 X92.767 Y81.686
G1 X94.540 Y81.073
G1 X96.362 Y80.631
G1 X98.219 Y80.364
G1 X99.593 Y80.298
G1 X99.593 Y119.598
G1 X99.168 Y119.409 F7800.000
G1 X92.687 Y115.576 F7800.000
G1 X84.514 Y107.403 F1080.000
G1 X83.609 Y105.228 F7800.000
G1 X94.834 Y116.453 F1080.000
G1 X96.594 Y116.943
G1 X83.133 Y103.482
G1 X82.866 Y101.945
G1 X97.258 Y116.337
G1 X97.258 Y115.067
G1 X82.739 Y100.547
G1 X82.739 Y99.277
G1 X97.258 Y113.797
G1 X97.258 Y112.526
G1 X82.823 Y98.092
G1 X82.968 Y96.966
G1 X97.258 Y111.256
G1 X97.258 Y109.986
G1 X83.173 Y95.901
G1 X83.450 Y94.907
G1 X97.258 Y108.716
G1 X97.258 Y107.445
G1 X83.757 Y93.944
G1 X84.120 Y93.037
G1 X97.258 Y106.175
G1 X97.258 Y104.905
G1 X84.523 Y92.170
G1 X84.955 Y91.332
G1 X97.258 Y103.635
G1 X97.258 Y102.365
G1 X85.442 Y90.549
G1 X85.944 Y89.780
G1 X97.258 Y101.094
G1 X97.258 Y99.824
G1 X86.503 Y89.069
G1 X87.078 Y88.374
G1 X97.258 Y98.554
G1 X97.258 Y97.284
G1 X87.704 Y87.730
G1 X88.346 Y87.101
G1 X97.258 Y96.014
G1 X97.258 Y94.743
G1 X89.025 Y86.511
G1 X89.744 Y85.959
G1 X97.258 Y93.473
G1 X97.258 Y92.203
G1 X90.486 Y85.431
G1 X91.280 Y84.955
G1 X97.258 Y90.933
G1 X97.258 Y89.663
G1 X92.090 Y84.495
G1 X92.962 Y84.096
G1 X97.258 Y88.392
G1 X97.258 Y87.122
G1 X93.860 Y83.724
G1 X94.804 Y83.398
G1 X97.258 Y85.852
G1 X97.258 Y84.582
G1 X95.804 Y83.128
G1 X96.842 Y82.895
G1 X97.258 Y83.312
G1 X87.465 Y111.624 F7800.000
G1 X88.636 Y112.795 F1080.000
G1 F1800.00000
M400 ; wait for commands to complete
M42 P16 S0 ; turn extruder 0 off
G1 Z5.5 F7800.000 ; Extruder 0 Z Offset of 5 added.
G1 F1800.00000
M400 ; wait for commands to complete
M42 P16 S0 ; turn extruder 0 off
T0 ; ensure we keep T0 active to prevent changing pressure
M400 ; wait for commands to complete
G1 E8 F100.0 ; move extruder to midpoint
M400 ; wait for commands to complete
G1 X49 F1800.0 ; move over by x offset
M400 ; wait for commands to complete
G1 E17 F100.0 ; move extruder 1 into position
M400 ; wait for commands to complete
M42 P17 S0 ; turn extruder 1 off
G1 F1800.00000
M400 ; wait for commands to complete
M42 P17 S0 ; turn extruder 1 off
G1 X102.193 Y117.773 F7800.000
M400 ; wait for commands to complete
M42 P17 S255 ; turn extruder 1 on
G1 X102.193 Y82.257 F540.000
G1 X103.301 Y82.415
G1 X104.957 Y82.817
G1 X106.569 Y83.374
G1 X108.120 Y84.083
G1 X109.598 Y84.936
G1 X110.987 Y85.925
G1 X112.276 Y87.042
G1 X113.453 Y88.277
G1 X114.507 Y89.618
G1 X115.430 Y91.052
G1 X116.211 Y92.569
G1 X116.845 Y94.152
G1 X117.326 Y95.789
G1 X117.649 Y97.464
G1 X117.811 Y99.162
G1 X117.811 Y100.867
G1 X117.649 Y102.565
G1 X117.326 Y104.240
G1 X116.845 Y105.877
G1 X116.211 Y107.460
G1 X115.430 Y108.976
G1 X114.507 Y110.411
G1 X113.453 Y111.752
G1 X112.276 Y112.987
G1 X110.987 Y114.104
G1 X109.598 Y115.093
G1 X108.120 Y115.946
G1 X106.569 Y116.654
G1 X104.957 Y117.212
G1 X103.299 Y117.614
G1 X102.267 Y117.763
G1 X101.300 Y118.766 F7800.000
G1 X101.300 Y81.263 F540.000
G1 X101.673 Y81.281
G1 X103.469 Y81.537
G1 X105.209 Y81.959
G1 X106.901 Y82.545
G1 X108.530 Y83.289
G1 X110.081 Y84.184
G1 X111.539 Y85.223
G1 X112.893 Y86.396
G1 X114.129 Y87.692
G1 X115.235 Y89.099
G1 X116.204 Y90.606
G1 X117.024 Y92.197
G1 X117.690 Y93.860
G1 X118.194 Y95.578
G1 X118.533 Y97.336
G1 X118.703 Y99.119
G1 X118.703 Y100.910
G1 X118.533 Y102.692
G1 X118.194 Y104.451
G1 X117.690 Y106.169
G1 X117.024 Y107.832
G1 X116.204 Y109.423
G1 X115.235 Y110.930
G1 X114.129 Y112.337
G1 X112.893 Y113.633
G1 X111.539 Y114.806
G1 X110.081 Y115.845
G1 X108.530 Y116.740
G1 X106.901 Y117.484
G1 X105.209 Y118.070
G1 X103.468 Y118.492
G1 X101.696 Y118.747
G1 X101.375 Y118.762
G1 X100.407 Y119.702 F7800.000
G1 X100.407 Y80.327 F378.000
G1 X101.757 Y80.391
G1 X103.638 Y80.659
G1 X105.460 Y81.102
G1 X107.233 Y81.715
G1 X108.939 Y82.494
G1 X110.564 Y83.432
G1 X112.092 Y84.520
G1 X113.509 Y85.749
G1 X114.804 Y87.106
G1 X115.963 Y88.581
G1 X116.978 Y90.159
G1 X117.837 Y91.826
G1 X118.534 Y93.567
G1 X119.063 Y95.367
G1 X119.418 Y97.209
G1 X119.596 Y99.077
G1 X119.596 Y100.952
G1 X119.418 Y102.820
G1 X119.063 Y104.662
G1 X118.534 Y106.461
G1 X117.837 Y108.203
G1 X116.978 Y109.870
G1 X115.963 Y111.448
G1 X114.804 Y112.923
G1 X113.509 Y114.280
G1 X112.092 Y115.509
G1 X110.564 Y116.597
G1 X108.939 Y117.534
G1 X107.233 Y118.314
G1 X105.460 Y118.927
G1 X103.638 Y119.369
G1 X101.781 Y119.636
G1 X100.482 Y119.698
G1 X100.650 Y119.265 F7800.000
G1 X102.742 Y116.688 F7800.000
G1 X103.158 Y117.105 F1080.000
G1 X104.196 Y116.872
G1 X102.742 Y115.418
G1 X102.742 Y114.148
G1 X105.196 Y116.602
G1 X106.140 Y116.276
G1 X102.742 Y112.878
G1 X102.742 Y111.608
G1 X107.038 Y115.904
G1 X107.910 Y115.505
G1 X102.742 Y110.337
G1 X102.742 Y109.067
G1 X108.720 Y115.045
G1 X109.514 Y114.569
G1 X102.742 Y107.797
G1 X102.742 Y106.527
G1 X110.256 Y114.041
G1 X110.975 Y113.490
G1 X102.742 Y105.257
G1 X102.742 Y103.986
G1 X111.656 Y112.900
G1 X112.297 Y112.271
G1 X102.742 Y102.716
G1 X102.742 Y101.446
G1 X112.922 Y111.626
G1 X113.497 Y110.931
G1 X102.742 Y100.176
G1 X102.742 Y98.906
G1 X114.056 Y110.220
G1 X114.558 Y109.451
G1 X102.742 Y97.635
G1 X102.742 Y96.365
G1 X115.045 Y108.668
G1 X115.477 Y107.830
G1 X102.742 Y95.095
G1 X102.742 Y93.825
G1 X115.880 Y106.963
G1 X116.243 Y106.056
G1 X102.742 Y92.555
G1 X102.742 Y91.284
G1 X116.550 Y105.093
G1 X116.827 Y104.099
G1 X102.742 Y90.014
G1 X102.742 Y88.744
G1 X117.032 Y103.034
G1 X117.177 Y101.908
G1 X102.742 Y87.474
G1 X102.742 Y86.203
G1 X117.261 Y100.723
G1 X117.261 Y99.453
G1 X102.742 Y84.933
G1 X102.742 Y83.663
G1 X117.134 Y98.055
G1 X116.867 Y96.518
G1 X103.406 Y83.057
G1 X105.166 Y83.547
G1 X116.391 Y94.772
G1 X115.486 Y92.597 F7800.000
G1 X107.313 Y84.424 F1080.000
G1 X111.364 Y87.204 F7800.000
G1 X112.535 Y88.376 F1080.000
M106 S102
M104 S200 T0 ; set temperature
G1 F1800.00000
M400 ; wait for commands to complete
M42 P17 S0 ; turn extruder 1 off
G1 Z4.9 F7800.000 ; Extruder 1 Z Offset of 4 added.
G1 F1800.00000
M400 ; wait for commands to complete
M42 P17 S0 ; turn extruder 1 off
T0 ; ensure we keep T0 active to prevent changing pressure
M400 ; wait for commands to complete
G1 E8 F100.0 ; move extruder to midpoint
M400 ; wait for commands to complete
G1 X-49 F1800.0 ; move over by x offset
M400 ; wait for commands to complete
G1 E0 F100.0 ; move extruder 0 into position
M400 ; wait for commands to complete
M42 P16 S0 ; turn extruder 0 off
G1 X98.899 Y118.946 F7800.000
G1 F1800.00000
G1 X98.285 Y118.917 F1800.000
G1 X96.494 Y118.659
G1 X94.735 Y118.232
G1 X93.025 Y117.640
G1 X91.379 Y116.889
G1 X89.811 Y115.984
G1 X88.337 Y114.934
G1 X86.970 Y113.749
G1 X85.721 Y112.439
G1 X84.602 Y111.017
G1 X83.624 Y109.494
G1 X82.794 Y107.886
G1 X82.122 Y106.205
G1 X81.612 Y104.469
G1 X81.269 Y102.692
G1 X81.097 Y100.890
G1 X81.097 Y99.081
G1 X81.269 Y97.279
G1 X81.612 Y95.502
G1 X82.122 Y93.766
G1 X82.794 Y92.086
G1 X83.624 Y90.477
G1 X84.602 Y88.955
G1 X85.721 Y87.532
G1 X86.924 Y86.270
G1 X88.339 Y85.036
G1 X89.811 Y83.987
G1 X91.379 Y83.083
G1 X93.025 Y82.331
G1 X94.735 Y81.739
G1 X96.494 Y81.312
G1 X98.285 Y81.055
G1 X98.899 Y81.025
G1 X98.899 Y118.871
G1 X99.390 Y119.461 F7800.000
G1 X98.238 Y119.406 F1800.000
G1 X96.401 Y119.142
G1 X94.597 Y118.704
G1 X92.842 Y118.097
G1 X91.154 Y117.325
G1 X89.546 Y116.397
G1 X88.033 Y115.320
G1 X86.630 Y114.105
G1 X85.349 Y112.761
G1 X84.202 Y111.302
G1 X83.198 Y109.740
G1 X82.347 Y108.090
G1 X81.657 Y106.366
G1 X81.134 Y104.585
G1 X80.783 Y102.762
G1 X80.606 Y100.914
G1 X80.606 Y99.057
G1 X80.783 Y97.209
G1 X81.134 Y95.386
G1 X81.657 Y93.605
G1 X82.347 Y91.881
G1 X83.198 Y90.231
G1 X84.202 Y88.670
G1 X85.349 Y87.210
G1 X86.585 Y85.915
G1 X88.034 Y84.650
G1 X89.546 Y83.574
G1 X91.154 Y82.646
G1 X92.842 Y81.875
G1 X94.597 Y81.267
G1 X96.401 Y80.830
G1 X98.238 Y80.565
G1 X99.390 Y80.511
G1 X99.390 Y119.386
G1 X99.843 Y119.935 F7800.000
G1 X98.195 Y119.857 F1260.000
G1 X96.315 Y119.586
G1 X94.469 Y119.139
G1 X92.674 Y118.517
G1 X90.946 Y117.728
G1 X89.301 Y116.778
G1 X87.753 Y115.676
G1 X86.318 Y114.432
G1 X85.007 Y113.058
G1 X83.833 Y111.564
G1 X82.806 Y109.966
G1 X81.935 Y108.278
G1 X81.229 Y106.514
G1 X80.694 Y104.692
G1 X80.334 Y102.826
G1 X80.154 Y100.935
G1 X80.154 Y99.036
G1 X80.334 Y97.145
G1 X80.694 Y95.279
G1 X81.229 Y93.457
G1 X81.935 Y91.693
G1 X82.806 Y90.005
G1 X83.833 Y88.407
G1 X85.007 Y86.914
G1 X86.272 Y85.587
G1 X87.754 Y84.295
G1 X89.301 Y83.193
G1 X90.946 Y82.243
G1 X92.674 Y81.454
G1 X94.469 Y80.833
G1 X96.315 Y80.385
G1 X98.195 Y80.114
G1 X99.843 Y80.036
G1 X99.843 Y119.860
G1 X99.418 Y119.672 F7800.000
G1 X98.359 Y118.632 F7800.000
G1 X98.606 Y118.384 F3600.000
G1 X98.606 Y117.687
G1 X97.738 Y118.556
G1 X97.129 Y118.468
G1 X98.606 Y116.990
G1 X98.606 Y116.294
G1 X96.519 Y118.380
G1 X95.954 Y118.249
G1 X98.606 Y115.597
G1 X98.606 Y114.900
G1 X95.393 Y118.113
G1 X94.833 Y117.977
G1 X98.606 Y114.203
G1 X98.606 Y113.506
G1 X94.308 Y117.804
G1 X93.790 Y117.625
G1 X98.606 Y112.809
G1 X98.606 Y112.112
G1 X93.273 Y117.446
G1 X92.779 Y117.243
G1 X98.606 Y111.415
G1 X98.606 Y110.719
G1 X92.300 Y117.025
G1 X91.822 Y116.806
G1 X98.606 Y110.022
G1 X98.606 Y109.325
G1 X91.352 Y116.579
G1 X90.910 Y116.324
G1 X98.606 Y108.628
G1 X98.606 Y107.931
G1 X90.469 Y116.069
G1 X90.027 Y115.814
G1 X98.606 Y107.234
G1 X98.606 Y106.537
G1 X89.612 Y115.532
G1 X89.205 Y115.242
G1 X98.606 Y105.840
G1 X98.606 Y105.144
G1 X88.798 Y114.952
G1 X88.398 Y114.655
G1 X98.606 Y104.447
G1 X98.606 Y103.750
G1 X88.024 Y114.332
G1 X87.651 Y114.008
G1 X98.606 Y103.053
G1 X98.606 Y102.356
G1 X87.283 Y113.680
G1 X86.934 Y113.331
G1 X98.606 Y101.659
G1 X98.606 Y100.962
G1 X86.586 Y112.983
G1 X86.245 Y112.627
G1 X98.606 Y100.265
G1 X98.606 Y99.569
G1 X85.906 Y112.269
G1 X85.599 Y111.879
G1 X98.606 Y98.872
G1 X98.606 Y98.175
G1 X85.293 Y111.489
G1 X84.986 Y111.099
