; generated by Slic3r 1.2.9 on 2015-12-22 at 17:45:49

; external perimeters extrusion width = 0.20mm
; perimeters extrusion width = 0.21mm
; infill extrusion width = 0.21mm
; solid infill extrusion width = 0.21mm
; top infill extrusion width = 0.21mm

M104 S200 ; set temperature
G28 ; home all axes
G1 Z5 F5000 ; lift nozzle
M109 S200 ; wait for temperature to be reached
G21 ; set units to millimeters
G90 ; use absolute coordinates
M82 ; use absolute distances for extrusion
G92 E0
G1 Z0.200 F480.000
G1 X9.894 Y20.002 F480.000
G1 X8.192 Y19.921 E0.01722 F240.000
G1 X6.307 Y19.650 E0.03646
G1 X4.457 Y19.201 E0.05570
G1 X2.657 Y18.578 E0.07494
G1 X0.925 Y17.787 E0.09418
G1 X-0.725 Y16.835 E0.11342
G1 X-2.276 Y15.730 E0.13266
G1 X-3.715 Y14.483 E0.15190
G1 X-5.029 Y13.105 E0.17114
G1 X-6.207 Y11.608 E0.19038
G1 X-7.236 Y10.006 E0.20962
G1 X-8.109 Y8.313 E0.22886
G1 X-8.817 Y6.545 E0.24810
G1 X-9.353 Y4.718 E0.26734
G1 X-9.713 Y2.848 E0.28658
G1 X-9.894 Y0.952 E0.30583
G1 X-9.894 Y-0.952 E0.32507
G1 X-9.713 Y-2.848 E0.34431
G1 X-9.353 Y-4.718 E0.36355
G1 X-8.817 Y-6.545 E0.38279
G1 X-8.112 Y-8.304 E0.40193
G1 X-7.236 Y-10.006 E0.42127
G1 X-6.207 Y-11.608 E0.44051
G1 X-5.029 Y-13.105 E0.45975
G1 X-3.715 Y-14.483 E0.47899
G1 X-2.276 Y-15.730 E0.49823
G1 X-0.725 Y-16.835 E0.51747
G1 X0.925 Y-17.787 E0.53671
G1 X2.657 Y-18.578 E0.55595
G1 X4.457 Y-19.201 E0.57519
G1 X6.307 Y-19.650 E0.59443
G1 X8.192 Y-19.921 E0.61367
G1 X9.894 Y-20.002 E0.63089
G1 X9.894 Y19.972 E1.03476
G1 X9.686 Y19.680 F480.000
G1 X9.686 Y19.442 E1.03717 F240.000
G1 X9.360 Y19.768 E1.04183
G1 X9.588 Y19.779 E1.04414
G1 X9.686 Y19.680 E1.04554
G1 X9.686 Y19.203 F480.000
G1 X9.686 Y18.967 E1.04793 F240.000
G1 X8.906 Y19.746 E1.05907
G1 X9.134 Y19.757 E1.06137
G1 X9.686 Y19.203 E1.06927
G1 X9.686 Y18.728 F480.000
G1 X9.686 Y18.487 E1.07171 F240.000
G1 X8.448 Y19.724 E1.08939
G1 X8.676 Y19.735 E1.09169
G1 X9.686 Y18.728 E1.10610
G1 X9.686 Y18.248 F480.000
G1 X9.686 Y18.012 E1.10849 F240.000
G1 X8.013 Y19.685 E1.13239
G1 X8.223 Y19.714 E1.13453
G1 X9.686 Y18.248 E1.15545
G1 X9.686 Y17.773 F480.000
G1 X9.686 Y17.535 E1.15786 F240.000
G1 X7.594 Y19.624 E1.18773
G1 X7.803 Y19.654 E1.18986
G1 X9.686 Y17.773 E1.21676
G1 X9.686 Y17.294 F480.000
G1 X9.686 Y17.055 E1.21917 F240.000
G1 X7.177 Y19.564 E1.25502
G1 X7.387 Y19.595 E1.25717
G1 X9.686 Y17.294 E1.29003
G1 X9.686 Y16.819 F480.000
G1 X9.686 Y16.580 E1.29245 F240.000
G1 X6.761 Y19.505 E1.33423
G1 X6.968 Y19.534 E1.33634
G1 X9.686 Y16.819 E1.37516
G1 X9.686 Y16.339 F480.000
G1 X9.686 Y16.100 E1.37757 F240.000
G1 X6.342 Y19.444 E1.42535
G1 X6.553 Y19.475 E1.42750
G1 X9.686 Y16.339 E1.47228
G1 X9.686 Y15.862 F480.000
G1 X9.686 Y15.625 E1.47467 F240.000
G1 X5.960 Y19.351 E1.52791
G1 X6.152 Y19.398 E1.52990
G1 X9.686 Y15.862 E1.58041
G1 X9.686 Y15.387 F480.000
G1 X9.686 Y15.146 E1.58285 F240.000
G1 X5.574 Y19.258 E1.64160
G1 X5.766 Y19.304 E1.64360
G1 X9.686 Y15.387 E1.69959
G1 X9.686 Y14.907 F480.000
G1 X9.686 Y14.668 E1.70200 F240.000
G1 X5.190 Y19.164 E1.76624
G1 X5.384 Y19.211 E1.76826
G1 X9.686 Y14.907 E1.82975
G1 X9.686 Y14.432 F480.000
G1 X9.686 Y14.193 E1.83216 F240.000
G1 X4.808 Y19.072 E1.90186
G1 X4.998 Y19.118 E1.90384
G1 X5.013 Y19.105 E1.90404
G1 X9.686 Y14.432 E1.97081
G1 X9.686 Y13.952 F480.000
G1 X9.686 Y13.714 E1.97322 F240.000
G1 X4.429 Y18.971 E2.04833
G1 X4.614 Y19.025 E2.05028
G1 X9.686 Y13.952 E2.12275
G1 X9.686 Y13.477 F480.000
G1 X9.686 Y13.239 E2.12517 F240.000
G1 X4.074 Y18.848 E2.20533
G1 X4.253 Y18.910 E2.20725
G1 X9.686 Y13.477 E2.28487
G1 X9.686 Y13.000 F480.000
G1 X9.686 Y12.759 E2.28731 F240.000
G1 X3.721 Y18.726 E2.37255
G1 X3.899 Y18.787 E2.37444
G1 X9.686 Y13.000 E2.45713
G1 X9.686 Y12.520 F480.000
G1 X9.686 Y12.284 E2.45952 F240.000
G1 X3.367 Y18.603 E2.54981
G1 X3.542 Y18.664 E2.55169
G1 X9.686 Y12.520 E2.63947
G1 X9.686 Y12.045 F480.000
G1 X9.686 Y11.804 E2.64191 F240.000
G1 X3.010 Y18.480 E2.73729
G1 X3.189 Y18.542 E2.73921
G1 X9.686 Y12.045 E2.83203
G1 X9.686 Y11.565 F480.000
G1 X9.686 Y11.327 E2.83444 F240.000
G1 X2.662 Y18.351 E2.93481
G1 X2.835 Y18.419 E2.93668
G1 X9.686 Y11.565 E3.03459
G1 X9.686 Y11.090 F480.000
G1 X9.686 Y10.852 E3.03700 F240.000
G1 X2.336 Y18.202 E3.14203
G1 X2.498 Y18.276 E3.14383
G1 X2.516 Y18.261 E3.14407
G1 X9.686 Y11.090 E3.24652
G1 X9.686 Y10.611 F480.000
G1 X9.686 Y10.372 E3.24893 F240.000
G1 X2.008 Y18.053 E3.35865
G1 X2.170 Y18.127 E3.36045
G1 X9.686 Y10.611 E3.46784
G1 X9.686 Y10.133 F480.000
G1 X9.686 Y9.897 E3.47023 F240.000
G1 X1.679 Y17.902 E3.58462
G1 X1.842 Y17.977 E3.58644
G1 X9.686 Y10.133 E3.69851
G1 X9.686 Y9.658 F480.000
G1 X9.686 Y9.417 E3.70095 F240.000
G1 X1.351 Y17.752 E3.82004
G1 X1.516 Y17.828 E3.82188
G1 X9.686 Y9.658 E3.93861
G1 X9.686 Y9.179 F480.000
G1 X9.686 Y8.942 E3.94100 F240.000
G1 X1.025 Y17.604 E4.06475
G1 X1.189 Y17.678 E4.06657
G1 X9.686 Y9.179 E4.18800
G1 X9.686 Y8.704 F480.000
G1 X9.686 Y8.465 E4.19041 F240.000
G1 X0.722 Y17.429 E4.31849
G1 X0.872 Y17.516 E4.32024
G1 X0.909 Y17.481 E4.32075
G1 X9.686 Y8.704 E4.44616
G1 X9.686 Y8.224 F480.000
G1 X9.686 Y7.985 E4.44857 F240.000
G1 X0.419 Y17.254 E4.58099
G1 X0.569 Y17.341 E4.58274
G1 X9.686 Y8.224 E4.71301
G1 X9.686 Y7.749 F480.000
G1 X9.686 Y7.510 E4.71542 F240.000
G1 X0.117 Y17.080 E4.85215
G1 X0.266 Y17.166 E4.85389
G1 X9.686 Y7.749 E4.98847
G1 X9.686 Y7.269 F480.000
G1 X9.686 Y7.031 E4.99088 F240.000
G1 X-0.188 Y16.904 E5.13195
G1 X-0.035 Y16.992 E5.13373
G1 X9.686 Y7.269 E5.27264
G1 X9.686 Y6.792 F480.000
G1 X9.686 Y6.556 E5.27503 F240.000
G1 X-0.490 Y16.729 E5.42041
G1 X-0.337 Y16.818 E5.42219
G1 X9.686 Y6.792 E5.56543
G1 X9.686 Y6.317 F480.000
G1 X9.686 Y6.076 E5.56786 F240.000
G1 X-0.779 Y16.540 E5.71738
G1 X-0.638 Y16.641 E5.71913
G1 X9.686 Y6.317 E5.86663
G1 X9.686 Y5.837 F480.000
G1 X9.686 Y5.601 E5.86902 F240.000
G1 X-1.057 Y16.342 E6.02251
G1 X-0.917 Y16.442 E6.02425
G1 X9.686 Y5.837 E6.17575
G1 X9.686 Y5.362 F480.000
G1 X9.686 Y5.124 E6.17817 F240.000
G1 X-1.335 Y16.144 E6.33563
G1 X-1.197 Y16.243 E6.33734
G1 X-1.175 Y16.224 E6.33764
G1 X9.686 Y5.362 E6.49282
G1 X9.686 Y4.883 F480.000
G1 X9.686 Y4.644 E6.49523 F240.000
G1 X-1.614 Y15.946 E6.65670
G1 X-1.476 Y16.044 E6.65841
G1 X-1.414 Y15.985 E6.65928
G1 X9.686 Y4.883 E6.81789
G1 X9.686 Y4.408 F480.000
G1 X9.686 Y4.169 E6.82030 F240.000
G1 X-1.892 Y15.747 E6.98574
G1 X-1.754 Y15.846 E6.98745
G1 X-1.653 Y15.746 E6.98888
G1 X9.686 Y4.408 E7.15089
G1 X9.686 Y3.930 F480.000
G1 X9.686 Y3.689 E7.15333 F240.000
G1 X-2.169 Y15.547 E7.32273
G1 X-2.033 Y15.647 E7.32444
G1 X9.686 Y3.930 E7.49187
G1 X9.686 Y3.451 F480.000
G1 X9.686 Y3.214 E7.49426 F240.000
G1 X-2.425 Y15.325 E7.66730
G1 X-2.298 Y15.435 E7.66899
G1 X9.686 Y3.451 E7.84022
G1 X9.686 Y2.976 F480.000
G1 X9.686 Y2.735 E7.84266 F240.000
G1 X-2.681 Y15.104 E8.01937
G1 X-2.554 Y15.213 E8.02107
G1 X9.686 Y2.976 E8.19594
G1 X9.686 Y2.496 F480.000
G1 X9.686 Y2.257 E8.19835 F240.000
G1 X-2.938 Y14.881 E8.37872
G1 X-2.810 Y14.992 E8.38043
G1 X9.686 Y2.496 E8.55897
G1 X9.686 Y2.021 F480.000
G1 X9.686 Y1.782 E8.56138 F240.000
G1 X-3.193 Y14.659 E8.74539
G1 X-3.064 Y14.771 E8.74711
G1 X9.686 Y2.021 E8.92929
G1 X9.686 Y1.541 F480.000
G1 X9.686 Y1.303 E8.93170 F240.000
G1 X-3.449 Y14.438 E9.11938
G1 X-3.320 Y14.550 E9.12111
G1 X9.686 Y1.541 E9.30696
G1 X9.686 Y1.066 F480.000
G1 X9.686 Y0.828 E9.30937 F240.000
G1 X-3.693 Y14.204 E9.50051
G1 X-3.575 Y14.328 E9.50223
G1 X9.686 Y1.066 E9.69171
G1 X9.686 Y0.589 F480.000
G1 X9.686 Y0.348 E9.69415 F240.000
G1 X-3.926 Y13.960 E9.88864
G1 X-3.808 Y14.083 E9.89036
G1 X9.686 Y0.589 E10.08317
G1 X9.686 Y0.109 F480.000
G1 X9.686 Y-0.127 E10.08556 F240.000
G1 X-4.159 Y13.715 E10.28336
G1 X-4.041 Y13.839 E10.28508
G1 X9.686 Y0.109 E10.48124
G1 X9.686 Y-0.366 F480.000
G1 X9.686 Y-0.607 E10.48368 F240.000
G1 X-4.392 Y13.471 E10.68482
G1 X-4.274 Y13.594 E10.68655
G1 X9.686 Y-0.366 E10.88601
G1 X9.686 Y-0.846 F480.000
G1 X9.686 Y-1.084 E10.88842 F240.000
G1 X-4.625 Y13.227 E11.09290
G1 X-4.507 Y13.350 E11.09462
G1 X9.686 Y-0.846 E11.29744
G1 X9.686 Y-1.321 F480.000
G1 X9.686 Y-1.559 E11.29985 F240.000
G1 X-4.858 Y12.982 E11.50764
G1 X-4.740 Y13.106 E11.50936
G1 X9.686 Y-1.321 E11.71549
G1 X9.686 Y-1.800 F480.000
G1 X9.686 Y-2.039 E11.71790 F240.000
G1 X-5.068 Y12.718 E11.92873
G1 X-4.963 Y12.851 E11.93045
G1 X9.686 Y-1.800 E12.13977
G1 X9.686 Y-2.278 F480.000
G1 X9.686 Y-2.514 E12.14216 F240.000
G1 X-5.279 Y12.451 E12.35598
G1 X-5.174 Y12.583 E12.35768
G1 X9.686 Y-2.278 E12.57001
G1 X9.686 Y-2.753 F480.000
G1 X9.686 Y-2.994 E12.57244 F240.000
G1 X-5.353 Y12.046 E12.78732
G1 X-5.489 Y12.183 E12.78928
G1 X-5.385 Y12.316 E12.79098
G1 X9.686 Y-2.753 E13.00629
G1 X9.686 Y-3.232 F480.000
G1 X9.686 Y-3.469 E13.00868 F240.000
G1 X-5.592 Y11.807 E13.22695
G1 X-5.699 Y11.916 E13.22850
G1 X-5.595 Y12.048 E13.23020
G1 X9.686 Y-3.232 E13.44853
G1 X9.686 Y-3.707 F480.000
G1 X9.686 Y-3.946 E13.45095 F240.000
G1 X-5.831 Y11.568 E13.67263
G1 X-5.909 Y11.649 E13.67377
G1 X-5.805 Y11.781 E13.67547
G1 X9.686 Y-3.707 E13.89679
G1 X9.686 Y-4.187 F480.000
G1 X9.686 Y-4.426 E13.89920 F240.000
G1 X-6.069 Y11.330 E14.12431
G1 X-6.110 Y11.373 E14.12491
G1 X-6.015 Y11.514 E14.12663
G1 X9.686 Y-4.187 E14.35097
G1 X9.686 Y-4.662 F480.000
G1 X9.686 Y-4.901 E14.35338 F240.000
G1 X-6.298 Y11.081 E14.58174
G1 X-6.204 Y11.226 E14.58349
G1 X9.686 Y-4.662 E14.81051
G1 X9.686 Y-5.142 F480.000
G1 X9.686 Y-5.380 E14.81292 F240.000
G1 X-6.484 Y10.790 E15.04397
G1 X-6.390 Y10.937 E15.04573
G1 X9.686 Y-5.142 E15.27544
G1 X9.686 Y-5.619 F480.000
G1 X9.686 Y-5.855 E15.27783 F240.000
G1 X-6.671 Y10.499 E15.51152
G1 X-6.577 Y10.646 E15.51329
G1 X9.686 Y-5.619 E15.74567
G1 X9.686 Y-6.094 F480.000
G1 X9.686 Y-6.335 E15.74810 F240.000
G1 X-6.858 Y10.209 E15.98449
G1 X-6.764 Y10.355 E15.98625
G1 X9.686 Y-6.094 E16.22128
G1 X9.686 Y-6.574 F480.000
G1 X9.686 Y-6.810 E16.22367 F240.000
G1 X-7.044 Y9.920 E16.46270
G1 X-6.950 Y10.065 E16.46445
G1 X9.686 Y-6.574 E16.70217
G1 X9.686 Y-7.049 F480.000
G1 X9.686 Y-7.287 E16.70458 F240.000
G1 X-7.088 Y9.484 E16.94423
G1 X-7.208 Y9.606 E16.94596
G1 X-7.127 Y9.762 E16.94773
G1 X9.686 Y-7.049 E17.18794
G1 X9.686 Y-7.528 F480.000
G1 X9.686 Y-7.767 E17.19035 F240.000
G1 X-7.327 Y9.245 E17.43343
G1 X-7.370 Y9.291 E17.43407
G1 X-7.290 Y9.447 E17.43584
G1 X9.686 Y-7.528 E17.67839
G1 X9.686 Y-8.003 F480.000
G1 X9.686 Y-8.242 E17.68080 F240.000
G1 X-7.533 Y8.975 E17.92681
G1 X-7.452 Y9.132 E17.92860
G1 X9.686 Y-8.003 E18.17346
G1 X9.686 Y-8.481 F480.000
G1 X9.686 Y-8.722 E18.17589 F240.000
G1 X-7.695 Y8.660 E18.42424
G1 X-7.613 Y8.819 E18.42605
G1 X9.686 Y-8.481 E18.67323
G1 X9.686 Y-8.960 F480.000
G1 X9.686 Y-9.197 E18.67561 F240.000
G1 X-7.858 Y8.345 E18.92627
G1 X-7.776 Y8.504 E18.92807
G1 X9.686 Y-8.960 E19.17759
G1 X9.686 Y-9.435 F480.000
G1 X9.686 Y-9.676 E19.18003 F240.000
G1 X-7.868 Y7.877 E19.43084
G1 X-8.003 Y8.015 E19.43279
G1 X-7.936 Y8.184 E19.43463
G1 X9.686 Y-9.435 E19.68639
G1 X9.686 Y-9.915 F480.000
G1 X9.686 Y-10.154 E19.68881 F240.000
G1 X-8.107 Y7.639 E19.94303
G1 X-8.140 Y7.674 E19.94352
G1 X-8.072 Y7.843 E19.94536
G1 X9.686 Y-9.915 E20.19909
G1 X9.686 Y-10.390 F480.000
G1 X9.686 Y-10.629 E20.20150 F240.000
G1 X-8.277 Y7.332 E20.45814
G1 X-8.208 Y7.504 E20.46002
G1 X9.686 Y-10.390 E20.71569
G1 X9.686 Y-10.870 F480.000
G1 X9.686 Y-11.108 E20.71810 F240.000
G1 X-8.413 Y6.991 E20.97671
G1 X-8.345 Y7.163 E20.97858
G1 X9.686 Y-10.870 E21.23622
G1 X9.686 Y-11.345 F480.000
G1 X9.686 Y-11.583 E21.23864 F240.000
G1 X-8.409 Y6.509 E21.49717
G1 X-8.549 Y6.652 E21.49918
G1 X-8.482 Y6.820 E21.50102
G1 X9.686 Y-11.345 E21.76059
G1 X9.686 Y-11.822 F480.000
G1 X9.686 Y-12.063 E21.76302 F240.000
G1 X-8.648 Y6.271 E22.02498
G1 X-8.672 Y6.297 E22.02534
G1 X-8.618 Y6.480 E22.02726
G1 X9.686 Y-11.822 E22.28878
G1 X9.686 Y-12.302 F480.000
G1 X9.686 Y-12.538 E22.29117 F240.000
G1 X-8.781 Y5.926 E22.55501
G1 X-8.726 Y6.113 E22.55697
G1 X9.686 Y-12.302 E22.82006
G1 X9.685 Y-13.015 F480.000
G1 X-8.712 Y5.380 E23.08291 F240.000
G1 X-8.889 Y5.559 E23.08546
G1 X-8.835 Y5.744 E23.08740
G1 X9.686 Y-12.777 E23.35202
G1 X9.685 Y-13.015 E23.35443
G1 X9.686 Y-13.257 F480.000
G1 X9.686 Y-13.495 E23.35684 F240.000
G1 X-8.950 Y5.141 E23.62312
G1 X-8.997 Y5.190 E23.62381
G1 X-8.943 Y5.373 E23.62573
G1 X9.686 Y-13.257 E23.89191
G1 X9.686 Y-13.732 F480.000
G1 X9.686 Y-13.970 E23.89432 F240.000
G1 X-9.106 Y4.819 E24.16281
G1 X-9.051 Y5.006 E24.16477
G1 X9.686 Y-13.732 E24.43249
G1 X9.686 Y-14.211 F480.000
G1 X9.686 Y-14.450 E24.43490 F240.000
G1 X-9.014 Y4.250 E24.70209
G1 X-9.195 Y4.434 E24.70470
G1 X-9.157 Y4.634 E24.70676
G1 X9.686 Y-14.211 E24.97601
G1 X9.686 Y-14.689 F480.000
G1 X9.686 Y-14.925 E24.97839 F240.000
G1 X-9.253 Y4.012 E25.24898
G1 X-9.273 Y4.034 E25.24928
G1 X-9.234 Y4.232 E25.25131
G1 X9.686 Y-14.689 E25.52165
G1 X9.686 Y-15.164 F480.000
G1 X9.686 Y-15.405 E25.52409 F240.000
G1 X-9.350 Y3.631 E25.79608
G1 X-9.311 Y3.834 E25.79816
G1 X9.686 Y-15.164 E26.06959
G1 X9.686 Y-15.643 F480.000
G1 X9.686 Y-15.880 E26.07198 F240.000
G1 X-9.317 Y3.121 E26.34348
G1 X-9.427 Y3.233 E26.34507
G1 X-9.389 Y3.431 E26.34711
G1 X9.686 Y-15.643 E26.61965
G1 X9.686 Y-16.118 F480.000
G1 X9.686 Y-16.357 E26.62206 F240.000
G1 X-9.504 Y2.831 E26.89624
G1 X-9.466 Y3.031 E26.89830
G1 X9.686 Y-16.118 E27.17192
G1 X9.686 Y-16.598 F480.000
G1 X9.686 Y-16.837 E27.17434 F240.000
G1 X-9.381 Y2.230 E27.44677
G1 X-9.547 Y2.399 E27.44916
G1 X-9.526 Y2.616 E27.45137
G1 X9.686 Y-16.598 E27.72589
G1 X9.686 Y-17.073 F480.000
G1 X9.686 Y-17.312 E27.72830 F240.000
G1 X-9.589 Y1.961 E28.00369
G1 X-9.568 Y2.179 E28.00590
G1 X9.686 Y-17.073 E28.28098
G1 X9.686 Y-17.553 F480.000
G1 X9.686 Y-17.791 E28.28339 F240.000
G1 X-9.445 Y1.340 E28.55674
G1 X-9.630 Y1.527 E28.55940
G1 X-9.609 Y1.745 E28.56161
G1 X9.686 Y-17.553 E28.83733
G1 X9.686 Y-18.030 F480.000
G1 X9.686 Y-18.266 E28.83971 F240.000
G1 X-9.672 Y1.089 E29.11629
G1 X-9.651 Y1.307 E29.11850
G1 X9.686 Y-18.030 E29.39479
G1 X9.686 Y-18.505 F480.000
G1 X9.686 Y-18.746 E29.39722 F240.000
G1 X-9.509 Y0.449 E29.67148
G1 X-9.686 Y0.628 E29.67403
G1 X-9.686 Y0.867 E29.67644
G1 X9.686 Y-18.505 E29.95323
G1 X9.686 Y-18.985 F480.000
G1 X9.686 Y-19.223 E29.95564 F240.000
G1 X-9.686 Y0.149 E30.23243
G1 X-9.686 Y0.387 E30.23485
G1 X9.686 Y-18.985 E30.51164
G1 X9.686 Y-19.460 F480.000
G1 X9.686 Y-19.698 E30.51405 F240.000
G1 X-9.573 Y-0.442 E30.78920
G1 X-9.686 Y-0.326 E30.79084
G1 X-9.686 Y-0.088 E30.79325
G1 X9.686 Y-19.460 E31.07004
G1 X9.325 Y-19.576 F480.000
G1 X9.525 Y-19.776 E31.07289 F240.000
G1 X9.272 Y-19.764 E31.07545
G1 X-9.686 Y-0.806 E31.34632
G1 X-9.686 Y-0.565 E31.34875
G1 X9.325 Y-19.576 E31.62039
G1 X8.879 Y-19.609 F480.000
G1 X9.021 Y-19.752 E31.62242 F240.000
G1 X8.759 Y-19.728 E31.62508
G1 X6.486 Y-17.455 E31.65756
G1 X-9.637 Y-1.333 E31.88792
G1 X-9.675 Y-1.056 E31.89075
G1 X8.879 Y-19.609 E32.15585
G1 X8.434 Y-19.640 F480.000
G1 X8.522 Y-19.728 E32.15710 F240.000
G1 X8.272 Y-19.716 E32.15964
G1 X8.107 Y-19.553 E32.16198
G1 X-9.462 Y-1.985 E32.41300
G1 X-9.600 Y-1.845 E32.41499
G1 X-9.625 Y-1.581 E32.41766
G1 X8.434 Y-19.640 E32.67570
G1 X7.988 Y-19.673 F480.000
G1 X7.997 Y-19.682 E32.67583 F240.000
G1 X7.718 Y-19.642 E32.67867
G1 X-9.549 Y-2.375 E32.92539
G1 X-9.575 Y-2.108 E32.92809
G1 X7.988 Y-19.673 E33.17905
G1 X7.336 Y-19.499 F480.000
G1 X7.439 Y-19.602 E33.18053 F240.000
G1 X7.161 Y-19.562 E33.18337
G1 X-9.489 Y-2.913 E33.42126
G1 X-9.524 Y-2.639 E33.42405
G1 X7.336 Y-19.499 E33.66494
G1 X6.684 Y-19.324 F480.000
G1 X6.882 Y-19.522 E33.66777 F240.000
G1 X6.606 Y-19.482 E33.67059
G1 X6.564 Y-19.443 E33.67118
G1 X-9.351 Y-3.528 E33.89857
G1 X-9.375 Y-3.501 E33.89893
G1 X-9.432 Y-3.209 E33.90194
G1 X6.684 Y-19.324 E34.13220
G1 X6.240 Y-19.355 F480.000
G1 X6.324 Y-19.440 E34.13341 F240.000
G1 X6.009 Y-19.363 E34.13669
G1 X2.812 Y-16.168 E34.18236
G1 X-9.177 Y-4.180 E34.35365
G1 X-9.261 Y-4.093 E34.35488
G1 X-9.318 Y-3.797 E34.35792
G1 X6.240 Y-19.355 E34.58021
G1 X5.587 Y-19.180 F480.000
G1 X5.694 Y-19.287 E34.58174 F240.000
G1 X5.379 Y-19.210 E34.58502
G1 X5.260 Y-19.093 E34.58671
G1 X-9.002 Y-4.832 E34.79048
