; generated by Slic3r 1.2.9 on 2015-12-09 at 18:08:31

; external perimeters extrusion width = 0.50mm
; perimeters extrusion width = 0.85mm
; infill extrusion width = 1.02mm
; solid infill extrusion width = 0.85mm
; top infill extrusion width = 0.85mm

G28 Z
G28 E
G28 X Y
G1 E10 F100
G21 ; set units to millimeters
G90 ; use absolute coordinates
M82 ; use absolute distances for extrusion
M400 ; wait for commands to complete
M42 P16 S0 ; turn extruder 0 off
G1 F1800.00000
M400 ; wait for commands to complete
M42 P16 S0 ; turn extruder 0 off
G1 Z12.6 F1080.000 ; Extruder 0 Z Offset of 12.4 added.
G1 X14.178 Y59.180 F1080.000
G1 E20 F100
M400 ; wait for commands to complete
M42 P16 S255 ; turn extruder 0 on
G1 X25.178 Y59.180 F600.000
G1 X27.389 Y59.577
G1 X29.323 Y60.718 F600.000
G1 X30.741 Y62.461
G1 X31.535 Y65.537
G1 X31.535 Y76.537
G1 X31.138 Y78.748
G1 X29.997 Y80.683
G1 X28.254 Y82.101
G1 X25.178 Y82.895
G1 X14.178 Y82.895
G1 X11.967 Y82.498
G1 X10.032 Y81.357
G1 X8.615 Y79.614
G1 X7.821 Y76.537
G1 X7.821 Y65.537
G1 X8.217 Y63.327
G1 X9.358 Y61.392
G1 X11.101 Y59.974
G1 X14.105 Y59.199
G1 F1800.00000
M400 ; wait for commands to complete
M42 P16 S0 ; turn extruder 0 off
G1 X25.178 Y76.287 F1080.000
G1 E20 F100
M400 ; wait for commands to complete
M42 P16 S255 ; turn extruder 0 on
G1 X14.178 Y76.287 F600.000
G1 F1800.00000
M400 ; wait for commands to complete
M42 P16 S0 ; turn extruder 0 off
G1 X25.178 Y74.787 F1080.000
G1 E20 F100
M400 ; wait for commands to complete
M42 P16 S255 ; turn extruder 0 on
G1 X14.178 Y74.787 F600.000
G1 F1800.00000
M400 ; wait for commands to complete
M42 P16 S0 ; turn extruder 0 off
G1 X25.178 Y73.287 F1080.000
G1 E20 F100
M400 ; wait for commands to complete
M42 P16 S255 ; turn extruder 0 on
G1 X14.178 Y73.287 F600.000
G1 F1800.00000
M400 ; wait for commands to complete
M42 P16 S0 ; turn extruder 0 off
G1 X25.178 Y71.787 F1080.000
G1 E20 F100
M400 ; wait for commands to complete
M42 P16 S255 ; turn extruder 0 on
G1 X14.178 Y71.787 F600.000
G1 F1800.00000
M400 ; wait for commands to complete
M42 P16 S0 ; turn extruder 0 off
G1 X25.178 Y70.287 F1080.000
G1 E20 F100
M400 ; wait for commands to complete
M42 P16 S255 ; turn extruder 0 on
G1 X14.178 Y70.287 F600.000
G1 F1800.00000
M400 ; wait for commands to complete
M42 P16 S0 ; turn extruder 0 off
G1 X25.178 Y68.787 F1080.000
G1 E20 F100
M400 ; wait for commands to complete
M42 P16 S255 ; turn extruder 0 on
G1 X14.178 Y68.787 F600.000
G1 F1800.00000
M400 ; wait for commands to complete
M42 P16 S0 ; turn extruder 0 off
G1 X25.178 Y67.287 F1080.000
G1 E20 F100
M400 ; wait for commands to complete
M42 P16 S255 ; turn extruder 0 on
G1 X14.178 Y67.287 F600.000
G1 F1800.00000
M400 ; wait for commands to complete
M42 P16 S0 ; turn extruder 0 off
G1 X25.178 Y65.787 F1080.000
G1 E20 F100
M400 ; wait for commands to complete
M42 P16 S255 ; turn extruder 0 on
G1 X14.178 Y65.787 F600.000
M106 S255
G1 F1800.00000
M400 ; wait for commands to complete
M42 P16 S0 ; turn extruder 0 off
G1 Z12.8 F1080.000 ; Extruder 0 Z Offset of 12.4 added.
G1 X25.178 Y76.287 F1080.000
G1 E20 F100
M400 ; wait for commands to complete
M42 P16 S255 ; turn extruder 0 on
G1 X14.178 Y76.287 F600.000
G1 F1800.00000
M400 ; wait for commands to complete
M42 P16 S0 ; turn extruder 0 off
G1 X25.178 Y74.787 F1080.000
G1 E20 F100
M400 ; wait for commands to complete
M42 P16 S255 ; turn extruder 0 on
G1 X14.178 Y74.787 F600.000
G1 F1800.00000
M400 ; wait for commands to complete
M42 P16 S0 ; turn extruder 0 off
G1 X25.178 Y73.287 F1080.000
G1 E20 F100
M400 ; wait for commands to complete
M42 P16 S255 ; turn extruder 0 on
G1 X14.178 Y73.287 F600.000
G1 F1800.00000
M400 ; wait for commands to complete
M42 P16 S0 ; turn extruder 0 off
G1 X25.178 Y71.787 F1080.000
G1 E20 F100
M400 ; wait for commands to complete
M42 P16 S255 ; turn extruder 0 on
G1 X14.178 Y71.787 F600.000
G1 F1800.00000
M400 ; wait for commands to complete
M42 P16 S0 ; turn extruder 0 off
G1 X25.178 Y70.287 F1080.000
G1 E20 F100
M400 ; wait for commands to complete
M42 P16 S255 ; turn extruder 0 on
G1 X14.178 Y70.287 F600.000
G1 F1800.00000
M400 ; wait for commands to complete
M42 P16 S0 ; turn extruder 0 off
G1 X25.178 Y68.787 F1080.000
G1 E20 F100
M400 ; wait for commands to complete
M42 P16 S255 ; turn extruder 0 on
G1 X14.178 Y68.787 F600.000
G1 F1800.00000
M400 ; wait for commands to complete
M42 P16 S0 ; turn extruder 0 off
G1 X25.178 Y67.287 F1080.000
G1 E20 F100
M400 ; wait for commands to complete
M42 P16 S255 ; turn extruder 0 on
G1 X14.178 Y67.287 F600.000
G1 F1800.00000
M400 ; wait for commands to complete
M42 P16 S0 ; turn extruder 0 off
G1 X25.178 Y65.787 F1080.000
G1 E20 F100
M400 ; wait for commands to complete
M42 P16 S255 ; turn extruder 0 on
G1 X14.178 Y65.787 F600.000
G1 F1800.00000
M400 ; wait for commands to complete
M42 P16 S0 ; turn extruder 0 off
G1 Z13.0 F1080.000 ; Extruder 0 Z Offset of 12.4 added.
G1 X25.178 Y76.287 F1080.000
G1 E20 F100
M400 ; wait for commands to complete
M42 P16 S255 ; turn extruder 0 on
G1 X14.178 Y76.287 F600.000
G1 F1800.00000
M400 ; wait for commands to complete
M42 P16 S0 ; turn extruder 0 off
G1 X25.178 Y74.787 F1080.000
G1 E20 F100
M400 ; wait for commands to complete
M42 P16 S255 ; turn extruder 0 on
G1 X14.178 Y74.787 F600.000
G1 F1800.00000
M400 ; wait for commands to complete
M42 P16 S0 ; turn extruder 0 off
G1 X25.178 Y73.287 F1080.000
G1 E20 F100
M400 ; wait for commands to complete
M42 P16 S255 ; turn extruder 0 on
G1 X14.178 Y73.287 F600.000
G1 F1800.00000
M400 ; wait for commands to complete
M42 P16 S0 ; turn extruder 0 off
G1 X25.178 Y71.787 F1080.000
G1 E20 F100
M400 ; wait for commands to complete
M42 P16 S255 ; turn extruder 0 on
G1 X14.178 Y71.787 F600.000
G1 F1800.00000
M400 ; wait for commands to complete
M42 P16 S0 ; turn extruder 0 off
G1 X25.178 Y70.287 F1080.000
G1 E20 F100
M400 ; wait for commands to complete
M42 P16 S255 ; turn extruder 0 on
G1 X14.178 Y70.287 F600.000
G1 F1800.00000
M400 ; wait for commands to complete
M42 P16 S0 ; turn extruder 0 off
G1 X25.178 Y68.787 F1080.000
G1 E20 F100
M400 ; wait for commands to complete
M42 P16 S255 ; turn extruder 0 on
G1 X14.178 Y68.787 F600.000
G1 F1800.00000
M400 ; wait for commands to complete
M42 P16 S0 ; turn extruder 0 off
G1 X25.178 Y67.287 F1080.000
G1 E20 F100
M400 ; wait for commands to complete
M42 P16 S255 ; turn extruder 0 on
G1 X14.178 Y67.287 F600.000
G1 F1800.00000
M400 ; wait for commands to complete
M42 P16 S0 ; turn extruder 0 off
G1 X25.178 Y65.787 F1080.000
G1 E20 F100
M400 ; wait for commands to complete
M42 P16 S255 ; turn extruder 0 on
G1 X14.178 Y65.787 F600.000
G1 F1800.00000
M400 ; wait for commands to complete
M42 P16 S0 ; turn extruder 0 off
G1 Z13.2 F1080.000 ; Extruder 0 Z Offset of 12.4 added.
G1 X25.178 Y76.287 F1080.000
G1 E20 F100
M400 ; wait for commands to complete
M42 P16 S255 ; turn extruder 0 on
G1 X14.178 Y76.287 F600.000
G1 F1800.00000
M400 ; wait for commands to complete
M42 P16 S0 ; turn extruder 0 off
G1 X25.178 Y74.787 F1080.000
G1 E20 F100
M400 ; wait for commands to complete
M42 P16 S255 ; turn extruder 0 on
G1 X14.178 Y74.787 F600.000
G1 F1800.00000
M400 ; wait for commands to complete
M42 P16 S0 ; turn extruder 0 off
G1 X25.178 Y73.287 F1080.000
G1 E20 F100
M400 ; wait for commands to complete
M42 P16 S255 ; turn extruder 0 on
G1 X14.178 Y73.287 F600.000
G1 F1800.00000
M400 ; wait for commands to complete
M42 P16 S0 ; turn extruder 0 off
G1 X25.178 Y71.787 F1080.000
G1 E20 F100
M400 ; wait for commands to complete
M42 P16 S255 ; turn extruder 0 on
G1 X14.178 Y71.787 F600.000
G1 F1800.00000
M400 ; wait for commands to complete
M42 P16 S0 ; turn extruder 0 off
G1 X25.178 Y70.287 F1080.000
G1 E20 F100
M400 ; wait for commands to complete
M42 P16 S255 ; turn extruder 0 on
G1 X14.178 Y70.287 F600.000
G1 F1800.00000
M400 ; wait for commands to complete
M42 P16 S0 ; turn extruder 0 off
G1 X25.178 Y68.787 F1080.000
G1 E20 F100
M400 ; wait for commands to complete
M42 P16 S255 ; turn extruder 0 on
G1 X14.178 Y68.787 F600.000
G1 F1800.00000
M400 ; wait for commands to complete
M42 P16 S0 ; turn extruder 0 off
G1 X25.178 Y67.287 F1080.000
G1 E20 F100
M400 ; wait for commands to complete
M42 P16 S255 ; turn extruder 0 on
G1 X14.178 Y67.287 F600.000
G1 F1800.00000
M400 ; wait for commands to complete
M42 P16 S0 ; turn extruder 0 off
G1 X25.178 Y65.787 F1080.000
G1 E20 F100
M400 ; wait for commands to complete
M42 P16 S255 ; turn extruder 0 on
G1 X14.178 Y65.787 F600.000
G1 F1800.00000
M400 ; wait for commands to complete
M42 P16 S0 ; turn extruder 0 off
G1 Z13.4 F1080.000 ; Extruder 0 Z Offset of 12.4 added.
G1 X25.178 Y76.287 F1080.000
G1 E20 F100
M400 ; wait for commands to complete
M42 P16 S255 ; turn extruder 0 on
G1 X14.178 Y76.287 F600.000
G1 F1800.00000
M400 ; wait for commands to complete
M42 P16 S0 ; turn extruder 0 off
G1 X25.178 Y74.787 F1080.000
G1 E20 F100
M400 ; wait for commands to complete
M42 P16 S255 ; turn extruder 0 on
G1 X14.178 Y74.787 F600.000
G1 F1800.00000
M400 ; wait for commands to complete
M42 P16 S0 ; turn extruder 0 off
G1 X25.178 Y73.287 F1080.000
G1 E20 F100
M400 ; wait for commands to complete
M42 P16 S255 ; turn extruder 0 on
G1 X14.178 Y73.287 F600.000
G1 F1800.00000
M400 ; wait for commands to complete
M42 P16 S0 ; turn extruder 0 off
G1 X25.178 Y71.787 F1080.000
G1 E20 F100
M400 ; wait for commands to complete
M42 P16 S255 ; turn extruder 0 on
G1 X14.178 Y71.787 F600.000
G1 F1800.00000
M400 ; wait for commands to complete
M42 P16 S0 ; turn extruder 0 off
G1 X25.178 Y70.287 F1080.000
G1 E20 F100
M400 ; wait for commands to complete
M42 P16 S255 ; turn extruder 0 on
G1 X14.178 Y70.287 F600.000
G1 F1800.00000
M400 ; wait for commands to complete
M42 P16 S0 ; turn extruder 0 off
G1 X25.178 Y68.787 F1080.000
G1 E20 F100
M400 ; wait for commands to complete
M42 P16 S255 ; turn extruder 0 on
G1 X14.178 Y68.787 F600.000
G1 F1800.00000
M400 ; wait for commands to complete
M42 P16 S0 ; turn extruder 0 off
G1 X25.178 Y67.287 F1080.000
G1 E20 F100
M400 ; wait for commands to complete
M42 P16 S255 ; turn extruder 0 on
G1 X14.178 Y67.287 F600.000
G1 F1800.00000
M400 ; wait for commands to complete
M42 P16 S0 ; turn extruder 0 off
G1 X25.178 Y65.787 F1080.000
G1 E20 F100
M400 ; wait for commands to complete
M42 P16 S255 ; turn extruder 0 on
G1 X14.178 Y65.787 F600.000
G1 F1800.00000
M400 ; wait for commands to complete
M42 P16 S0 ; turn extruder 0 off
G1 Z13.6 F1080.000 ; Extruder 0 Z Offset of 12.4 added.
G1 X25.178 Y76.287 F1080.000
G1 E20 F100
M400 ; wait for commands to complete
M42 P16 S255 ; turn extruder 0 on
G1 X14.178 Y76.287 F600.000
G1 F1800.00000
M400 ; wait for commands to complete
M42 P16 S0 ; turn extruder 0 off
G1 X25.178 Y74.787 F1080.000
G1 E20 F100
M400 ; wait for commands to complete
M42 P16 S255 ; turn extruder 0 on
G1 X14.178 Y74.787 F600.000
G1 F1800.00000
M400 ; wait for commands to complete
M42 P16 S0 ; turn extruder 0 off
G1 X25.178 Y73.287 F1080.000
G1 E20 F100
M400 ; wait for commands to complete
M42 P16 S255 ; turn extruder 0 on
G1 X14.178 Y73.287 F600.000
G1 F1800.00000
M400 ; wait for commands to complete
M42 P16 S0 ; turn extruder 0 off
G1 X25.178 Y71.787 F1080.000
G1 E20 F100
M400 ; wait for commands to complete
M42 P16 S255 ; turn extruder 0 on
G1 X14.178 Y71.787 F600.000
G1 F1800.00000
M400 ; wait for commands to complete
M42 P16 S0 ; turn extruder 0 off
G1 X25.178 Y70.287 F1080.000
G1 E20 F100
M400 ; wait for commands to complete
M42 P16 S255 ; turn extruder 0 on
G1 X14.178 Y70.287 F600.000
G1 F1800.00000
M400 ; wait for commands to complete
M42 P16 S0 ; turn extruder 0 off
G1 X25.178 Y68.787 F1080.000
G1 E20 F100
M400 ; wait for commands to complete
M42 P16 S255 ; turn extruder 0 on
G1 X14.178 Y68.787 F600.000
G1 F1800.00000
M400 ; wait for commands to complete
M42 P16 S0 ; turn extruder 0 off
G1 X25.178 Y67.287 F1080.000
G1 E20 F100
M400 ; wait for commands to complete
M42 P16 S255 ; turn extruder 0 on
G1 X14.178 Y67.287 F600.000
G1 F1800.00000
M400 ; wait for commands to complete
M42 P16 S0 ; turn extruder 0 off
G1 X25.178 Y65.787 F1080.000
G1 E20 F100
M400 ; wait for commands to complete
M42 P16 S255 ; turn extruder 0 on
G1 X14.178 Y65.787 F600.000
G1 F1800.00000
M400 ; wait for commands to complete
M42 P16 S0 ; turn extruder 0 off
G1 Z13.8 F1080.000 ; Extruder 0 Z Offset of 12.4 added.
G1 X24.928 Y76.537 F1080.000
G1 E20 F100
M400 ; wait for commands to complete
M42 P16 S255 ; turn extruder 0 on
G1 X24.928 Y65.537 F600.000
G1 F1800.00000
M400 ; wait for commands to complete
M42 P16 S0 ; turn extruder 0 off
G1 X23.428 Y76.537 F1080.000
G1 E20 F100
M400 ; wait for commands to complete
M42 P16 S255 ; turn extruder 0 on
G1 X23.428 Y65.537 F600.000
G1 F1800.00000
M400 ; wait for commands to complete
M42 P16 S0 ; turn extruder 0 off
G1 X21.928 Y76.537 F1080.000
G1 E20 F100
M400 ; wait for commands to complete
M42 P16 S255 ; turn extruder 0 on
G1 X21.928 Y65.537 F600.000
G1 F1800.00000
M400 ; wait for commands to complete
M42 P16 S0 ; turn extruder 0 off
G1 X20.428 Y76.537 F1080.000
G1 E20 F100
M400 ; wait for commands to complete
M42 P16 S255 ; turn extruder 0 on
G1 X20.428 Y65.537 F600.000
G1 F1800.00000
M400 ; wait for commands to complete
M42 P16 S0 ; turn extruder 0 off
G1 X18.928 Y76.537 F1080.000
G1 E20 F100
M400 ; wait for commands to complete
M42 P16 S255 ; turn extruder 0 on
G1 X18.928 Y65.537 F600.000
G1 F1800.00000
M400 ; wait for commands to complete
M42 P16 S0 ; turn extruder 0 off
G1 X17.428 Y76.537 F1080.000
G1 E20 F100
M400 ; wait for commands to complete
M42 P16 S255 ; turn extruder 0 on
G1 X17.428 Y65.537 F600.000
G1 F1800.00000
M400 ; wait for commands to complete
M42 P16 S0 ; turn extruder 0 off
G1 X15.928 Y76.537 F1080.000
G1 E20 F100
M400 ; wait for commands to complete
M42 P16 S255 ; turn extruder 0 on
G1 X15.928 Y65.537 F600.000
G1 F1800.00000
M400 ; wait for commands to complete
M42 P16 S0 ; turn extruder 0 off
G1 X14.428 Y76.537 F1080.000
G1 E20 F100
M400 ; wait for commands to complete
M42 P16 S255 ; turn extruder 0 on
G1 X14.428 Y65.537 F600.000
G1 F1800.00000
M400 ; wait for commands to complete
M42 P16 S0 ; turn extruder 0 off
G1 Z14.0 F1080.000 ; Extruder 0 Z Offset of 12.4 added.
G1 X24.928 Y76.537 F1080.000
G1 E20 F100
M400 ; wait for commands to complete
M42 P16 S255 ; turn extruder 0 on
G1 X24.928 Y65.537 F600.000
G1 F1800.00000
M400 ; wait for commands to complete
M42 P16 S0 ; turn extruder 0 off
G1 X23.428 Y76.537 F1080.000
G1 E20 F100
M400 ; wait for commands to complete
M42 P16 S255 ; turn extruder 0 on
G1 X23.428 Y65.537 F600.000
G1 F1800.00000
M400 ; wait for commands to complete
M42 P16 S0 ; turn extruder 0 off
G1 X21.928 Y76.537 F1080.000
G1 E20 F100
M400 ; wait for commands to complete
M42 P16 S255 ; turn extruder 0 on
G1 X21.928 Y65.537 F600.000
G1 F1800.00000
M400 ; wait for commands to complete
M42 P16 S0 ; turn extruder 0 off
G1 X20.428 Y76.537 F1080.000
G1 E20 F100
M400 ; wait for commands to complete
M42 P16 S255 ; turn extruder 0 on
G1 X20.428 Y65.537 F600.000
G1 F1800.00000
M400 ; wait for commands to complete
M42 P16 S0 ; turn extruder 0 off
G1 X18.928 Y76.537 F1080.000
G1 E20 F100
M400 ; wait for commands to complete
M42 P16 S255 ; turn extruder 0 on
G1 X18.928 Y65.537 F600.000
G1 F1800.00000
M400 ; wait for commands to complete
M42 P16 S0 ; turn extruder 0 off
G1 X17.428 Y76.537 F1080.000
G1 E20 F100
M400 ; wait for commands to complete
M42 P16 S255 ; turn extruder 0 on
G1 X17.428 Y65.537 F600.000
G1 F1800.00000
M400 ; wait for commands to complete
M42 P16 S0 ; turn extruder 0 off
G1 X15.928 Y76.537 F1080.000
G1 E20 F100
M400 ; wait for commands to complete
M42 P16 S255 ; turn extruder 0 on
G1 X15.928 Y65.537 F600.000
G1 F1800.00000
M400 ; wait for commands to complete
M42 P16 S0 ; turn extruder 0 off
G1 X14.428 Y76.537 F1080.000
G1 E20 F100
M400 ; wait for commands to complete
M42 P16 S255 ; turn extruder 0 on
G1 X14.428 Y65.537 F600.000
G1 F1800.00000
M400 ; wait for commands to complete
M42 P16 S0 ; turn extruder 0 off
