; generated by Slic3r 1.2.9 on 2016-01-04 at 19:26:34

; external perimeters extrusion width = 0.20mm
; perimeters extrusion width = 0.21mm
; infill extrusion width = 0.21mm
; solid infill extrusion width = 0.21mm
; top infill extrusion width = 0.21mm

; external perimeters extrusion width = 0.20mm
; perimeters extrusion width = 0.21mm
; infill extrusion width = 0.21mm
; solid infill extrusion width = 0.21mm
; top infill extrusion width = 0.21mm

M107
M104 S200 T0 ; set temperature
M104 S200 T1 ; set temperature
G28 ; home all axes


M109 S200 T0 ; wait for temperature to be reached
M109 S200 T1 ; wait for temperature to be reached
G21 ; set units to millimeters
G90 ; use absolute coordinates
M82 ; use absolute distances for extrusion
G92 E0
T0
G92 E0
G1 Z0.200 F480.000
G1 X-11.894 Y-0.005 F480.000
G1 X-11.890 Y-0.306 E0.00142 F240.000
G1 X-11.796 Y-1.527 E0.00721
G1 X-11.577 Y-2.732 E0.01300
G1 X-11.235 Y-3.908 E0.01879
G1 X-10.773 Y-5.043 E0.02458
G1 X-10.198 Y-6.124 E0.03037
G1 X-9.515 Y-7.140 E0.03616
G1 X-8.731 Y-8.081 E0.04195
G1 X-7.854 Y-8.936 E0.04774
G1 X-6.893 Y-9.696 E0.05353
G1 X-5.860 Y-10.354 E0.05932
G1 X-4.765 Y-10.902 E0.06511
G1 X-3.619 Y-11.335 E0.07090
G1 X-2.434 Y-11.647 E0.07670
G1 X-1.224 Y-11.836 E0.08249
G1 X0.000 Y-11.900 E0.08828
G1 X1.224 Y-11.836 E0.09407
G1 X2.434 Y-11.647 E0.09986
G1 X3.619 Y-11.335 E0.10565
G1 X4.765 Y-10.902 E0.11145
G1 X5.860 Y-10.354 E0.11724
G1 X6.893 Y-9.696 E0.12303
G1 X7.854 Y-8.936 E0.12882
G1 X8.731 Y-8.081 E0.13461
G1 X9.515 Y-7.140 E0.14040
G1 X10.198 Y-6.124 E0.14619
G1 X10.773 Y-5.043 E0.15198
G1 X11.235 Y-3.908 E0.15777
G1 X11.577 Y-2.732 E0.16356
G1 X11.796 Y-1.527 E0.16935
G1 X11.890 Y-0.306 E0.17513
G1 X11.894 Y-0.005 E0.17656
G1 X11.858 Y0.918 E0.18093
G1 X11.701 Y2.132 E0.18671
G1 X11.632 Y2.478 E0.18838
G1 X11.419 Y3.324 E0.19250
G1 X11.310 Y3.680 E0.19426
G1 X11.017 Y4.480 E0.19829
G1 X10.863 Y4.842 E0.20015
G1 X10.498 Y5.589 E0.20408
G1 X10.297 Y5.951 E0.20604
G1 X9.867 Y6.639 E0.20987
G1 X9.619 Y6.994 E0.21192
G1 X9.132 Y7.618 E0.21566
G1 X8.835 Y7.961 E0.21781
G1 X8.300 Y8.517 E0.22145
G1 X7.954 Y8.841 E0.22370
G1 X7.380 Y9.325 E0.22725
G1 X6.986 Y9.624 E0.22958
G1 X6.382 Y10.034 E0.23304
G1 X5.942 Y10.301 E0.23547
G1 X5.317 Y10.637 E0.23883
G1 X4.833 Y10.866 E0.24136
G1 X4.195 Y11.127 E0.24462
G1 X3.670 Y11.312 E0.24724
G1 X3.029 Y11.500 E0.25041
G1 X2.468 Y11.633 E0.25313
G1 X1.830 Y11.750 E0.25619
G1 X1.248 Y11.826 E0.25897
G1 X0.000 Y11.900 E0.26488
G1 X-1.248 Y11.826 E0.27079
G1 X-1.830 Y11.750 E0.27357
G1 X-2.468 Y11.633 E0.27663
G1 X-3.029 Y11.500 E0.27936
G1 X-3.670 Y11.311 E0.28252
G1 X-4.195 Y11.127 E0.28514
G1 X-4.833 Y10.866 E0.28840
G1 X-5.317 Y10.637 E0.29093
G1 X-5.942 Y10.301 E0.29429
G1 X-6.382 Y10.034 E0.29672
G1 X-6.986 Y9.624 E0.30018
G1 X-7.380 Y9.325 E0.30252
G1 X-7.954 Y8.841 E0.30606
G1 X-8.300 Y8.517 E0.30831
G1 X-8.835 Y7.961 E0.31195
G1 X-9.132 Y7.618 E0.31410
G1 X-9.619 Y6.994 E0.31784
G1 X-9.867 Y6.639 E0.31989
G1 X-10.297 Y5.951 E0.32372
G1 X-10.498 Y5.589 E0.32568
G1 X-10.863 Y4.842 E0.32961
G1 X-11.017 Y4.480 E0.33147
G1 X-11.310 Y3.680 E0.33550
G1 X-11.419 Y3.324 E0.33726
G1 X-11.632 Y2.478 E0.34138
G1 X-11.701 Y2.132 E0.34305
G1 X-11.858 Y0.918 E0.34884
G1 X-11.894 Y-0.005 E0.35320
G92 E0
G1 Z0.400 F480.000
T1
G92 E0
G1 X-11.890 Y-0.306 E0.00142 F240.000
G1 X-11.796 Y-1.527 E0.00721
G1 X-11.577 Y-2.732 E0.01300
G1 X-11.235 Y-3.908 E0.01879
G1 X-10.773 Y-5.043 E0.02458
G1 X-10.198 Y-6.124 E0.03037
G1 X-9.515 Y-7.140 E0.03616
G1 X-8.731 Y-8.081 E0.04195
G1 X-7.854 Y-8.936 E0.04774
G1 X-6.893 Y-9.696 E0.05353
G1 X-5.860 Y-10.354 E0.05932
G1 X-4.765 Y-10.902 E0.06511
G1 X-3.619 Y-11.335 E0.07090
G1 X-2.434 Y-11.647 E0.07670
G1 X-1.224 Y-11.836 E0.08249
G1 X0.000 Y-11.900 E0.08828
G1 X1.224 Y-11.836 E0.09407
G1 X2.434 Y-11.647 E0.09986
G1 X3.619 Y-11.335 E0.10565
G1 X4.765 Y-10.902 E0.11145
G1 X5.860 Y-10.354 E0.11724
G1 X6.893 Y-9.696 E0.12303
G1 X7.854 Y-8.936 E0.12882
G1 X8.731 Y-8.081 E0.13461
G1 X9.515 Y-7.140 E0.14040
G1 X10.198 Y-6.124 E0.14619
G1 X10.773 Y-5.043 E0.15198
G1 X11.235 Y-3.908 E0.15777
G1 X11.577 Y-2.732 E0.16356
G1 X11.796 Y-1.527 E0.16935
G1 X11.890 Y-0.306 E0.17513
G1 X11.894 Y-0.005 E0.17656
G1 X11.858 Y0.918 E0.18093
G1 X11.701 Y2.132 E0.18671
G1 X11.632 Y2.478 E0.18838
G1 X11.419 Y3.324 E0.19250
G1 X11.310 Y3.680 E0.19426
G1 X11.017 Y4.480 E0.19829
G1 X10.863 Y4.842 E0.20015
G1 X10.498 Y5.589 E0.20408
G1 X10.297 Y5.951 E0.20604
G1 X9.867 Y6.639 E0.20987
G1 X9.619 Y6.994 E0.21192
G1 X9.132 Y7.618 E0.21566
G1 X8.835 Y7.961 E0.21781
G1 X8.300 Y8.517 E0.22145
G1 X7.954 Y8.841 E0.22370
G1 X7.380 Y9.325 E0.22725
G1 X6.986 Y9.624 E0.22958
G1 X6.382 Y10.034 E0.23304
G1 X5.942 Y10.301 E0.23547
G1 X5.317 Y10.637 E0.23883
G1 X4.833 Y10.866 E0.24136
G1 X4.195 Y11.127 E0.24462
G1 X3.670 Y11.312 E0.24724
G1 X3.029 Y11.500 E0.25041
G1 X2.468 Y11.633 E0.25313
G1 X1.830 Y11.750 E0.25619
G1 X1.248 Y11.826 E0.25897
G1 X0.000 Y11.900 E0.26488
G1 X-1.248 Y11.826 E0.27079
G1 X-1.830 Y11.750 E0.27357
G1 X-2.468 Y11.633 E0.27663
G1 X-3.029 Y11.500 E0.27936
G1 X-3.670 Y11.311 E0.28252
G1 X-4.195 Y11.127 E0.28514
G1 X-4.833 Y10.866 E0.28840
G1 X-5.317 Y10.637 E0.29093
G1 X-5.942 Y10.301 E0.29429
G1 X-6.382 Y10.034 E0.29672
G1 X-6.986 Y9.624 E0.30018
G1 X-7.380 Y9.325 E0.30252
G1 X-7.954 Y8.841 E0.30606
G1 X-8.300 Y8.517 E0.30831
G1 X-8.835 Y7.961 E0.31195
G1 X-9.132 Y7.618 E0.31410
G1 X-9.619 Y6.994 E0.31784
G1 X-9.867 Y6.639 E0.31989
G1 X-10.297 Y5.951 E0.32372
G1 X-10.498 Y5.589 E0.32568
G1 X-10.863 Y4.842 E0.32961
G1 X-11.017 Y4.480 E0.33147
G1 X-11.310 Y3.680 E0.33550
G1 X-11.419 Y3.324 E0.33726
G1 X-11.632 Y2.478 E0.34138
G1 X-11.701 Y2.132 E0.34305
G1 X-11.858 Y0.918 E0.34884
G1 X-11.894 Y-0.005 E0.35320
G92 E0
G1 Z0.600 F480.000
T0
G92 E0
G1 X-11.890 Y-0.306 E0.00142 F240.000
G1 X-11.796 Y-1.527 E0.00721
G1 X-11.577 Y-2.732 E0.01300
G1 X-11.235 Y-3.908 E0.01879
G1 X-10.773 Y-5.043 E0.02458
G1 X-10.198 Y-6.124 E0.03037
G1 X-9.515 Y-7.140 E0.03616
G1 X-8.731 Y-8.081 E0.04195
G1 X-7.854 Y-8.936 E0.04774
G1 X-6.893 Y-9.696 E0.05353
G1 X-5.860 Y-10.354 E0.05932
G1 X-4.765 Y-10.902 E0.06511
G1 X-3.619 Y-11.335 E0.07090
G1 X-2.434 Y-11.647 E0.07670
G1 X-1.224 Y-11.836 E0.08249
G1 X0.000 Y-11.900 E0.08828
G1 X1.224 Y-11.836 E0.09407
G1 X2.434 Y-11.647 E0.09986
G1 X3.619 Y-11.335 E0.10565
G1 X4.765 Y-10.902 E0.11145
G1 X5.860 Y-10.354 E0.11724
G1 X6.893 Y-9.696 E0.12303
G1 X7.854 Y-8.936 E0.12882
G1 X8.731 Y-8.081 E0.13461
G1 X9.515 Y-7.140 E0.14040
G1 X10.198 Y-6.124 E0.14619
G1 X10.773 Y-5.043 E0.15198
G1 X11.235 Y-3.908 E0.15777
G1 X11.577 Y-2.732 E0.16356
G1 X11.796 Y-1.527 E0.16935
G1 X11.890 Y-0.306 E0.17513
G1 X11.894 Y-0.005 E0.17656
G1 X11.858 Y0.918 E0.18093
G1 X11.701 Y2.132 E0.18671
G1 X11.632 Y2.478 E0.18838
G1 X11.419 Y3.324 E0.19250
G1 X11.310 Y3.680 E0.19426
G1 X11.017 Y4.480 E0.19829
G1 X10.863 Y4.842 E0.20015
G1 X10.498 Y5.589 E0.20408
G1 X10.297 Y5.951 E0.20604
G1 X9.867 Y6.639 E0.20987
G1 X9.619 Y6.994 E0.21192
G1 X9.132 Y7.618 E0.21566
G1 X8.835 Y7.961 E0.21781
G1 X8.300 Y8.517 E0.22145
G1 X7.954 Y8.841 E0.22370
G1 X7.380 Y9.325 E0.22725
G1 X6.986 Y9.624 E0.22958
G1 X6.382 Y10.034 E0.23304
G1 X5.942 Y10.301 E0.23547
G1 X5.317 Y10.637 E0.23883
G1 X4.833 Y10.866 E0.24136
G1 X4.195 Y11.127 E0.24462
G1 X3.670 Y11.312 E0.24724
G1 X3.029 Y11.500 E0.25041
G1 X2.468 Y11.633 E0.25313
G1 X1.830 Y11.750 E0.25619
G1 X1.248 Y11.826 E0.25897
G1 X0.000 Y11.900 E0.26488
G1 X-1.248 Y11.826 E0.27079
G1 X-1.830 Y11.750 E0.27357
G1 X-2.468 Y11.633 E0.27663
G1 X-3.029 Y11.500 E0.27936
G1 X-3.670 Y11.311 E0.28252
G1 X-4.195 Y11.127 E0.28514
G1 X-4.833 Y10.866 E0.28840
G1 X-5.317 Y10.637 E0.29093
G1 X-5.942 Y10.301 E0.29429
G1 X-6.382 Y10.034 E0.29672
G1 X-6.986 Y9.624 E0.30018
G1 X-7.380 Y9.325 E0.30252
G1 X-7.954 Y8.841 E0.30606
G1 X-8.300 Y8.517 E0.30831
G1 X-8.835 Y7.961 E0.31195
G1 X-9.132 Y7.618 E0.31410
G1 X-9.619 Y6.994 E0.31784
G1 X-9.867 Y6.639 E0.31989
G1 X-10.297 Y5.951 E0.32372
G1 X-10.498 Y5.589 E0.32568
G1 X-10.863 Y4.842 E0.32961
G1 X-11.017 Y4.480 E0.33147
G1 X-11.310 Y3.680 E0.33550
G1 X-11.419 Y3.324 E0.33726
G1 X-11.632 Y2.478 E0.34138
G1 X-11.701 Y2.132 E0.34305
G1 X-11.858 Y0.918 E0.34884
G1 X-11.894 Y-0.005 E0.35320
M106 S211.65
G92 E0
G1 Z0.800 F480.000
T1
G92 E0
G1 X-11.890 Y-0.306 E0.00142 F240.000
G1 X-11.796 Y-1.527 E0.00721
G1 X-11.577 Y-2.732 E0.01300
G1 X-11.235 Y-3.908 E0.01879
G1 X-10.773 Y-5.043 E0.02458
G1 X-10.198 Y-6.124 E0.03037
G1 X-9.515 Y-7.140 E0.03616
G1 X-8.731 Y-8.081 E0.04195
G1 X-7.854 Y-8.936 E0.04774
G1 X-6.893 Y-9.696 E0.05353
G1 X-5.860 Y-10.354 E0.05932
G1 X-4.765 Y-10.902 E0.06511
G1 X-3.619 Y-11.335 E0.07090
G1 X-2.434 Y-11.647 E0.07670
G1 X-1.224 Y-11.836 E0.08249
G1 X0.000 Y-11.900 E0.08828
G1 X1.224 Y-11.836 E0.09407
G1 X2.434 Y-11.647 E0.09986
G1 X3.619 Y-11.335 E0.10565
G1 X4.765 Y-10.902 E0.11145
G1 X5.860 Y-10.354 E0.11724
G1 X6.893 Y-9.696 E0.12303
G1 X7.854 Y-8.936 E0.12882
G1 X8.731 Y-8.081 E0.13461
G1 X9.515 Y-7.140 E0.14040
G1 X10.198 Y-6.124 E0.14619
G1 X10.773 Y-5.043 E0.15198
G1 X11.235 Y-3.908 E0.15777
G1 X11.577 Y-2.732 E0.16356
G1 X11.796 Y-1.527 E0.16935
G1 X11.890 Y-0.306 E0.17513
G1 X11.894 Y-0.005 E0.17656
G1 X11.858 Y0.918 E0.18093
G1 X11.701 Y2.132 E0.18671
G1 X11.632 Y2.478 E0.18838
G1 X11.419 Y3.324 E0.19250
G1 X11.310 Y3.680 E0.19426
G1 X11.017 Y4.480 E0.19829
G1 X10.863 Y4.842 E0.20015
G1 X10.498 Y5.589 E0.20408
G1 X10.297 Y5.951 E0.20604
G1 X9.867 Y6.639 E0.20987
G1 X9.619 Y6.994 E0.21192
G1 X9.132 Y7.618 E0.21566
G1 X8.835 Y7.961 E0.21781
G1 X8.300 Y8.517 E0.22145
G1 X7.954 Y8.841 E0.22370
G1 X7.380 Y9.325 E0.22725
G1 X6.986 Y9.624 E0.22958
G1 X6.382 Y10.034 E0.23304
G1 X5.942 Y10.301 E0.23547
G1 X5.317 Y10.637 E0.23883
G1 X4.833 Y10.866 E0.24136
G1 X4.195 Y11.127 E0.24462
G1 X3.670 Y11.312 E0.24724
G1 X3.029 Y11.500 E0.25041
G1 X2.468 Y11.633 E0.25313
G1 X1.830 Y11.750 E0.25619
G1 X1.248 Y11.826 E0.25897
G1 X0.000 Y11.900 E0.26488
G1 X-1.248 Y11.826 E0.27079
G1 X-1.830 Y11.750 E0.27357
G1 X-2.468 Y11.633 E0.27663
G1 X-3.029 Y11.500 E0.27936
G1 X-3.670 Y11.311 E0.28252
G1 X-4.195 Y11.127 E0.28514
G1 X-4.833 Y10.866 E0.28840
G1 X-5.317 Y10.637 E0.29093
G1 X-5.942 Y10.301 E0.29429
G1 X-6.382 Y10.034 E0.29672
G1 X-6.986 Y9.624 E0.30018
G1 X-7.380 Y9.325 E0.30252
G1 X-7.954 Y8.841 E0.30606
G1 X-8.300 Y8.517 E0.30831
G1 X-8.835 Y7.961 E0.31195
G1 X-9.132 Y7.618 E0.31410
G1 X-9.619 Y6.994 E0.31784
G1 X-9.867 Y6.639 E0.31989
G1 X-10.297 Y5.951 E0.32372
G1 X-10.498 Y5.589 E0.32568
G1 X-10.863 Y4.842 E0.32961
G1 X-11.017 Y4.480 E0.33147
G1 X-11.310 Y3.680 E0.33550
G1 X-11.419 Y3.324 E0.33726
G1 X-11.632 Y2.478 E0.34138
G1 X-11.701 Y2.132 E0.34305
G1 X-11.858 Y0.918 E0.34884
G1 X-11.894 Y-0.005 E0.35320
G92 E0
G1 Z1.000 F480.000
T0
G92 E0
G1 X-11.890 Y-0.306 E0.00142 F240.000
G1 X-11.796 Y-1.527 E0.00721
G1 X-11.577 Y-2.732 E0.01300
G1 X-11.235 Y-3.908 E0.01879
G1 X-10.773 Y-5.043 E0.02458
G1 X-10.198 Y-6.124 E0.03037
G1 X-9.515 Y-7.140 E0.03616
G1 X-8.731 Y-8.081 E0.04195
G1 X-7.854 Y-8.936 E0.04774
G1 X-6.893 Y-9.696 E0.05353
G1 X-5.860 Y-10.354 E0.05932
G1 X-4.765 Y-10.902 E0.06511
G1 X-3.619 Y-11.335 E0.07090
G1 X-2.434 Y-11.647 E0.07670
G1 X-1.224 Y-11.836 E0.08249
G1 X0.000 Y-11.900 E0.08828
G1 X1.224 Y-11.836 E0.09407
G1 X2.434 Y-11.647 E0.09986
G1 X3.619 Y-11.335 E0.10565
G1 X4.765 Y-10.902 E0.11145
G1 X5.860 Y-10.354 E0.11724
G1 X6.893 Y-9.696 E0.12303
G1 X7.854 Y-8.936 E0.12882
G1 X8.731 Y-8.081 E0.13461
G1 X9.515 Y-7.140 E0.14040
G1 X10.198 Y-6.124 E0.14619
G1 X10.773 Y-5.043 E0.15198
G1 X11.235 Y-3.908 E0.15777
G1 X11.577 Y-2.732 E0.16356
G1 X11.796 Y-1.527 E0.16935
G1 X11.890 Y-0.306 E0.17513
G1 X11.894 Y-0.005 E0.17656
G1 X11.858 Y0.918 E0.18093
G1 X11.701 Y2.132 E0.18671
G1 X11.632 Y2.478 E0.18838
G1 X11.419 Y3.324 E0.19250
G1 X11.310 Y3.680 E0.19426
G1 X11.017 Y4.480 E0.19829
G1 X10.863 Y4.842 E0.20015
G1 X10.498 Y5.589 E0.20408
G1 X10.297 Y5.951 E0.20604
G1 X9.867 Y6.639 E0.20987
G1 X9.619 Y6.994 E0.21192
G1 X9.132 Y7.618 E0.21566
G1 X8.835 Y7.961 E0.21781
G1 X8.300 Y8.517 E0.22145
G1 X7.954 Y8.841 E0.22370
G1 X7.380 Y9.325 E0.22725
G1 X6.986 Y9.624 E0.22958
G1 X6.382 Y10.034 E0.23304
G1 X5.942 Y10.301 E0.23547
G1 X5.317 Y10.637 E0.23883
G1 X4.833 Y10.866 E0.24136
G1 X4.195 Y11.127 E0.24462
G1 X3.670 Y11.312 E0.24724
G1 X3.029 Y11.500 E0.25041
G1 X2.468 Y11.633 E0.25313
G1 X1.830 Y11.750 E0.25619
G1 X1.248 Y11.826 E0.25897
G1 X0.000 Y11.900 E0.26488
G1 X-1.248 Y11.826 E0.27079
G1 X-1.830 Y11.750 E0.27357
G1 X-2.468 Y11.633 E0.27663
G1 X-3.029 Y11.500 E0.27936
G1 X-3.670 Y11.311 E0.28252
G1 X-4.195 Y11.127 E0.28514
G1 X-4.833 Y10.866 E0.28840
G1 X-5.317 Y10.637 E0.29093
G1 X-5.942 Y10.301 E0.29429
G1 X-6.382 Y10.034 E0.29672
G1 X-6.986 Y9.624 E0.30018
G1 X-7.380 Y9.325 E0.30252
G1 X-7.954 Y8.841 E0.30606
G1 X-8.300 Y8.517 E0.30831
G1 X-8.835 Y7.961 E0.31195
G1 X-9.132 Y7.618 E0.31410
G1 X-9.619 Y6.994 E0.31784
G1 X-9.867 Y6.639 E0.31989
G1 X-10.297 Y5.951 E0.32372
G1 X-10.498 Y5.589 E0.32568
G1 X-10.863 Y4.842 E0.32961
G1 X-11.017 Y4.480 E0.33147
G1 X-11.310 Y3.680 E0.33550
G1 X-11.419 Y3.324 E0.33726
G1 X-11.632 Y2.478 E0.34138
G1 X-11.701 Y2.132 E0.34305
G1 X-11.858 Y0.918 E0.34884
G1 X-11.894 Y-0.005 E0.35320
G92 E0
G1 Z1.200 F480.000
T1
G92 E0
G1 X-11.890 Y-0.306 E0.00142 F240.000
G1 X-11.796 Y-1.527 E0.00721
G1 X-11.577 Y-2.732 E0.01300
G1 X-11.235 Y-3.908 E0.01879
G1 X-10.773 Y-5.043 E0.02458
G1 X-10.198 Y-6.124 E0.03037
G1 X-9.515 Y-7.140 E0.03616
G1 X-8.731 Y-8.081 E0.04195
G1 X-7.854 Y-8.936 E0.04774
G1 X-6.893 Y-9.696 E0.05353
G1 X-5.860 Y-10.354 E0.05932
G1 X-4.765 Y-10.902 E0.06511
G1 X-3.619 Y-11.335 E0.07090
G1 X-2.434 Y-11.647 E0.07670
G1 X-1.224 Y-11.836 E0.08249
G1 X0.000 Y-11.900 E0.08828
G1 X1.224 Y-11.836 E0.09407
G1 X2.434 Y-11.647 E0.09986
G1 X3.619 Y-11.335 E0.10565
G1 X4.765 Y-10.902 E0.11145
G1 X5.860 Y-10.354 E0.11724
G1 X6.893 Y-9.696 E0.12303
G1 X7.854 Y-8.936 E0.12882
G1 X8.731 Y-8.081 E0.13461
G1 X9.515 Y-7.140 E0.14040
G1 X10.198 Y-6.124 E0.14619
G1 X10.773 Y-5.043 E0.15198
G1 X11.235 Y-3.908 E0.15777
G1 X11.577 Y-2.732 E0.16356
G1 X11.796 Y-1.527 E0.16935
G1 X11.890 Y-0.306 E0.17513
G1 X11.894 Y-0.005 E0.17656
G1 X11.858 Y0.918 E0.18093
G1 X11.701 Y2.132 E0.18671
G1 X11.632 Y2.478 E0.18838
G1 X11.419 Y3.324 E0.19250
G1 X11.310 Y3.680 E0.19426
G1 X11.017 Y4.480 E0.19829
G1 X10.863 Y4.842 E0.20015
G1 X10.498 Y5.589 E0.20408
G1 X10.297 Y5.951 E0.20604
G1 X9.867 Y6.639 E0.20987
G1 X9.619 Y6.994 E0.21192
G1 X9.132 Y7.618 E0.21566
G1 X8.835 Y7.961 E0.21781
G1 X8.300 Y8.517 E0.22145
G1 X7.954 Y8.841 E0.22370
G1 X7.380 Y9.325 E0.22725
G1 X6.986 Y9.624 E0.22958
G1 X6.382 Y10.034 E0.23304
G1 X5.942 Y10.301 E0.23547
G1 X5.317 Y10.637 E0.23883
G1 X4.833 Y10.866 E0.24136
G1 X4.195 Y11.127 E0.24462
G1 X3.670 Y11.312 E0.24724
G1 X3.029 Y11.500 E0.25041
G1 X2.468 Y11.633 E0.25313
G1 X1.830 Y11.750 E0.25619
G1 X1.248 Y11.826 E0.25897
G1 X0.000 Y11.900 E0.26488
G1 X-1.248 Y11.826 E0.27079
G1 X-1.830 Y11.750 E0.27357
G1 X-2.468 Y11.633 E0.27663
G1 X-3.029 Y11.500 E0.27936
G1 X-3.670 Y11.311 E0.28252
G1 X-4.195 Y11.127 E0.28514
G1 X-4.833 Y10.866 E0.28840
G1 X-5.317 Y10.637 E0.29093
G1 X-5.942 Y10.301 E0.29429
G1 X-6.382 Y10.034 E0.29672
G1 X-6.986 Y9.624 E0.30018
G1 X-7.380 Y9.325 E0.30252
G1 X-7.954 Y8.841 E0.30606
G1 X-8.300 Y8.517 E0.30831
G1 X-8.835 Y7.961 E0.31195
G1 X-9.132 Y7.618 E0.31410
G1 X-9.619 Y6.994 E0.31784
G1 X-9.867 Y6.639 E0.31989
G1 X-10.297 Y5.951 E0.32372
G1 X-10.498 Y5.589 E0.32568
G1 X-10.863 Y4.842 E0.32961
G1 X-11.017 Y4.480 E0.33147
G1 X-11.310 Y3.680 E0.33550
G1 X-11.419 Y3.324 E0.33726
G1 X-11.632 Y2.478 E0.34138
G1 X-11.701 Y2.132 E0.34305
G1 X-11.858 Y0.918 E0.34884
G1 X-11.894 Y-0.005 E0.35320
G92 E0
G1 Z1.400 F480.000
T0
G92 E0
G1 X-11.890 Y-0.306 E0.00142 F240.000
G1 X-11.796 Y-1.527 E0.00721
G1 X-11.577 Y-2.732 E0.01300
G1 X-11.235 Y-3.908 E0.01879
G1 X-10.773 Y-5.043 E0.02458
G1 X-10.198 Y-6.124 E0.03037
G1 X-9.515 Y-7.140 E0.03616
G1 X-8.731 Y-8.081 E0.04195
G1 X-7.854 Y-8.936 E0.04774
G1 X-6.893 Y-9.696 E0.05353
G1 X-5.860 Y-10.354 E0.05932
