; generated by Slic3r 1.2.9 on 2016-01-05 at 18:37:54

; external perimeters extrusion width = 0.20mm
; perimeters extrusion width = 0.34mm
; infill extrusion width = 0.34mm
; solid infill extrusion width = 0.34mm
; top infill extrusion width = 0.34mm

M107
M104 S200 T1 ; set temperature
G28 ; home all axes


M109 S200 T1 ; wait for temperature to be reached
G21 ; set units to millimeters
G90 ; use absolute coordinates
M82 ; use absolute distances for extrusion
G92 E0
T1
G92 E0
G1 Z0.100 F480.000
G1 X-10.125 Y-0.007 F480.000
G1 X-10.066 Y-1.088 E0.00481 F120.000
G1 X-9.895 Y-2.140 E0.00955
G1 X-9.611 Y-3.180 E0.01434
G1 X-9.218 Y-4.183 E0.01913
G1 X-8.721 Y-5.139 E0.02392
G1 X-8.125 Y-6.037 E0.02871
G1 X-7.344 Y-6.965 E0.03410
G1 X-6.558 Y-7.710 E0.03891
G1 X-5.818 Y-8.282 E0.04307
G1 X-4.904 Y-8.853 E0.04786
G1 X-3.935 Y-9.324 E0.05265
G1 X-2.922 Y-9.689 E0.05743
G1 X-1.875 Y-9.945 E0.06222
G1 X-0.807 Y-10.087 E0.06701
G1 X0.269 Y-10.116 E0.07180
G1 X1.338 Y-10.030 E0.07656
G1 X2.402 Y-9.830 E0.08137
G1 X3.433 Y-9.519 E0.08616
G1 X4.425 Y-9.100 E0.09095
G1 X4.745 Y-8.937 E0.09254
G1 X5.367 Y-8.578 E0.09573
G1 X5.684 Y-8.371 E0.09741
G1 X6.248 Y-7.958 E0.10052
G1 X6.555 Y-7.708 E0.10228
G1 X7.059 Y-7.249 E0.10531
G1 X7.341 Y-6.963 E0.10710
G1 X7.789 Y-6.458 E0.11010
G1 X8.059 Y-6.118 E0.11203
G1 X8.431 Y-5.593 E0.11489
G1 X8.673 Y-5.211 E0.11690
G1 X8.978 Y-4.665 E0.11968
G1 X9.185 Y-4.243 E0.12177
G1 X9.423 Y-3.684 E0.12446
G1 X9.590 Y-3.225 E0.12664
G1 X9.761 Y-2.662 E0.12925
G1 X9.882 Y-2.169 E0.13151
G1 X9.989 Y-1.609 E0.13404
G1 X10.058 Y-1.100 E0.13632
G1 X10.125 Y-0.000 E0.14122
G1 X10.058 Y1.100 E0.14612
G1 X9.989 Y1.609 E0.14840
G1 X9.882 Y2.169 E0.15094
G1 X9.761 Y2.662 E0.15319
G1 X9.590 Y3.225 E0.15581
G1 X9.423 Y3.684 E0.15798
G1 X9.185 Y4.243 E0.16068
G1 X8.978 Y4.665 E0.16277
G1 X8.670 Y5.215 E0.16557
G1 X8.431 Y5.593 E0.16756
G1 X8.059 Y6.118 E0.17042
G1 X7.789 Y6.458 E0.17235
G1 X7.341 Y6.963 E0.17535
G1 X7.059 Y7.249 E0.17713
G1 X6.555 Y7.708 E0.18016
G1 X6.252 Y7.955 E0.18190
G1 X5.683 Y8.371 E0.18503
G1 X5.367 Y8.578 E0.18671
G1 X4.740 Y8.939 E0.18993
G1 X4.425 Y9.100 E0.19150
G1 X3.433 Y9.519 E0.19629
G1 X2.401 Y9.830 E0.20107
G1 X1.343 Y10.030 E0.20586
G1 X0.269 Y10.116 E0.21065
G1 X-0.807 Y10.087 E0.21544
G1 X-1.875 Y9.945 E0.22022
G1 X-2.922 Y9.689 E0.22501
G1 X-3.935 Y9.324 E0.22980
G1 X-4.904 Y8.853 E0.23459
G1 X-5.818 Y8.282 E0.23937
G1 X-6.558 Y7.710 E0.24353
G1 X-7.344 Y6.965 E0.24834
G1 X-8.125 Y6.037 E0.25374
G1 X-8.721 Y5.139 E0.25853
G1 X-9.218 Y4.183 E0.26332
G1 X-9.611 Y3.180 E0.26811
G1 X-9.895 Y2.140 E0.27290
G1 X-10.067 Y1.076 E0.27769
G1 X-10.125 Y-0.007 E0.28250
G92 E0
G1 Z0.200 F480.000
G1 X-10.125 Y-0.000 F480.000
G1 X-10.067 Y-1.076 E0.00479 F120.000
G1 X-9.895 Y-2.140 E0.00958
G1 X-9.611 Y-3.180 E0.01437
G1 X-9.218 Y-4.183 E0.01916
G1 X-8.721 Y-5.139 E0.02395
G1 X-8.125 Y-6.037 E0.02874
G1 X-7.344 Y-6.965 E0.03413
G1 X-6.558 Y-7.710 E0.03894
G1 X-5.818 Y-8.282 E0.04310
G1 X-4.904 Y-8.853 E0.04789
G1 X-3.935 Y-9.324 E0.05268
G1 X-2.922 Y-9.689 E0.05746
G1 X-1.875 Y-9.945 E0.06225
G1 X-0.807 Y-10.087 E0.06704
G1 X0.269 Y-10.116 E0.07183
G1 X1.327 Y-10.031 E0.07654
G1 X2.402 Y-9.830 E0.08140
G1 X3.433 Y-9.519 E0.08619
G1 X3.751 Y-9.398 E0.08770
G1 X4.425 Y-9.099 E0.09098
G1 X4.759 Y-8.929 E0.09265
G1 X5.367 Y-8.578 E0.09576
G1 X5.684 Y-8.371 E0.09744
G1 X6.248 Y-7.958 E0.10055
G1 X6.555 Y-7.708 E0.10232
G1 X7.059 Y-7.249 E0.10534
G1 X7.341 Y-6.963 E0.10713
G1 X7.789 Y-6.458 E0.11013
G1 X8.059 Y-6.118 E0.11206
G1 X8.431 Y-5.593 E0.11492
G1 X8.673 Y-5.211 E0.11693
G1 X8.978 Y-4.665 E0.11971
G1 X9.185 Y-4.243 E0.12180
G1 X9.423 Y-3.684 E0.12449
G1 X9.590 Y-3.225 E0.12667
G1 X9.761 Y-2.662 E0.12928
G1 X9.883 Y-2.169 E0.13154
G1 X9.988 Y-1.609 E0.13407
G1 X10.059 Y-1.084 E0.13643
G1 X10.125 Y-0.000 E0.14125
G1 X10.058 Y1.100 E0.14615
G1 X9.989 Y1.609 E0.14844
G1 X9.882 Y2.169 E0.15097
G1 X9.761 Y2.662 E0.15322
G1 X9.590 Y3.225 E0.15584
G1 X9.423 Y3.684 E0.15801
G1 X9.185 Y4.243 E0.16071
G1 X8.978 Y4.665 E0.16280
G1 X8.673 Y5.211 E0.16558
G1 X8.431 Y5.593 E0.16759
G1 X8.059 Y6.118 E0.17045
G1 X7.789 Y6.458 E0.17238
G1 X7.341 Y6.963 E0.17538
G1 X7.059 Y7.249 E0.17716
G1 X6.555 Y7.708 E0.18019
G1 X6.248 Y7.958 E0.18195
G1 X5.684 Y8.371 E0.18506
G1 X5.367 Y8.577 E0.18674
G1 X4.439 Y9.092 E0.19146
G1 X3.433 Y9.519 E0.19632
G1 X2.401 Y9.830 E0.20110
G1 X1.343 Y10.030 E0.20589
G1 X0.269 Y10.116 E0.21068
G1 X-0.807 Y10.087 E0.21546
G1 X-1.875 Y9.945 E0.22025
G1 X-2.922 Y9.689 E0.22504
G1 X-3.935 Y9.324 E0.22983
G1 X-4.904 Y8.853 E0.23461
G1 X-5.818 Y8.282 E0.23940
G1 X-6.558 Y7.710 E0.24356
G1 X-7.344 Y6.965 E0.24837
G1 X-8.125 Y6.037 E0.25377
G1 X-8.721 Y5.139 E0.25856
G1 X-9.218 Y4.183 E0.26335
G1 X-9.611 Y3.180 E0.26813
G1 X-9.895 Y2.140 E0.27292
G1 X-10.067 Y1.076 E0.27771
G1 X-10.125 Y-0.000 E0.28250
G92 E0
G1 Z0.300 F480.000
G1 X-10.125 Y-0.007 F480.000
G1 X-10.066 Y-1.088 E0.00481 F120.000
G1 X-9.895 Y-2.140 E0.00955
G1 X-9.611 Y-3.180 E0.01434
G1 X-9.218 Y-4.183 E0.01913
G1 X-8.721 Y-5.139 E0.02392
G1 X-8.129 Y-6.039 E0.02871
G1 X-7.344 Y-6.965 E0.03410
G1 X-6.558 Y-7.710 E0.03892
G1 X-5.818 Y-8.282 E0.04307
G1 X-4.904 Y-8.853 E0.04786
G1 X-3.935 Y-9.324 E0.05265
G1 X-2.922 Y-9.689 E0.05744
G1 X-1.875 Y-9.945 E0.06222
G1 X-0.807 Y-10.087 E0.06701
G1 X0.269 Y-10.116 E0.07180
G1 X1.316 Y-10.032 E0.07647
G1 X2.402 Y-9.830 E0.08137
G1 X3.433 Y-9.519 E0.08616
G1 X4.425 Y-9.100 E0.09095
G1 X4.745 Y-8.937 E0.09254
G1 X5.367 Y-8.578 E0.09574
G1 X5.684 Y-8.371 E0.09742
G1 X6.248 Y-7.958 E0.10052
G1 X6.555 Y-7.708 E0.10229
G1 X7.059 Y-7.249 E0.10531
G1 X7.341 Y-6.963 E0.10710
G1 X7.789 Y-6.458 E0.11010
G1 X8.059 Y-6.118 E0.11203
G1 X8.431 Y-5.593 E0.11489
G1 X8.673 Y-5.211 E0.11690
G1 X8.978 Y-4.665 E0.11968
G1 X9.185 Y-4.243 E0.12177
G1 X9.423 Y-3.684 E0.12447
G1 X9.590 Y-3.225 E0.12664
G1 X9.753 Y-2.688 E0.12913
G1 X9.882 Y-2.168 E0.13151
G1 X9.988 Y-1.609 E0.13404
G1 X10.060 Y-1.073 E0.13645
G1 X10.125 Y-0.000 E0.14122
G1 X10.058 Y1.100 E0.14612
G1 X9.989 Y1.609 E0.14841
G1 X9.882 Y2.169 E0.15094
G1 X9.761 Y2.662 E0.15319
G1 X9.590 Y3.225 E0.15581
G1 X9.423 Y3.684 E0.15798
G1 X9.185 Y4.243 E0.16068
G1 X8.978 Y4.665 E0.16277
G1 X8.673 Y5.211 E0.16555
G1 X8.433 Y5.594 E0.16756
G1 X8.109 Y6.054 E0.17006
G1 X7.789 Y6.458 E0.17235
G1 X7.341 Y6.963 E0.17535
G1 X7.059 Y7.249 E0.17714
G1 X6.555 Y7.708 E0.18016
G1 X6.248 Y7.958 E0.18192
G1 X5.684 Y8.371 E0.18503
G1 X5.367 Y8.577 E0.18671
G1 X4.449 Y9.087 E0.19138
G1 X3.751 Y9.397 E0.19477
G1 X3.432 Y9.519 E0.19629
G1 X2.401 Y9.830 E0.20108
G1 X1.343 Y10.030 E0.20586
G1 X0.269 Y10.116 E0.21065
G1 X-0.807 Y10.087 E0.21544
G1 X-1.875 Y9.945 E0.22022
G1 X-2.922 Y9.689 E0.22501
G1 X-3.935 Y9.324 E0.22980
G1 X-4.904 Y8.853 E0.23459
G1 X-5.818 Y8.282 E0.23938
G1 X-6.558 Y7.710 E0.24353
G1 X-7.344 Y6.965 E0.24835
G1 X-8.125 Y6.037 E0.25374
G1 X-8.721 Y5.139 E0.25853
G1 X-9.218 Y4.183 E0.26332
G1 X-9.611 Y3.180 E0.26811
G1 X-9.895 Y2.140 E0.27290
G1 X-10.067 Y1.076 E0.27769
G1 X-10.125 Y-0.007 E0.28251
M106 S173.4
G92 E0
G1 Z0.400 F480.000
G1 X-10.125 Y-0.007 F480.000
G1 X-10.066 Y-1.088 E0.00481 F120.000
G1 X-9.895 Y-2.140 E0.00955
G1 X-9.611 Y-3.180 E0.01434
G1 X-9.218 Y-4.183 E0.01913
G1 X-8.721 Y-5.139 E0.02392
G1 X-8.125 Y-6.037 E0.02871
G1 X-7.344 Y-6.965 E0.03410
G1 X-6.558 Y-7.710 E0.03891
G1 X-5.818 Y-8.282 E0.04307
G1 X-4.903 Y-8.852 E0.04786
G1 X-3.935 Y-9.324 E0.05265
G1 X-2.922 Y-9.689 E0.05743
G1 X-1.875 Y-9.945 E0.06222
G1 X-0.807 Y-10.087 E0.06701
G1 X0.269 Y-10.116 E0.07180
G1 X1.305 Y-10.033 E0.07642
G1 X1.643 Y-9.983 E0.07793
G1 X2.402 Y-9.830 E0.08137
G1 X3.433 Y-9.519 E0.08616
G1 X4.425 Y-9.100 E0.09095
G1 X4.745 Y-8.937 E0.09254
G1 X5.367 Y-8.578 E0.09573
G1 X5.684 Y-8.371 E0.09741
G1 X6.248 Y-7.958 E0.10052
G1 X6.555 Y-7.708 E0.10228
G1 X7.059 Y-7.249 E0.10531
G1 X7.341 Y-6.963 E0.10710
G1 X7.789 Y-6.458 E0.11010
G1 X8.059 Y-6.118 E0.11203
G1 X8.431 Y-5.593 E0.11489
G1 X8.673 Y-5.210 E0.11690
G1 X8.977 Y-4.665 E0.11968
G1 X9.200 Y-4.208 E0.12194
G1 X9.423 Y-3.684 E0.12446
G1 X9.590 Y-3.225 E0.12664
G1 X9.761 Y-2.662 E0.12925
G1 X9.882 Y-2.169 E0.13151
G1 X9.989 Y-1.609 E0.13404
G1 X10.058 Y-1.100 E0.13632
G1 X10.125 Y-0.000 E0.14122
G1 X10.058 Y1.100 E0.14612
G1 X9.989 Y1.609 E0.14840
G1 X9.882 Y2.169 E0.15094
G1 X9.761 Y2.662 E0.15319
G1 X9.590 Y3.225 E0.15581
G1 X9.423 Y3.684 E0.15798
G1 X9.185 Y4.243 E0.16068
G1 X8.977 Y4.665 E0.16277
G1 X8.652 Y5.243 E0.16572
G1 X8.431 Y5.593 E0.16756
G1 X8.059 Y6.118 E0.17042
G1 X7.789 Y6.458 E0.17235
G1 X7.341 Y6.963 E0.17535
G1 X7.059 Y7.249 E0.17713
G1 X6.546 Y7.716 E0.18022
G1 X5.683 Y8.371 E0.18503
G1 X5.367 Y8.578 E0.18671
G1 X4.745 Y8.937 E0.18990
G1 X4.425 Y9.100 E0.19150
G1 X3.433 Y9.519 E0.19628
G1 X2.401 Y9.830 E0.20107
G1 X1.343 Y10.030 E0.20586
G1 X0.269 Y10.116 E0.21065
G1 X-0.807 Y10.087 E0.21543
G1 X-1.875 Y9.945 E0.22022
G1 X-2.922 Y9.689 E0.22501
G1 X-3.935 Y9.324 E0.22980
G1 X-4.904 Y8.853 E0.23458
G1 X-5.818 Y8.282 E0.23937
G1 X-6.558 Y7.710 E0.24353
G1 X-7.344 Y6.965 E0.24834
G1 X-8.125 Y6.037 E0.25374
G1 X-8.721 Y5.139 E0.25853
G1 X-9.218 Y4.183 E0.26331
G1 X-9.611 Y3.180 E0.26810
G1 X-9.895 Y2.140 E0.27289
G1 X-10.067 Y1.076 E0.27768
G1 X-10.125 Y-0.007 E0.28250
G92 E0
G1 Z0.500 F480.000
G1 X-10.066 Y-1.088 E0.00481 F120.000
G1 X-9.895 Y-2.140 E0.00955
G1 X-9.611 Y-3.180 E0.01434
G1 X-9.218 Y-4.183 E0.01913
G1 X-8.742 Y-5.095 E0.02370
G1 X-8.125 Y-6.037 E0.02871
G1 X-7.344 Y-6.965 E0.03410
G1 X-6.558 Y-7.710 E0.03891
G1 X-5.818 Y-8.282 E0.04307
G1 X-4.903 Y-8.851 E0.04786
G1 X-3.935 Y-9.324 E0.05264
G1 X-2.922 Y-9.689 E0.05743
G1 X-1.875 Y-9.945 E0.06222
G1 X-0.807 Y-10.087 E0.06701
G1 X0.269 Y-10.116 E0.07179
G1 X1.295 Y-10.034 E0.07636
G1 X1.643 Y-9.983 E0.07793
G1 X2.402 Y-9.830 E0.08137
G1 X3.433 Y-9.519 E0.08616
G1 X4.425 Y-9.100 E0.09094
G1 X4.745 Y-8.937 E0.09254
G1 X5.367 Y-8.578 E0.09573
G1 X5.684 Y-8.371 E0.09741
G1 X6.248 Y-7.958 E0.10052
G1 X6.555 Y-7.708 E0.10228
G1 X7.059 Y-7.249 E0.10531
G1 X7.338 Y-6.967 E0.10707
G1 X7.789 Y-6.458 E0.11010
G1 X8.059 Y-6.118 E0.11202
G1 X8.431 Y-5.593 E0.11489
G1 X8.673 Y-5.211 E0.11689
G1 X8.978 Y-4.665 E0.11967
G1 X9.185 Y-4.243 E0.12177
G1 X9.423 Y-3.684 E0.12446
G1 X9.590 Y-3.225 E0.12664
G1 X9.761 Y-2.662 E0.12925
G1 X9.882 Y-2.169 E0.13151
G1 X9.989 Y-1.609 E0.13404
G1 X10.058 Y-1.100 E0.13632
G1 X10.125 Y-0.000 E0.14122
G1 X10.058 Y1.100 E0.14612
G1 X9.989 Y1.609 E0.14840
G1 X9.882 Y2.169 E0.15093
G1 X9.761 Y2.662 E0.15319
G1 X9.590 Y3.225 E0.15580
G1 X9.423 Y3.684 E0.15798
G1 X9.185 Y4.243 E0.16068
G1 X8.978 Y4.665 E0.16277
G1 X8.673 Y5.211 E0.16555
G1 X8.431 Y5.593 E0.16756
G1 X8.059 Y6.118 E0.17042
G1 X7.789 Y6.458 E0.17234
G1 X7.341 Y6.963 E0.17534
G1 X7.059 Y7.249 E0.17713
G1 X6.555 Y7.708 E0.18016
G1 X6.248 Y7.958 E0.18192
G1 X5.684 Y8.371 E0.18503
G1 X5.367 Y8.577 E0.18671
G1 X4.425 Y9.100 E0.19150
G1 X3.433 Y9.519 E0.19628
G1 X2.401 Y9.830 E0.20107
G1 X1.343 Y10.030 E0.20586
G1 X0.269 Y10.116 E0.21064
G1 X-0.807 Y10.087 E0.21543
G1 X-1.875 Y9.945 E0.22022
G1 X-2.922 Y9.689 E0.22501
G1 X-3.935 Y9.324 E0.22979
G1 X-4.904 Y8.853 E0.23458
G1 X-5.818 Y8.282 E0.23937
G1 X-6.558 Y7.710 E0.24353
G1 X-7.344 Y6.965 E0.24834
G1 X-8.125 Y6.037 E0.25374
G1 X-8.721 Y5.139 E0.25852
G1 X-9.218 Y4.183 E0.26331
G1 X-9.611 Y3.180 E0.26810
G1 X-9.895 Y2.140 E0.27289
G1 X-10.067 Y1.076 E0.27768
G1 X-10.125 Y-0.007 E0.28250
G92 E0
G1 Z0.600 F480.000
G1 X-10.125 Y-0.000 F480.000
G1 X-10.067 Y-1.076 E0.00479 F120.000
G1 X-9.895 Y-2.140 E0.00958
G1 X-9.611 Y-3.180 E0.01437
G1 X-9.218 Y-4.183 E0.01916
G1 X-8.719 Y-5.138 E0.02395
G1 X-8.125 Y-6.037 E0.02873
G1 X-7.344 Y-6.965 E0.03413
G1 X-6.558 Y-7.710 E0.03894
G1 X-5.818 Y-8.282 E0.04310
G1 X-4.904 Y-8.853 E0.04789
G1 X-3.935 Y-9.324 E0.05268
G1 X-2.922 Y-9.689 E0.05746
G1 X-1.875 Y-9.945 E0.06225
G1 X-0.807 Y-10.087 E0.06704
G1 X0.269 Y-10.116 E0.07183
G1 X1.284 Y-10.035 E0.07635
G1 X1.643 Y-9.983 E0.07796
G1 X2.402 Y-9.830 E0.08140
G1 X3.433 Y-9.519 E0.08619
G1 X4.425 Y-9.100 E0.09098
G1 X4.745 Y-8.937 E0.09257
G1 X5.367 Y-8.578 E0.09576
G1 X5.684 Y-8.371 E0.09744
G1 X6.248 Y-7.958 E0.10055
G1 X6.555 Y-7.708 E0.10231
G1 X7.059 Y-7.249 E0.10534
G1 X7.341 Y-6.963 E0.10713
G1 X7.789 Y-6.458 E0.11013
G1 X8.059 Y-6.118 E0.11206
G1 X8.431 Y-5.593 E0.11492
G1 X8.673 Y-5.210 E0.11693
G1 X8.976 Y-4.664 E0.11970
G1 X9.209 Y-4.188 E0.12206
G1 X9.423 Y-3.684 E0.12449
G1 X9.590 Y-3.225 E0.12667
G1 X9.761 Y-2.662 E0.12928
G1 X9.882 Y-2.169 E0.13154
G1 X9.989 Y-1.609 E0.13407
G1 X10.058 Y-1.100 E0.13635
G1 X10.125 Y-0.000 E0.14125
G1 X10.058 Y1.100 E0.14615
G1 X9.989 Y1.609 E0.14843
G1 X9.882 Y2.169 E0.15096
G1 X9.761 Y2.662 E0.15322
G1 X9.590 Y3.225 E0.15584
G1 X9.423 Y3.684 E0.15801
G1 X9.185 Y4.243 E0.16071
G1 X8.977 Y4.665 E0.16280
G1 X8.641 Y5.262 E0.16584
G1 X8.431 Y5.593 E0.16759
G1 X8.059 Y6.118 E0.17045
G1 X7.789 Y6.458 E0.17237
G1 X7.341 Y6.963 E0.17537
G1 X7.059 Y7.249 E0.17716
G1 X6.555 Y7.708 E0.18019
G1 X6.248 Y7.958 E0.18195
G1 X5.684 Y8.371 E0.18506
G1 X5.366 Y8.577 E0.18674
G1 X4.478 Y9.073 E0.19126
G1 X3.751 Y9.397 E0.19480
G1 X3.432 Y9.519 E0.19632
G1 X2.401 Y9.830 E0.20110
G1 X1.343 Y10.030 E0.20589
G1 X0.269 Y10.116 E0.21068
G1 X-0.807 Y10.087 E0.21546
G1 X-1.875 Y9.945 E0.22025
G1 X-2.922 Y9.689 E0.22504
G1 X-3.935 Y9.324 E0.22983
G1 X-4.904 Y8.853 E0.23461
G1 X-5.818 Y8.282 E0.23940
G1 X-6.558 Y7.710 E0.24356
G1 X-7.344 Y6.965 E0.24837
G1 X-8.125 Y6.037 E0.25377
G1 X-8.721 Y5.139 E0.25856
G1 X-9.218 Y4.183 E0.26334
G1 X-9.611 Y3.180 E0.26813
G1 X-9.895 Y2.140 E0.27292
G1 X-10.067 Y1.076 E0.27771
G1 X-10.125 Y-0.000 E0.28250
G92 E0
G1 Z0.700 F480.000
G1 X-10.125 Y-0.000 F480.000
G1 X-10.067 Y-1.076 E0.00479 F120.000
G1 X-9.895 Y-2.140 E0.00958
G1 X-9.611 Y-3.180 E0.01437
G1 X-9.218 Y-4.183 E0.01916
G1 X-8.718 Y-5.137 E0.02395
G1 X-8.125 Y-6.037 E0.02873
G1 X-7.344 Y-6.965 E0.03413
G1 X-6.558 Y-7.710 E0.03894
G1 X-5.818 Y-8.282 E0.04310
G1 X-4.903 Y-8.852 E0.04789
G1 X-3.935 Y-9.324 E0.05267
G1 X-2.922 Y-9.689 E0.05746
G1 X-1.875 Y-9.945 E0.06225
G1 X-0.807 Y-10.087 E0.06704
G1 X0.269 Y-10.116 E0.07183
G1 X1.273 Y-10.036 E0.07630
G1 X1.643 Y-9.982 E0.07796
G1 X2.402 Y-9.830 E0.08140
G1 X3.433 Y-9.519 E0.08619
G1 X4.425 Y-9.100 E0.09097
G1 X4.745 Y-8.937 E0.09257
G1 X5.367 Y-8.578 E0.09576
G1 X5.684 Y-8.371 E0.09744
G1 X6.248 Y-7.958 E0.10055
G1 X6.555 Y-7.708 E0.10231
G1 X7.059 Y-7.249 E0.10534
G1 X7.341 Y-6.963 E0.10713
G1 X7.789 Y-6.458 E0.11013
G1 X8.059 Y-6.118 E0.11205
G1 X8.431 Y-5.593 E0.11492
G1 X8.673 Y-5.211 E0.11693
G1 X8.978 Y-4.665 E0.11970
G1 X9.186 Y-4.242 E0.12180
G1 X9.421 Y-3.684 E0.12449
G1 X9.611 Y-3.157 E0.12698
G1 X9.761 Y-2.662 E0.12928
G1 X9.882 Y-2.169 E0.13154
G1 X9.989 Y-1.609 E0.13407
G1 X10.058 Y-1.100 E0.13635
G1 X10.125 Y-0.000 E0.14125
G1 X10.058 Y1.100 E0.14615
G1 X9.989 Y1.609 E0.14843
G1 X9.882 Y2.169 E0.15096
G1 X9.761 Y2.662 E0.15322
G1 X9.590 Y3.225 E0.15583
G1 X9.423 Y3.684 E0.15801
G1 X9.185 Y4.243 E0.16070
G1 X8.978 Y4.665 E0.16280
G1 X8.673 Y5.211 E0.16558
G1 X8.431 Y5.593 E0.16759
G1 X8.059 Y6.118 E0.17045
G1 X7.789 Y6.458 E0.17237
G1 X7.341 Y6.963 E0.17537
G1 X7.059 Y7.249 E0.17716
G1 X6.546 Y7.716 E0.18024
G1 X5.683 Y8.370 E0.18506
G1 X5.367 Y8.578 E0.18674
G1 X4.745 Y8.937 E0.18993
G1 X4.425 Y9.100 E0.19152
G1 X3.433 Y9.519 E0.19631
G1 X2.401 Y9.830 E0.20110
G1 X1.343 Y10.030 E0.20589
G1 X0.269 Y10.116 E0.21067
G1 X-0.807 Y10.087 E0.21546
G1 X-1.875 Y9.945 E0.22025
G1 X-2.922 Y9.689 E0.22504
G1 X-3.935 Y9.324 E0.22982
G1 X-4.904 Y8.853 E0.23461
G1 X-5.818 Y8.282 E0.23940
G1 X-6.558 Y7.710 E0.24356
G1 X-7.344 Y6.965 E0.24837
G1 X-8.062 Y6.120 E0.25330
G1 X-8.670 Y5.224 E0.25811
G1 X-9.219 Y4.180 E0.26335
G1 X-9.611 Y3.180 E0.26813
G1 X-9.895 Y2.140 E0.27292
G1 X-10.066 Y1.088 E0.27766
G1 X-10.125 Y-0.000 E0.28250
G92 E0
G1 Z0.800 F480.000
G1 X-10.125 Y-0.007 F480.000
G1 X-10.066 Y-1.088 E0.00481 F120.000
G1 X-9.895 Y-2.140 E0.00955
G1 X-9.611 Y-3.180 E0.01434
G1 X-9.218 Y-4.183 E0.01913
G1 X-8.721 Y-5.139 E0.02392
G1 X-8.125 Y-6.037 E0.02871
G1 X-7.344 Y-6.965 E0.03410
G1 X-6.558 Y-7.710 E0.03891
