; generated by Slic3r 1.2.9 on 2016-01-04 at 19:26:34

; external perimeters extrusion width = 0.20mm
; perimeters extrusion width = 0.21mm
; infill extrusion width = 0.21mm
; solid infill extrusion width = 0.21mm
; top infill extrusion width = 0.21mm

; external perimeters extrusion width = 0.20mm
; perimeters extrusion width = 0.21mm
; infill extrusion width = 0.21mm
; solid infill extrusion width = 0.21mm
; top infill extrusion width = 0.21mm

M107
G1 Z45
G1 E10.1
G28 X Y
G21
G1 X56 Y90 F1000


G21 ; set units to millimeters
G90 ; use absolute coordinates
M82 ; use absolute distances for extrusion
T0 ; ensure we keep T0 active to prevent changing pressure
M400 ; wait for commands to complete
G1 E24 F1000.0 ; move extruder to midpoint
M400 ; wait for commands to complete
G91
G1 X0 F1800.0 ; move over by x offset
G90
M400 ; wait for commands to complete
G1 Z0.2 F480.000

G1 X44.106 Y89.995 F480.000

G1 X44.11 Y89.694 F240.000

G1 E38.5 ; Move extruder to E0 position of 38.5
M400 ; wait for commands to complete
M42 P16 S255 ; turn extruder 0 on
G1 X44.204 Y88.473
G1 X44.423 Y87.268
G1 X44.765 Y86.092
G1 X45.227 Y84.957
G1 X45.802 Y83.876
G1 X46.485 Y82.86
G1 X47.269 Y81.919
G1 X48.146 Y81.064
G1 X49.107 Y80.304
G1 X50.14 Y79.646
G1 X51.235 Y79.098
G1 X52.381 Y78.665
G1 X53.566 Y78.353
G1 X54.776 Y78.164
G1 X56.0 Y78.1
G1 X57.224 Y78.164
G1 X58.434 Y78.353
G1 X59.619 Y78.665
G1 X60.765 Y79.098
G1 X61.86 Y79.646
G1 X62.893 Y80.304
G1 X63.854 Y81.064
G1 X64.731 Y81.919
G1 X65.515 Y82.86
G1 X66.198 Y83.876
G1 X66.773 Y84.957
G1 X67.235 Y86.092
G1 X67.577 Y87.268
G1 X67.796 Y88.473
G1 X67.89 Y89.694
G1 X67.894 Y89.995
G1 X67.858 Y90.918
G1 X67.701 Y92.132
G1 X67.632 Y92.478
G1 X67.419 Y93.324
G1 X67.31 Y93.68
G1 X67.017 Y94.48
G1 X66.863 Y94.842
G1 X66.498 Y95.589
G1 X66.297 Y95.951
G1 X65.867 Y96.639
G1 X65.619 Y96.994
G1 X65.132 Y97.618
G1 X64.835 Y97.961
G1 X64.3 Y98.517
G1 X63.954 Y98.841
G1 X63.38 Y99.325
G1 X62.986 Y99.624
G1 X62.382 Y100.034
G1 X61.942 Y100.301
G1 X61.317 Y100.637
G1 X60.833 Y100.866
G1 X60.195 Y101.127
G1 X59.67 Y101.312
G1 X59.029 Y101.5
G1 X58.468 Y101.633
G1 X57.83 Y101.75
G1 X57.248 Y101.826
G1 X56.0 Y101.9
G1 X54.752 Y101.826
G1 X54.17 Y101.75
G1 X53.532 Y101.633
G1 X52.971 Y101.5
G1 X52.33 Y101.311
G1 X51.805 Y101.127
G1 X51.167 Y100.866
G1 X50.683 Y100.637
G1 X50.058 Y100.301
G1 X49.618 Y100.034
G1 X49.014 Y99.624
G1 X48.62 Y99.325
G1 X48.046 Y98.841
G1 X47.7 Y98.517
G1 X47.165 Y97.961
G1 X46.868 Y97.618
G1 X46.381 Y96.994
G1 X46.133 Y96.639
G1 X45.703 Y95.951
G1 X45.502 Y95.589
G1 X45.137 Y94.842
G1 X44.983 Y94.48
G1 X44.69 Y93.68
G1 X44.581 Y93.324
G1 X44.368 Y92.478
G1 X44.299 Y92.132
G1 X44.142 Y90.918
G1 X44.106 Y89.995
M400 ; wait for commands to complete
M42 P16 S0 ; turn extruder 0 off
G1 E24
G1 Z0.4 F480.000

T0 ; ensure we keep T0 active to prevent changing pressure
M400 ; wait for commands to complete
G1 E24 F1000.0 ; move extruder to midpoint
M400 ; wait for commands to complete
G91
G1 X0 F1800.0 ; move over by x offset
G90
M400 ; wait for commands to complete
G1 X92.44 Y89.694 F240.000

G1 E10.1 ; Move extruder to E1 position of 10.1
M400 ; wait for commands to complete
M42 P17 S255 ; turn extruder 1 on
G1 X92.534 Y88.473
G1 X92.753 Y87.268
G1 X93.095 Y86.092
G1 X93.557 Y84.957
G1 X94.132 Y83.876
G1 X94.815 Y82.86
G1 X95.599 Y81.919
G1 X96.476 Y81.064
G1 X97.437 Y80.304
G1 X98.47 Y79.646
G1 X99.565 Y79.098
G1 X100.711 Y78.665
G1 X101.896 Y78.353
G1 X103.106 Y78.164
G1 X104.33 Y78.1
G1 X105.554 Y78.164
G1 X106.764 Y78.353
G1 X107.949 Y78.665
G1 X109.095 Y79.098
G1 X110.19 Y79.646
G1 X111.223 Y80.304
G1 X112.184 Y81.064
G1 X113.061 Y81.919
G1 X113.845 Y82.86
G1 X114.528 Y83.876
G1 X115.103 Y84.957
G1 X115.565 Y86.092
G1 X115.907 Y87.268
G1 X116.126 Y88.473
G1 X116.22 Y89.694
G1 X116.224 Y89.995
G1 X116.188 Y90.918
G1 X116.031 Y92.132
G1 X115.962 Y92.478
G1 X115.749 Y93.324
G1 X115.64 Y93.68
G1 X115.347 Y94.48
G1 X115.193 Y94.842
G1 X114.828 Y95.589
G1 X114.627 Y95.951
G1 X114.197 Y96.639
G1 X113.949 Y96.994
G1 X113.462 Y97.618
G1 X113.165 Y97.961
G1 X112.63 Y98.517
G1 X112.284 Y98.841
G1 X111.71 Y99.325
G1 X111.316 Y99.624
G1 X110.712 Y100.034
G1 X110.272 Y100.301
G1 X109.647 Y100.637
G1 X109.163 Y100.866
G1 X108.525 Y101.127
G1 X108.0 Y101.312
G1 X107.359 Y101.5
G1 X106.798 Y101.633
G1 X106.16 Y101.75
G1 X105.578 Y101.826
G1 X104.33 Y101.9
G1 X103.082 Y101.826
G1 X102.5 Y101.75
G1 X101.862 Y101.633
G1 X101.301 Y101.5
G1 X100.66 Y101.311
G1 X100.135 Y101.127
G1 X99.497 Y100.866
G1 X99.013 Y100.637
G1 X98.388 Y100.301
G1 X97.948 Y100.034
G1 X97.344 Y99.624
G1 X96.95 Y99.325
G1 X96.376 Y98.841
G1 X96.03 Y98.517
G1 X95.495 Y97.961
G1 X95.198 Y97.618
G1 X94.711 Y96.994
G1 X94.463 Y96.639
G1 X94.033 Y95.951
G1 X93.832 Y95.589
G1 X93.467 Y94.842
G1 X93.313 Y94.48
G1 X93.02 Y93.68
G1 X92.911 Y93.324
G1 X92.698 Y92.478
G1 X92.629 Y92.132
G1 X92.472 Y90.918
G1 X92.436 Y89.995
M400 ; wait for commands to complete
M42 P17 S0 ; turn extruder 1 off
G1 E24
G1 Z0.6 F480.000

T0 ; ensure we keep T0 active to prevent changing pressure
M400 ; wait for commands to complete
G1 E24 F1000.0 ; move extruder to midpoint
M400 ; wait for commands to complete
G91
G1 X0 F1800.0 ; move over by x offset
G90
M400 ; wait for commands to complete
G1 X44.11 Y89.694 F240.000

G1 E38.5 ; Move extruder to E0 position of 38.5
M400 ; wait for commands to complete
M42 P16 S255 ; turn extruder 0 on
G1 X44.204 Y88.473
G1 X44.423 Y87.268
G1 X44.765 Y86.092
G1 X45.227 Y84.957
G1 X45.802 Y83.876
G1 X46.485 Y82.86
G1 X47.269 Y81.919
G1 X48.146 Y81.064
G1 X49.107 Y80.304
G1 X50.14 Y79.646
G1 X51.235 Y79.098
G1 X52.381 Y78.665
G1 X53.566 Y78.353
G1 X54.776 Y78.164
G1 X56.0 Y78.1
G1 X57.224 Y78.164
G1 X58.434 Y78.353
G1 X59.619 Y78.665
G1 X60.765 Y79.098
G1 X61.86 Y79.646
G1 X62.893 Y80.304
G1 X63.854 Y81.064
G1 X64.731 Y81.919
G1 X65.515 Y82.86
G1 X66.198 Y83.876
G1 X66.773 Y84.957
G1 X67.235 Y86.092
G1 X67.577 Y87.268
G1 X67.796 Y88.473
G1 X67.89 Y89.694
G1 X67.894 Y89.995
G1 X67.858 Y90.918
G1 X67.701 Y92.132
G1 X67.632 Y92.478
G1 X67.419 Y93.324
G1 X67.31 Y93.68
G1 X67.017 Y94.48
G1 X66.863 Y94.842
G1 X66.498 Y95.589
G1 X66.297 Y95.951
G1 X65.867 Y96.639
G1 X65.619 Y96.994
G1 X65.132 Y97.618
G1 X64.835 Y97.961
G1 X64.3 Y98.517
G1 X63.954 Y98.841
G1 X63.38 Y99.325
G1 X62.986 Y99.624
G1 X62.382 Y100.034
G1 X61.942 Y100.301
G1 X61.317 Y100.637
G1 X60.833 Y100.866
G1 X60.195 Y101.127
G1 X59.67 Y101.312
G1 X59.029 Y101.5
G1 X58.468 Y101.633
G1 X57.83 Y101.75
G1 X57.248 Y101.826
G1 X56.0 Y101.9
G1 X54.752 Y101.826
G1 X54.17 Y101.75
G1 X53.532 Y101.633
G1 X52.971 Y101.5
G1 X52.33 Y101.311
G1 X51.805 Y101.127
G1 X51.167 Y100.866
G1 X50.683 Y100.637
G1 X50.058 Y100.301
G1 X49.618 Y100.034
G1 X49.014 Y99.624
G1 X48.62 Y99.325
G1 X48.046 Y98.841
G1 X47.7 Y98.517
G1 X47.165 Y97.961
G1 X46.868 Y97.618
G1 X46.381 Y96.994
G1 X46.133 Y96.639
G1 X45.703 Y95.951
G1 X45.502 Y95.589
G1 X45.137 Y94.842
G1 X44.983 Y94.48
G1 X44.69 Y93.68
G1 X44.581 Y93.324
G1 X44.368 Y92.478
G1 X44.299 Y92.132
G1 X44.142 Y90.918
G1 X44.106 Y89.995
M106 S211.65
M400 ; wait for commands to complete
M42 P16 S0 ; turn extruder 0 off
G1 E24
G1 Z0.8 F480.000

T0 ; ensure we keep T0 active to prevent changing pressure
M400 ; wait for commands to complete
G1 E24 F1000.0 ; move extruder to midpoint
M400 ; wait for commands to complete
G91
G1 X0 F1800.0 ; move over by x offset
G90
M400 ; wait for commands to complete
G1 X92.44 Y89.694 F240.000

G1 E10.1 ; Move extruder to E1 position of 10.1
M400 ; wait for commands to complete
M42 P17 S255 ; turn extruder 1 on
G1 X92.534 Y88.473
G1 X92.753 Y87.268
G1 X93.095 Y86.092
G1 X93.557 Y84.957
G1 X94.132 Y83.876
G1 X94.815 Y82.86
G1 X95.599 Y81.919
G1 X96.476 Y81.064
G1 X97.437 Y80.304
G1 X98.47 Y79.646
G1 X99.565 Y79.098
G1 X100.711 Y78.665
G1 X101.896 Y78.353
G1 X103.106 Y78.164
G1 X104.33 Y78.1
G1 X105.554 Y78.164
G1 X106.764 Y78.353
G1 X107.949 Y78.665
G1 X109.095 Y79.098
G1 X110.19 Y79.646
G1 X111.223 Y80.304
G1 X112.184 Y81.064
G1 X113.061 Y81.919
G1 X113.845 Y82.86
G1 X114.528 Y83.876
G1 X115.103 Y84.957
G1 X115.565 Y86.092
G1 X115.907 Y87.268
G1 X116.126 Y88.473
G1 X116.22 Y89.694
G1 X116.224 Y89.995
G1 X116.188 Y90.918
G1 X116.031 Y92.132
G1 X115.962 Y92.478
G1 X115.749 Y93.324
G1 X115.64 Y93.68
G1 X115.347 Y94.48
G1 X115.193 Y94.842
G1 X114.828 Y95.589
G1 X114.627 Y95.951
G1 X114.197 Y96.639
G1 X113.949 Y96.994
G1 X113.462 Y97.618
G1 X113.165 Y97.961
G1 X112.63 Y98.517
G1 X112.284 Y98.841
G1 X111.71 Y99.325
G1 X111.316 Y99.624
G1 X110.712 Y100.034
G1 X110.272 Y100.301
G1 X109.647 Y100.637
G1 X109.163 Y100.866
G1 X108.525 Y101.127
G1 X108.0 Y101.312
G1 X107.359 Y101.5
G1 X106.798 Y101.633
G1 X106.16 Y101.75
G1 X105.578 Y101.826
G1 X104.33 Y101.9
G1 X103.082 Y101.826
G1 X102.5 Y101.75
G1 X101.862 Y101.633
G1 X101.301 Y101.5
G1 X100.66 Y101.311
G1 X100.135 Y101.127
G1 X99.497 Y100.866
G1 X99.013 Y100.637
G1 X98.388 Y100.301
G1 X97.948 Y100.034
G1 X97.344 Y99.624
G1 X96.95 Y99.325
G1 X96.376 Y98.841
G1 X96.03 Y98.517
G1 X95.495 Y97.961
G1 X95.198 Y97.618
G1 X94.711 Y96.994
G1 X94.463 Y96.639
G1 X94.033 Y95.951
G1 X93.832 Y95.589
G1 X93.467 Y94.842
G1 X93.313 Y94.48
G1 X93.02 Y93.68
G1 X92.911 Y93.324
G1 X92.698 Y92.478
G1 X92.629 Y92.132
G1 X92.472 Y90.918
G1 X92.436 Y89.995
M400 ; wait for commands to complete
M42 P17 S0 ; turn extruder 1 off
G1 E24
G1 Z1.0 F480.000

T0 ; ensure we keep T0 active to prevent changing pressure
M400 ; wait for commands to complete
G1 E24 F1000.0 ; move extruder to midpoint
M400 ; wait for commands to complete
G91
G1 X0 F1800.0 ; move over by x offset
G90
M400 ; wait for commands to complete
G1 X44.11 Y89.694 F240.000

G1 E38.5 ; Move extruder to E0 position of 38.5
M400 ; wait for commands to complete
M42 P16 S255 ; turn extruder 0 on
G1 X44.204 Y88.473
G1 X44.423 Y87.268
G1 X44.765 Y86.092
G1 X45.227 Y84.957
G1 X45.802 Y83.876
G1 X46.485 Y82.86
G1 X47.269 Y81.919
G1 X48.146 Y81.064
G1 X49.107 Y80.304
G1 X50.14 Y79.646
G1 X51.235 Y79.098
G1 X52.381 Y78.665
G1 X53.566 Y78.353
G1 X54.776 Y78.164
G1 X56.0 Y78.1
G1 X57.224 Y78.164
G1 X58.434 Y78.353
G1 X59.619 Y78.665
G1 X60.765 Y79.098
G1 X61.86 Y79.646
G1 X62.893 Y80.304
G1 X63.854 Y81.064
G1 X64.731 Y81.919
G1 X65.515 Y82.86
G1 X66.198 Y83.876
G1 X66.773 Y84.957
G1 X67.235 Y86.092
G1 X67.577 Y87.268
G1 X67.796 Y88.473
G1 X67.89 Y89.694
G1 X67.894 Y89.995
G1 X67.858 Y90.918
G1 X67.701 Y92.132
G1 X67.632 Y92.478
G1 X67.419 Y93.324
G1 X67.31 Y93.68
G1 X67.017 Y94.48
G1 X66.863 Y94.842
G1 X66.498 Y95.589
G1 X66.297 Y95.951
G1 X65.867 Y96.639
G1 X65.619 Y96.994
G1 X65.132 Y97.618
G1 X64.835 Y97.961
G1 X64.3 Y98.517
G1 X63.954 Y98.841
G1 X63.38 Y99.325
G1 X62.986 Y99.624
G1 X62.382 Y100.034
G1 X61.942 Y100.301
G1 X61.317 Y100.637
G1 X60.833 Y100.866
G1 X60.195 Y101.127
G1 X59.67 Y101.312
G1 X59.029 Y101.5
G1 X58.468 Y101.633
G1 X57.83 Y101.75
G1 X57.248 Y101.826
G1 X56.0 Y101.9
G1 X54.752 Y101.826
G1 X54.17 Y101.75
G1 X53.532 Y101.633
G1 X52.971 Y101.5
G1 X52.33 Y101.311
G1 X51.805 Y101.127
G1 X51.167 Y100.866
G1 X50.683 Y100.637
G1 X50.058 Y100.301
G1 X49.618 Y100.034
G1 X49.014 Y99.624
G1 X48.62 Y99.325
G1 X48.046 Y98.841
G1 X47.7 Y98.517
G1 X47.165 Y97.961
G1 X46.868 Y97.618
G1 X46.381 Y96.994
G1 X46.133 Y96.639
G1 X45.703 Y95.951
G1 X45.502 Y95.589
G1 X45.137 Y94.842
G1 X44.983 Y94.48
G1 X44.69 Y93.68
G1 X44.581 Y93.324
G1 X44.368 Y92.478
G1 X44.299 Y92.132
G1 X44.142 Y90.918
G1 X44.106 Y89.995
M400 ; wait for commands to complete
M42 P16 S0 ; turn extruder 0 off
G1 E24
G1 Z1.2 F480.000

T0 ; ensure we keep T0 active to prevent changing pressure
M400 ; wait for commands to complete
G1 E24 F1000.0 ; move extruder to midpoint
M400 ; wait for commands to complete
G91
G1 X0 F1800.0 ; move over by x offset
G90
M400 ; wait for commands to complete
G1 X92.44 Y89.694 F240.000

G1 E10.1 ; Move extruder to E1 position of 10.1
M400 ; wait for commands to complete
M42 P17 S255 ; turn extruder 1 on
G1 X92.534 Y88.473
G1 X92.753 Y87.268
G1 X93.095 Y86.092
G1 X93.557 Y84.957
G1 X94.132 Y83.876
G1 X94.815 Y82.86
G1 X95.599 Y81.919
G1 X96.476 Y81.064
G1 X97.437 Y80.304
G1 X98.47 Y79.646
G1 X99.565 Y79.098
G1 X100.711 Y78.665
G1 X101.896 Y78.353
G1 X103.106 Y78.164
G1 X104.33 Y78.1
G1 X105.554 Y78.164
G1 X106.764 Y78.353
G1 X107.949 Y78.665
G1 X109.095 Y79.098
G1 X110.19 Y79.646
G1 X111.223 Y80.304
G1 X112.184 Y81.064
G1 X113.061 Y81.919
G1 X113.845 Y82.86
G1 X114.528 Y83.876
G1 X115.103 Y84.957
G1 X115.565 Y86.092
G1 X115.907 Y87.268
G1 X116.126 Y88.473
G1 X116.22 Y89.694
G1 X116.224 Y89.995
G1 X116.188 Y90.918
G1 X116.031 Y92.132
G1 X115.962 Y92.478
G1 X115.749 Y93.324
G1 X115.64 Y93.68
G1 X115.347 Y94.48
G1 X115.193 Y94.842
G1 X114.828 Y95.589
G1 X114.627 Y95.951
G1 X114.197 Y96.639
G1 X113.949 Y96.994
G1 X113.462 Y97.618
G1 X113.165 Y97.961
G1 X112.63 Y98.517
G1 X112.284 Y98.841
G1 X111.71 Y99.325
G1 X111.316 Y99.624
G1 X110.712 Y100.034
G1 X110.272 Y100.301
G1 X109.647 Y100.637
G1 X109.163 Y100.866
G1 X108.525 Y101.127
G1 X108.0 Y101.312
G1 X107.359 Y101.5
G1 X106.798 Y101.633
G1 X106.16 Y101.75
G1 X105.578 Y101.826
G1 X104.33 Y101.9
G1 X103.082 Y101.826
G1 X102.5 Y101.75
G1 X101.862 Y101.633
G1 X101.301 Y101.5
G1 X100.66 Y101.311
G1 X100.135 Y101.127
G1 X99.497 Y100.866
G1 X99.013 Y100.637
G1 X98.388 Y100.301
G1 X97.948 Y100.034
G1 X97.344 Y99.624
G1 X96.95 Y99.325
G1 X96.376 Y98.841
G1 X96.03 Y98.517
G1 X95.495 Y97.961
G1 X95.198 Y97.618
G1 X94.711 Y96.994
G1 X94.463 Y96.639
G1 X94.033 Y95.951
G1 X93.832 Y95.589
G1 X93.467 Y94.842
G1 X93.313 Y94.48
G1 X93.02 Y93.68
G1 X92.911 Y93.324
G1 X92.698 Y92.478
G1 X92.629 Y92.132
G1 X92.472 Y90.918
G1 X92.436 Y89.995
M400 ; wait for commands to complete
M42 P17 S0 ; turn extruder 1 off
G1 E24
G1 Z1.4 F480.000

T0 ; ensure we keep T0 active to prevent changing pressure
M400 ; wait for commands to complete
G1 E24 F1000.0 ; move extruder to midpoint
M400 ; wait for commands to complete
G91
G1 X0 F1800.0 ; move over by x offset
G90
M400 ; wait for commands to complete
G1 X44.11 Y89.694 F240.000

G1 E38.5 ; Move extruder to E0 position of 38.5
M400 ; wait for commands to complete
M42 P16 S255 ; turn extruder 0 on
G1 X44.204 Y88.473
G1 X44.423 Y87.268
G1 X44.765 Y86.092
G1 X45.227 Y84.957
G1 X45.802 Y83.876
G1 X46.485 Y82.86
G1 X47.269 Y81.919
G1 X48.146 Y81.064
G1 X49.107 Y80.304
G1 X50.14 Y79.646
G1 X51.235 Y79.098
G1 X52.381 Y78.665
G1 X53.566 Y78.353
G1 X54.776 Y78.164
G1 X56.0 Y78.1
G1 X57.224 Y78.164
G1 X58.434 Y78.353
G1 X59.619 Y78.665
G1 X60.765 Y79.098
G1 X61.86 Y79.646
G1 X62.893 Y80.304
G1 X63.854 Y81.064
G1 X64.731 Y81.919
G1 X65.515 Y82.86
G1 X66.198 Y83.876
G1 X66.773 Y84.957
G1 X67.235 Y86.092
G1 X67.577 Y87.268
G1 X67.796 Y88.473
G1 X67.89 Y89.694
G1 X67.894 Y89.995
G1 X67.858 Y90.918
G1 X67.701 Y92.132
G1 X67.632 Y92.478
G1 X67.419 Y93.324
G1 X67.31 Y93.68
G1 X67.017 Y94.48
G1 X66.863 Y94.842
G1 X66.498 Y95.589
G1 X66.297 Y95.951
G1 X65.867 Y96.639
G1 X65.619 Y96.994
G1 X65.132 Y97.618
G1 X64.835 Y97.961
G1 X64.3 Y98.517
G1 X63.954 Y98.841
G1 X63.38 Y99.325
G1 X62.986 Y99.624
G1 X62.382 Y100.034
G1 X61.942 Y100.301
G1 X61.317 Y100.637
G1 X60.833 Y100.866
G1 X60.195 Y101.127
G1 X59.67 Y101.312
G1 X59.029 Y101.5
G1 X58.468 Y101.633
G1 X57.83 Y101.75
G1 X57.248 Y101.826
G1 X56.0 Y101.9
G1 X54.752 Y101.826
G1 X54.17 Y101.75
G1 X53.532 Y101.633
G1 X52.971 Y101.5
G1 X52.33 Y101.311
G1 X51.805 Y101.127
G1 X51.167 Y100.866
G1 X50.683 Y100.637
G1 X50.058 Y100.301
G1 X49.618 Y100.034
G1 X49.014 Y99.624
G1 X48.62 Y99.325
G1 X48.046 Y98.841
G1 X47.7 Y98.517
G1 X47.165 Y97.961
G1 X46.868 Y97.618
G1 X46.381 Y96.994
G1 X46.133 Y96.639
G1 X45.703 Y95.951
G1 X45.502 Y95.589
G1 X45.137 Y94.842
G1 X44.983 Y94.48
G1 X44.69 Y93.68
G1 X44.581 Y93.324
G1 X44.368 Y92.478
G1 X44.299 Y92.132
G1 X44.142 Y90.918
G1 X44.106 Y89.995
M400 ; wait for commands to complete
M42 P16 S0 ; turn extruder 0 off
G1 E24
G1 Z1.6 F480.000

T0 ; ensure we keep T0 active to prevent changing pressure
M400 ; wait for commands to complete
G1 E24 F1000.0 ; move extruder to midpoint
M400 ; wait for commands to complete
G91
