; generated by Slic3r 1.2.9 on 2016-01-05 at 15:37:43

; external perimeters extrusion width = 0.20mm
; perimeters extrusion width = 0.21mm
; infill extrusion width = 0.21mm
; solid infill extrusion width = 0.21mm
; top infill extrusion width = 0.21mm

M107
M104 S200 T1 ; set temperature
G28 ; home all axes


M109 S200 T1 ; wait for temperature to be reached
G21 ; set units to millimeters
G90 ; use absolute coordinates
M82 ; use absolute distances for extrusion
G92 E0
T1
G92 E0
G1 Z0.200 F480.000
G1 X-10.125 Y-0.007 F480.000
G1 X-10.066 Y-1.088 E0.00512 F120.000
G1 X-9.895 Y-2.140 E0.01016
G1 X-9.611 Y-3.180 E0.01525
G1 X-9.218 Y-4.183 E0.02035
G1 X-8.721 Y-5.139 E0.02544
G1 X-8.125 Y-6.037 E0.03053
G1 X-7.344 Y-6.965 E0.03627
G1 X-6.558 Y-7.710 E0.04139
G1 X-5.818 Y-8.282 E0.04581
G1 X-4.904 Y-8.853 E0.05091
G1 X-3.935 Y-9.324 E0.05600
G1 X-2.922 Y-9.689 E0.06109
G1 X-1.875 Y-9.945 E0.06618
G1 X-0.807 Y-10.087 E0.07128
G1 X0.269 Y-10.116 E0.07637
G1 X1.332 Y-10.031 E0.08141
G1 X2.402 Y-9.830 E0.08655
G1 X3.433 Y-9.519 E0.09164
G1 X4.425 Y-9.100 E0.09674
G1 X4.745 Y-8.937 E0.09843
G1 X5.367 Y-8.578 E0.10183
G1 X5.684 Y-8.371 E0.10362
G1 X6.248 Y-7.958 E0.10692
G1 X6.555 Y-7.708 E0.10880
G1 X7.059 Y-7.249 E0.11201
G1 X7.341 Y-6.963 E0.11392
G1 X7.789 Y-6.458 E0.11711
G1 X8.059 Y-6.118 E0.11916
G1 X8.431 Y-5.593 E0.12220
G1 X8.673 Y-5.211 E0.12434
G1 X8.978 Y-4.665 E0.12729
G1 X9.185 Y-4.243 E0.12952
G1 X9.423 Y-3.684 E0.13239
G1 X9.590 Y-3.225 E0.13470
G1 X9.761 Y-2.662 E0.13748
G1 X9.882 Y-2.169 E0.13988
G1 X9.989 Y-1.609 E0.14257
G1 X10.058 Y-1.100 E0.14500
G1 X10.125 Y-0.000 E0.15021
G1 X10.058 Y1.100 E0.15542
G1 X9.989 Y1.609 E0.15785
G1 X9.882 Y2.169 E0.16054
G1 X9.761 Y2.662 E0.16295
G1 X9.590 Y3.225 E0.16573
G1 X9.423 Y3.684 E0.16804
G1 X9.185 Y4.243 E0.17091
G1 X8.978 Y4.665 E0.17313
G1 X8.673 Y5.211 E0.17609
G1 X8.431 Y5.593 E0.17822
G1 X8.059 Y6.118 E0.18127
G1 X7.789 Y6.458 E0.18332
G1 X7.341 Y6.963 E0.18651
G1 X7.059 Y7.249 E0.18841
G1 X6.555 Y7.708 E0.19163
G1 X6.257 Y7.952 E0.19345
G1 X5.683 Y8.371 E0.19681
G1 X5.367 Y8.578 E0.19860
G1 X4.745 Y8.937 E0.20199
G1 X4.425 Y9.100 E0.20369
G1 X3.433 Y9.519 E0.20878
G1 X2.401 Y9.830 E0.21387
G1 X1.343 Y10.030 E0.21897
G1 X0.269 Y10.116 E0.22406
G1 X-0.807 Y10.087 E0.22915
G1 X-1.875 Y9.945 E0.23424
G1 X-2.922 Y9.689 E0.23933
G1 X-3.935 Y9.324 E0.24443
G1 X-4.904 Y8.853 E0.24952
G1 X-5.818 Y8.282 E0.25461
G1 X-6.558 Y7.710 E0.25904
G1 X-7.344 Y6.965 E0.26415
G1 X-8.125 Y6.037 E0.26989
G1 X-8.721 Y5.139 E0.27499
G1 X-9.218 Y4.183 E0.28008
G1 X-9.611 Y3.180 E0.28517
G1 X-9.895 Y2.140 E0.29027
G1 X-10.067 Y1.076 E0.29536
G1 X-10.125 Y-0.007 E0.30049
G92 E0
G1 Z0.400 F480.000
G1 X-10.125 Y-0.000 F480.000
G1 X-10.067 Y-1.076 E0.00509 F120.000
G1 X-9.895 Y-2.140 E0.01019
G1 X-9.611 Y-3.180 E0.01528
G1 X-9.218 Y-4.183 E0.02038
G1 X-8.721 Y-5.139 E0.02547
G1 X-8.125 Y-6.037 E0.03057
G1 X-7.344 Y-6.965 E0.03630
G1 X-6.558 Y-7.710 E0.04142
G1 X-5.818 Y-8.282 E0.04584
G1 X-4.904 Y-8.853 E0.05094
G1 X-3.935 Y-9.324 E0.05603
G1 X-2.922 Y-9.689 E0.06112
G1 X-1.875 Y-9.945 E0.06622
G1 X-0.807 Y-10.087 E0.07131
G1 X0.269 Y-10.116 E0.07640
G1 X1.311 Y-10.033 E0.08134
G1 X2.402 Y-9.830 E0.08658
G1 X3.433 Y-9.519 E0.09168
G1 X3.752 Y-9.397 E0.09329
G1 X4.424 Y-9.099 E0.09677
G1 X4.773 Y-8.921 E0.09862
G1 X5.367 Y-8.578 E0.10186
G1 X5.684 Y-8.371 E0.10365
G1 X6.248 Y-7.958 E0.10695
G1 X6.555 Y-7.708 E0.10883
G1 X7.059 Y-7.249 E0.11205
G1 X7.341 Y-6.963 E0.11395
G1 X7.789 Y-6.458 E0.11714
G1 X8.059 Y-6.118 E0.11919
G1 X8.431 Y-5.593 E0.12223
G1 X8.673 Y-5.211 E0.12437
G1 X8.978 Y-4.665 E0.12733
G1 X9.185 Y-4.242 E0.12955
G1 X9.422 Y-3.684 E0.13242
G1 X9.600 Y-3.193 E0.13489
G1 X9.761 Y-2.662 E0.13751
G1 X9.882 Y-2.169 E0.13991
G1 X9.989 Y-1.609 E0.14261
G1 X10.058 Y-1.100 E0.14503
G1 X10.125 Y-0.000 E0.15025
G1 X10.058 Y1.100 E0.15546
G1 X9.989 Y1.609 E0.15788
G1 X9.882 Y2.169 E0.16058
G1 X9.761 Y2.662 E0.16298
G1 X9.590 Y3.225 E0.16576
G1 X9.423 Y3.684 E0.16807
G1 X9.185 Y4.243 E0.17094
G1 X8.978 Y4.665 E0.17316
G1 X8.673 Y5.211 E0.17612
G1 X8.431 Y5.593 E0.17826
G1 X8.059 Y6.118 E0.18130
G1 X7.789 Y6.458 E0.18335
G1 X7.341 Y6.963 E0.18654
G1 X7.059 Y7.249 E0.18844
G1 X6.546 Y7.716 E0.19172
G1 X5.683 Y8.371 E0.19684
G1 X5.366 Y8.577 E0.19863
G1 X4.425 Y9.100 E0.20372
G1 X3.433 Y9.519 E0.20881
G1 X2.401 Y9.830 E0.21390
G1 X1.343 Y10.030 E0.21899
G1 X0.269 Y10.116 E0.22409
G1 X-0.807 Y10.087 E0.22918
G1 X-1.875 Y9.945 E0.23427
G1 X-2.922 Y9.689 E0.23936
G1 X-3.935 Y9.324 E0.24446
G1 X-4.904 Y8.853 E0.24955
G1 X-5.818 Y8.282 E0.25464
G1 X-6.558 Y7.710 E0.25906
G1 X-7.344 Y6.965 E0.26418
G1 X-8.125 Y6.037 E0.26992
G1 X-8.721 Y5.139 E0.27501
G1 X-9.218 Y4.183 E0.28011
G1 X-9.611 Y3.180 E0.28520
G1 X-9.895 Y2.140 E0.29030
G1 X-10.067 Y1.076 E0.29539
G1 X-10.125 Y-0.000 E0.30049
G92 E0
G1 Z0.600 F480.000
G1 X-10.125 Y-0.007 F480.000
G1 X-10.066 Y-1.088 E0.00512 F120.000
G1 X-9.895 Y-2.140 E0.01016
G1 X-9.611 Y-3.180 E0.01525
G1 X-9.218 Y-4.183 E0.02035
G1 X-8.721 Y-5.139 E0.02544
G1 X-8.125 Y-6.037 E0.03053
G1 X-7.344 Y-6.965 E0.03627
G1 X-6.558 Y-7.710 E0.04139
G1 X-5.818 Y-8.282 E0.04581
G1 X-4.904 Y-8.853 E0.05091
G1 X-3.935 Y-9.324 E0.05600
G1 X-2.922 Y-9.689 E0.06109
G1 X-1.875 Y-9.945 E0.06618
G1 X-0.807 Y-10.087 E0.07128
G1 X0.269 Y-10.116 E0.07637
G1 X1.289 Y-10.035 E0.08120
G1 X1.635 Y-9.984 E0.08286
G1 X2.402 Y-9.830 E0.08655
G1 X3.433 Y-9.519 E0.09164
G1 X3.752 Y-9.397 E0.09326
G1 X4.424 Y-9.098 E0.09674
G1 X4.792 Y-8.910 E0.09869
G1 X5.367 Y-8.578 E0.10183
G1 X5.684 Y-8.371 E0.10362
G1 X6.248 Y-7.958 E0.10692
G1 X6.555 Y-7.708 E0.10880
G1 X7.059 Y-7.249 E0.11202
G1 X7.341 Y-6.963 E0.11392
G1 X7.789 Y-6.458 E0.11711
G1 X8.059 Y-6.118 E0.11916
G1 X8.431 Y-5.593 E0.12220
G1 X8.673 Y-5.211 E0.12434
G1 X8.978 Y-4.665 E0.12730
G1 X9.185 Y-4.243 E0.12952
G1 X9.423 Y-3.684 E0.13239
G1 X9.590 Y-3.225 E0.13470
G1 X9.761 Y-2.662 E0.13748
G1 X9.883 Y-2.168 E0.13989
G1 X9.987 Y-1.609 E0.14257
G1 X10.062 Y-1.046 E0.14526
G1 X10.125 Y-0.000 E0.15021
G1 X10.058 Y1.100 E0.15543
G1 X9.989 Y1.609 E0.15785
G1 X9.882 Y2.169 E0.16055
G1 X9.761 Y2.662 E0.16295
G1 X9.590 Y3.225 E0.16573
G1 X9.423 Y3.684 E0.16804
G1 X9.185 Y4.243 E0.17091
G1 X8.978 Y4.665 E0.17313
G1 X8.673 Y5.211 E0.17609
G1 X8.431 Y5.593 E0.17823
G1 X8.059 Y6.118 E0.18127
G1 X7.789 Y6.458 E0.18332
G1 X7.341 Y6.963 E0.18651
G1 X7.059 Y7.249 E0.18841
G1 X6.555 Y7.708 E0.19163
G1 X6.248 Y7.958 E0.19351
G1 X5.684 Y8.371 E0.19681
G1 X5.367 Y8.578 E0.19860
G1 X4.473 Y9.075 E0.20343
G1 X3.751 Y9.397 E0.20717
G1 X3.432 Y9.519 E0.20878
G1 X2.401 Y9.830 E0.21387
G1 X1.343 Y10.030 E0.21897
G1 X0.269 Y10.116 E0.22406
G1 X-0.807 Y10.087 E0.22915
G1 X-1.875 Y9.945 E0.23424
G1 X-2.922 Y9.690 E0.23934
G1 X-3.935 Y9.324 E0.24443
G1 X-4.904 Y8.853 E0.24952
G1 X-5.818 Y8.282 E0.25461
G1 X-6.558 Y7.710 E0.25904
G1 X-7.344 Y6.965 E0.26416
G1 X-8.125 Y6.037 E0.26989
G1 X-8.721 Y5.139 E0.27499
G1 X-9.218 Y4.183 E0.28008
G1 X-9.611 Y3.180 E0.28518
G1 X-9.895 Y2.140 E0.29027
G1 X-10.067 Y1.076 E0.29536
G1 X-10.125 Y-0.007 E0.30049
M106 S173.4
G92 E0
G1 Z0.800 F480.000
G1 X-10.125 Y-0.000 F480.000
G1 X-10.067 Y-1.076 E0.00509 F120.000
G1 X-9.895 Y-2.140 E0.01019
G1 X-9.611 Y-3.180 E0.01528
G1 X-9.218 Y-4.183 E0.02038
G1 X-8.721 Y-5.139 E0.02547
G1 X-8.125 Y-6.037 E0.03057
G1 X-7.344 Y-6.965 E0.03630
G1 X-6.558 Y-7.710 E0.04142
G1 X-5.818 Y-8.282 E0.04584
G1 X-4.903 Y-8.851 E0.05094
G1 X-3.935 Y-9.324 E0.05603
G1 X-2.922 Y-9.689 E0.06112
G1 X-1.875 Y-9.945 E0.06621
G1 X-0.807 Y-10.087 E0.07131
G1 X0.269 Y-10.116 E0.07640
G1 X1.268 Y-10.037 E0.08113
G1 X1.644 Y-9.982 E0.08293
G1 X2.401 Y-9.827 E0.08658
G1 X3.433 Y-9.519 E0.09167
G1 X4.425 Y-9.100 E0.09677
G1 X5.367 Y-8.578 E0.10186
G1 X5.664 Y-8.386 E0.10353
G1 X6.248 Y-7.958 E0.10695
G1 X6.555 Y-7.708 E0.10882
G1 X7.059 Y-7.249 E0.11204
G1 X7.341 Y-6.963 E0.11395
G1 X7.789 Y-6.458 E0.11714
G1 X8.059 Y-6.118 E0.11919
G1 X8.431 Y-5.593 E0.12223
G1 X8.673 Y-5.211 E0.12437
G1 X8.978 Y-4.665 E0.12732
G1 X9.185 Y-4.243 E0.12955
G1 X9.423 Y-3.684 E0.13242
G1 X9.590 Y-3.225 E0.13473
G1 X9.761 Y-2.662 E0.13751
G1 X9.883 Y-2.168 E0.13991
G1 X9.987 Y-1.609 E0.14260
G1 X10.064 Y-1.024 E0.14539
G1 X10.125 Y-0.000 E0.15024
G1 X10.058 Y1.100 E0.15545
G1 X9.989 Y1.609 E0.15788
G1 X9.882 Y2.169 E0.16057
G1 X9.761 Y2.662 E0.16297
G1 X9.590 Y3.225 E0.16575
G1 X9.423 Y3.684 E0.16807
G1 X9.185 Y4.243 E0.17093
G1 X8.978 Y4.665 E0.17316
G1 X8.673 Y5.211 E0.17611
G1 X8.431 Y5.593 E0.17825
G1 X8.059 Y6.118 E0.18130
G1 X7.789 Y6.458 E0.18335
G1 X7.341 Y6.963 E0.18654
G1 X7.059 Y7.249 E0.18844
G1 X6.555 Y7.708 E0.19166
G1 X6.248 Y7.958 E0.19353
G1 X5.684 Y8.371 E0.19684
G1 X5.366 Y8.577 E0.19863
G1 X4.425 Y9.100 E0.20372
G1 X3.433 Y9.519 E0.20881
G1 X2.401 Y9.830 E0.21390
G1 X1.343 Y10.030 E0.21899
G1 X0.269 Y10.116 E0.22408
G1 X-0.807 Y10.087 E0.22918
G1 X-1.875 Y9.945 E0.23427
G1 X-2.922 Y9.689 E0.23936
G1 X-3.753 Y9.399 E0.24352
G1 X-4.813 Y8.903 E0.24906
G1 X-5.685 Y8.374 E0.25388
G1 X-6.558 Y7.710 E0.25906
G1 X-7.344 Y6.965 E0.26418
G1 X-8.125 Y6.037 E0.26992
G1 X-8.721 Y5.139 E0.27501
G1 X-9.218 Y4.183 E0.28011
G1 X-9.611 Y3.180 E0.28520
G1 X-9.889 Y2.169 E0.29015
G1 X-10.064 Y1.076 E0.29539
G1 X-10.125 Y-0.000 E0.30048
G92 E0
G1 Z1.000 F480.000
G1 X-10.125 Y-0.000 F480.000
G1 X-10.067 Y-1.076 E0.00509 F120.000
G1 X-9.895 Y-2.140 E0.01019
G1 X-9.611 Y-3.180 E0.01528
G1 X-9.218 Y-4.183 E0.02038
G1 X-8.721 Y-5.139 E0.02547
G1 X-8.125 Y-6.037 E0.03057
G1 X-7.344 Y-6.965 E0.03630
G1 X-6.558 Y-7.710 E0.04142
G1 X-5.818 Y-8.282 E0.04584
G1 X-4.904 Y-8.853 E0.05094
G1 X-3.935 Y-9.324 E0.05603
G1 X-2.922 Y-9.689 E0.06112
G1 X-1.875 Y-9.945 E0.06622
G1 X-0.807 Y-10.087 E0.07131
G1 X0.269 Y-10.116 E0.07640
G1 X1.246 Y-10.039 E0.08103
G1 X1.643 Y-9.981 E0.08293
G1 X2.402 Y-9.830 E0.08659
G1 X3.433 Y-9.519 E0.09168
G1 X4.425 Y-9.100 E0.09677
G1 X4.745 Y-8.937 E0.09847
G1 X5.367 Y-8.578 E0.10186
G1 X5.684 Y-8.371 E0.10365
G1 X6.248 Y-7.958 E0.10695
G1 X6.555 Y-7.708 E0.10883
G1 X7.059 Y-7.249 E0.11205
G1 X7.341 Y-6.963 E0.11395
G1 X7.789 Y-6.458 E0.11714
G1 X8.059 Y-6.118 E0.11919
G1 X8.431 Y-5.593 E0.12223
G1 X8.673 Y-5.210 E0.12437
G1 X8.976 Y-4.664 E0.12733
G1 X9.210 Y-4.184 E0.12985
G1 X9.423 Y-3.684 E0.13242
G1 X9.590 Y-3.225 E0.13473
G1 X9.761 Y-2.662 E0.13751
G1 X9.882 Y-2.169 E0.13991
G1 X9.989 Y-1.609 E0.14260
G1 X10.058 Y-1.100 E0.14503
G1 X10.125 Y-0.000 E0.15024
G1 X10.058 Y1.100 E0.15546
G1 X9.989 Y1.609 E0.15788
G1 X9.882 Y2.169 E0.16058
G1 X9.761 Y2.662 E0.16298
G1 X9.590 Y3.225 E0.16576
G1 X9.423 Y3.684 E0.16807
G1 X9.185 Y4.243 E0.17094
G1 X8.978 Y4.665 E0.17316
G1 X8.673 Y5.211 E0.17612
G1 X8.431 Y5.593 E0.17826
G1 X8.059 Y6.118 E0.18130
G1 X7.789 Y6.458 E0.18335
G1 X7.341 Y6.963 E0.18654
G1 X7.059 Y7.249 E0.18844
G1 X6.555 Y7.708 E0.19166
G1 X6.248 Y7.958 E0.19354
G1 X5.684 Y8.371 E0.19684
G1 X5.367 Y8.578 E0.19863
G1 X4.745 Y8.937 E0.20202
G1 X4.425 Y9.100 E0.20372
G1 X3.433 Y9.519 E0.20881
G1 X2.401 Y9.830 E0.21391
G1 X1.343 Y10.030 E0.21900
G1 X0.269 Y10.116 E0.22409
G1 X-0.807 Y10.087 E0.22918
G1 X-1.875 Y9.945 E0.23427
G1 X-2.922 Y9.689 E0.23937
G1 X-3.935 Y9.324 E0.24446
G1 X-4.904 Y8.853 E0.24955
G1 X-5.818 Y8.282 E0.25464
G1 X-6.558 Y7.710 E0.25907
G1 X-7.344 Y6.965 E0.26419
G1 X-8.125 Y6.037 E0.26992
G1 X-8.721 Y5.139 E0.27502
G1 X-9.218 Y4.183 E0.28011
G1 X-9.611 Y3.180 E0.28521
G1 X-9.895 Y2.140 E0.29030
G1 X-10.067 Y1.076 E0.29539
G1 X-10.125 Y-0.000 E0.30049
G92 E0
G1 Z1.200 F480.000
G1 X-10.125 Y-0.000 F480.000
G1 X-10.067 Y-1.076 E0.00509 F120.000
G1 X-9.895 Y-2.140 E0.01019
G1 X-9.611 Y-3.180 E0.01528
G1 X-9.218 Y-4.183 E0.02038
G1 X-8.717 Y-5.136 E0.02547
G1 X-8.125 Y-6.037 E0.03056
G1 X-7.344 Y-6.965 E0.03630
G1 X-6.558 Y-7.710 E0.04142
G1 X-5.818 Y-8.282 E0.04584
G1 X-4.904 Y-8.853 E0.05094
G1 X-3.935 Y-9.324 E0.05603
G1 X-2.922 Y-9.689 E0.06112
G1 X-1.875 Y-9.945 E0.06621
G1 X-0.807 Y-10.087 E0.07131
G1 X0.269 Y-10.116 E0.07640
G1 X1.224 Y-10.041 E0.08093
G1 X1.643 Y-9.981 E0.08292
G1 X2.402 Y-9.830 E0.08658
G1 X3.433 Y-9.519 E0.09167
G1 X4.425 Y-9.100 E0.09676
G1 X4.745 Y-8.937 E0.09846
G1 X5.367 Y-8.578 E0.10186
G1 X5.684 Y-8.371 E0.10364
G1 X6.248 Y-7.958 E0.10695
G1 X6.555 Y-7.708 E0.10883
G1 X7.059 Y-7.249 E0.11204
G1 X7.341 Y-6.963 E0.11395
G1 X7.789 Y-6.458 E0.11714
G1 X8.059 Y-6.118 E0.11919
G1 X8.431 Y-5.593 E0.12223
G1 X8.673 Y-5.211 E0.12437
G1 X8.978 Y-4.665 E0.12732
G1 X9.185 Y-4.243 E0.12955
G1 X9.423 Y-3.684 E0.13242
G1 X9.590 Y-3.225 E0.13473
G1 X9.761 Y-2.662 E0.13751
G1 X9.882 Y-2.169 E0.13991
G1 X9.989 Y-1.609 E0.14260
G1 X10.058 Y-1.100 E0.14503
G1 X10.125 Y-0.000 E0.15024
G1 X10.058 Y1.100 E0.15545
G1 X9.989 Y1.609 E0.15788
G1 X9.882 Y2.169 E0.16057
G1 X9.761 Y2.662 E0.16298
G1 X9.590 Y3.225 E0.16575
G1 X9.423 Y3.684 E0.16807
G1 X9.185 Y4.243 E0.17094
G1 X8.978 Y4.665 E0.17316
G1 X8.673 Y5.211 E0.17612
G1 X8.431 Y5.593 E0.17825
G1 X8.059 Y6.118 E0.18130
G1 X7.789 Y6.458 E0.18335
G1 X7.341 Y6.963 E0.18654
G1 X7.059 Y7.249 E0.18844
G1 X6.555 Y7.708 E0.19166
G1 X6.248 Y7.958 E0.19353
G1 X5.684 Y8.371 E0.19684
G1 X5.366 Y8.576 E0.19863
G1 X4.425 Y9.100 E0.20372
G1 X3.433 Y9.519 E0.20881
G1 X2.401 Y9.830 E0.21390
G1 X1.343 Y10.030 E0.21899
G1 X0.269 Y10.116 E0.22409
G1 X-0.807 Y10.087 E0.22918
G1 X-1.875 Y9.945 E0.23427
G1 X-2.922 Y9.689 E0.23936
G1 X-3.935 Y9.324 E0.24445
G1 X-4.904 Y8.853 E0.24955
G1 X-5.818 Y8.282 E0.25464
G1 X-6.558 Y7.710 E0.25906
G1 X-7.344 Y6.965 E0.26418
G1 X-8.062 Y6.120 E0.26943
G1 X-8.670 Y5.224 E0.27454
G1 X-9.237 Y4.135 E0.28035
G1 X-9.611 Y3.180 E0.28520
G1 X-9.895 Y2.140 E0.29029
G1 X-10.067 Y1.076 E0.29539
G1 X-10.125 Y-0.000 E0.30048
G92 E0
G1 Z1.400 F480.000
G1 X-10.125 Y-0.000 F480.000
G1 X-10.067 Y-1.076 E0.00509 F120.000
G1 X-9.895 Y-2.140 E0.01019
G1 X-9.611 Y-3.180 E0.01528
G1 X-9.218 Y-4.183 E0.02038
G1 X-8.721 Y-5.139 E0.02547
G1 X-8.125 Y-6.037 E0.03057
G1 X-7.344 Y-6.965 E0.03630
G1 X-6.558 Y-7.710 E0.04142
G1 X-5.818 Y-8.282 E0.04584
G1 X-4.904 Y-8.853 E0.05094
G1 X-3.935 Y-9.324 E0.05603
G1 X-2.922 Y-9.689 E0.06112
G1 X-1.875 Y-9.945 E0.06622
G1 X-0.807 Y-10.087 E0.07131
G1 X0.269 Y-10.116 E0.07640
G1 X1.343 Y-10.030 E0.08149
G1 X2.401 Y-9.830 E0.08658
G1 X3.433 Y-9.519 E0.09168
G1 X4.425 Y-9.100 E0.09677
G1 X4.745 Y-8.937 E0.09847
G1 X5.367 Y-8.578 E0.10186
G1 X5.684 Y-8.371 E0.10365
G1 X6.248 Y-7.958 E0.10695
G1 X6.555 Y-7.708 E0.10883
G1 X7.059 Y-7.249 E0.11205
G1 X7.341 Y-6.963 E0.11395
G1 X7.789 Y-6.458 E0.11714
G1 X8.059 Y-6.118 E0.11919
G1 X8.431 Y-5.593 E0.12223
G1 X8.673 Y-5.211 E0.12437
G1 X8.978 Y-4.665 E0.12733
G1 X9.185 Y-4.243 E0.12955
G1 X9.423 Y-3.684 E0.13242
G1 X9.590 Y-3.225 E0.13473
G1 X9.761 Y-2.662 E0.13751
G1 X9.882 Y-2.169 E0.13991
G1 X9.989 Y-1.609 E0.14261
G1 X10.058 Y-1.100 E0.14503
G1 X10.125 Y-0.000 E0.15025
G1 X10.058 Y1.100 E0.15546
G1 X9.989 Y1.609 E0.15788
G1 X9.882 Y2.169 E0.16058
G1 X9.761 Y2.662 E0.16298
G1 X9.590 Y3.225 E0.16576
G1 X9.423 Y3.684 E0.16807
G1 X9.185 Y4.243 E0.17094
G1 X8.978 Y4.665 E0.17316
G1 X8.673 Y5.211 E0.17612
G1 X8.431 Y5.593 E0.17826
G1 X8.059 Y6.118 E0.18130
G1 X7.789 Y6.458 E0.18335
G1 X7.341 Y6.963 E0.18654
G1 X7.059 Y7.249 E0.18844
G1 X6.555 Y7.708 E0.19166
G1 X6.248 Y7.958 E0.19354
G1 X5.684 Y8.371 E0.19684
G1 X5.367 Y8.578 E0.19863
G1 X4.745 Y8.937 E0.20202
G1 X4.425 Y9.100 E0.20372
G1 X3.433 Y9.519 E0.20881
G1 X2.401 Y9.830 E0.21391
G1 X1.343 Y10.030 E0.21900
G1 X0.269 Y10.116 E0.22409
G1 X-0.807 Y10.087 E0.22918
G1 X-1.875 Y9.945 E0.23427
G1 X-2.922 Y9.689 E0.23937
G1 X-3.935 Y9.324 E0.24446
G1 X-4.904 Y8.853 E0.24955
G1 X-5.818 Y8.282 E0.25465
G1 X-6.558 Y7.710 E0.25907
G1 X-7.344 Y6.965 E0.26419
G1 X-8.125 Y6.037 E0.26993
G1 X-8.721 Y5.139 E0.27502
G1 X-9.218 Y4.183 E0.28011
G1 X-9.611 Y3.180 E0.28521
G1 X-9.895 Y2.140 E0.29030
G1 X-10.067 Y1.076 E0.29540
G1 X-10.125 Y-0.000 E0.30049
G92 E0
G1 Z1.600 F480.000
G1 X-10.125 Y-0.007 F480.000
G1 X-10.066 Y-1.088 E0.00512 F120.000
G1 X-9.895 Y-2.140 E0.01016
G1 X-9.611 Y-3.180 E0.01525
G1 X-9.218 Y-4.183 E0.02035
G1 X-8.721 Y-5.139 E0.02544
G1 X-8.125 Y-6.037 E0.03053
G1 X-7.344 Y-6.965 E0.03627
