; generated by Slic3r 1.2.9 on 2016-01-04 at 20:54:36

; external perimeters extrusion width = 0.20mm
; perimeters extrusion width = 0.21mm
; infill extrusion width = 0.21mm
; solid infill extrusion width = 0.21mm
; top infill extrusion width = 0.21mm

; external perimeters extrusion width = 0.20mm
; perimeters extrusion width = 0.21mm
; infill extrusion width = 0.21mm
; solid infill extrusion width = 0.21mm
; top infill extrusion width = 0.21mm

M107
G1 Z45
G1 E10.0
G28 X Y
G21
G1 X56 Y90 F1000


G21 ; set units to millimeters
G90 ; use absolute coordinates
M82 ; use absolute distances for extrusion
T0 ; ensure we keep T0 active to prevent changing pressure
M400 ; wait for commands to complete
G1 E24 F1000.0 ; move extruder to midpoint
M400 ; wait for commands to complete
G91
G1 X0 F1800.0 ; move over by x offset
G90
M400 ; wait for commands to complete
G1 Z0.2 F480.000

G1 X50.103 Y89.995 F480.000

G1 X50.152 Y89.243 F240.000

G1 E38.0 ; Move extruder to E0 position of 38.0
M400 ; wait for commands to complete
M42 P16 S255 ; turn extruder 0 on
M400 ; wait for commands to complete
G1 X50.26 Y88.645
G1 X50.43 Y88.062
G1 X50.659 Y87.5
G1 X50.944 Y86.964
G1 X51.283 Y86.46
G1 X51.671 Y85.994
G1 X52.106 Y85.57
G1 X52.582 Y85.192
G1 X53.095 Y84.866
G1 X53.638 Y84.595
G1 X54.206 Y84.38
G1 X54.793 Y84.225
G1 X55.389 Y84.132
G1 X56.0 Y84.1
G1 X56.607 Y84.132
G1 X57.207 Y84.225
G1 X57.794 Y84.38
G1 X58.362 Y84.595
G1 X58.905 Y84.866
G1 X59.418 Y85.192
G1 X59.894 Y85.57
G1 X60.329 Y85.994
G1 X60.717 Y86.46
G1 X61.056 Y86.964
G1 X61.341 Y87.5
G1 X61.57 Y88.062
G1 X61.74 Y88.645
G1 X61.848 Y89.243
G1 X61.897 Y89.995
G1 X61.879 Y90.455
G1 X61.801 Y91.057
G1 X61.662 Y91.648
G1 X61.462 Y92.221
G1 X61.205 Y92.771
G1 X60.892 Y93.292
G1 X60.528 Y93.777
G1 X60.115 Y94.223
G1 X59.659 Y94.623
G1 X59.164 Y94.975
G1 X58.636 Y95.274
G1 X58.08 Y95.517
G1 X57.502 Y95.702
G1 X56.907 Y95.826
G1 X56.304 Y95.888
G1 X55.995 Y95.896
G1 X55.696 Y95.888
G1 X55.093 Y95.826
G1 X54.498 Y95.702
G1 X53.92 Y95.517
G1 X53.364 Y95.274
G1 X52.836 Y94.975
G1 X52.341 Y94.623
G1 X51.885 Y94.223
G1 X51.472 Y93.777
G1 X51.108 Y93.292
G1 X50.795 Y92.771
G1 X50.538 Y92.221
G1 X50.338 Y91.648
G1 X50.199 Y91.057
G1 X50.121 Y90.455
G1 X50.103 Y89.995
M400 ; wait for commands to complete
M42 P16 S0 ; turn extruder 0 off
G1 E24
G1 Z0.4 F480.000

T0 ; ensure we keep T0 active to prevent changing pressure
M400 ; wait for commands to complete
G1 E24 F1000.0 ; move extruder to midpoint
M400 ; wait for commands to complete
G91
G1 X0 F1800.0 ; move over by x offset
G90
M400 ; wait for commands to complete
G1 X98.482 Y89.243 F240.000

G1 E10.0 ; Move extruder to E1 position of 10.0
M400 ; wait for commands to complete
M42 P17 S255 ; turn extruder 1 on
M400 ; wait for commands to complete
G1 X98.59 Y88.645
G1 X98.76 Y88.062
G1 X98.989 Y87.5
G1 X99.274 Y86.964
G1 X99.613 Y86.46
G1 X100.001 Y85.994
G1 X100.436 Y85.57
G1 X100.912 Y85.192
G1 X101.425 Y84.866
G1 X101.968 Y84.595
G1 X102.536 Y84.38
G1 X103.123 Y84.225
G1 X103.719 Y84.132
G1 X104.33 Y84.1
G1 X104.937 Y84.132
G1 X105.537 Y84.225
G1 X106.124 Y84.38
G1 X106.692 Y84.595
G1 X107.235 Y84.866
G1 X107.748 Y85.192
G1 X108.224 Y85.57
G1 X108.659 Y85.994
G1 X109.047 Y86.46
G1 X109.386 Y86.964
G1 X109.671 Y87.5
G1 X109.9 Y88.062
G1 X110.07 Y88.645
G1 X110.178 Y89.243
G1 X110.227 Y89.995
G1 X110.209 Y90.455
G1 X110.131 Y91.057
G1 X109.992 Y91.648
G1 X109.792 Y92.221
G1 X109.535 Y92.771
G1 X109.222 Y93.292
G1 X108.858 Y93.777
G1 X108.445 Y94.223
G1 X107.989 Y94.623
G1 X107.494 Y94.975
G1 X106.966 Y95.274
G1 X106.41 Y95.517
G1 X105.832 Y95.702
G1 X105.237 Y95.826
G1 X104.634 Y95.888
G1 X104.325 Y95.896
G1 X104.026 Y95.888
G1 X103.423 Y95.826
G1 X102.828 Y95.702
G1 X102.25 Y95.517
G1 X101.694 Y95.274
G1 X101.166 Y94.975
G1 X100.671 Y94.623
G1 X100.215 Y94.223
G1 X99.802 Y93.777
G1 X99.438 Y93.292
G1 X99.125 Y92.771
G1 X98.868 Y92.221
G1 X98.668 Y91.648
G1 X98.529 Y91.057
G1 X98.451 Y90.455
G1 X98.433 Y89.995
M400 ; wait for commands to complete
M42 P17 S0 ; turn extruder 1 off
G1 E24
G1 Z0.6 F480.000

T0 ; ensure we keep T0 active to prevent changing pressure
M400 ; wait for commands to complete
G1 E24 F1000.0 ; move extruder to midpoint
M400 ; wait for commands to complete
G91
G1 X0 F1800.0 ; move over by x offset
G90
M400 ; wait for commands to complete
G1 X50.152 Y89.243 F240.000

G1 E38.0 ; Move extruder to E0 position of 38.0
M400 ; wait for commands to complete
M42 P16 S255 ; turn extruder 0 on
M400 ; wait for commands to complete
G1 X50.26 Y88.645
G1 X50.43 Y88.062
G1 X50.659 Y87.5
G1 X50.944 Y86.964
G1 X51.283 Y86.46
G1 X51.671 Y85.994
G1 X52.106 Y85.57
G1 X52.582 Y85.192
G1 X53.095 Y84.866
G1 X53.638 Y84.595
G1 X54.206 Y84.38
G1 X54.793 Y84.225
G1 X55.389 Y84.132
G1 X56.0 Y84.1
G1 X56.607 Y84.132
G1 X57.207 Y84.225
G1 X57.794 Y84.38
G1 X58.362 Y84.595
G1 X58.905 Y84.866
G1 X59.418 Y85.192
G1 X59.894 Y85.57
G1 X60.329 Y85.994
G1 X60.717 Y86.46
G1 X61.056 Y86.964
G1 X61.341 Y87.5
G1 X61.57 Y88.062
G1 X61.74 Y88.645
G1 X61.848 Y89.243
G1 X61.897 Y89.995
G1 X61.879 Y90.455
G1 X61.801 Y91.057
G1 X61.662 Y91.648
G1 X61.462 Y92.221
G1 X61.205 Y92.771
G1 X60.892 Y93.292
G1 X60.528 Y93.777
G1 X60.115 Y94.223
G1 X59.659 Y94.623
G1 X59.164 Y94.975
G1 X58.636 Y95.274
G1 X58.08 Y95.517
G1 X57.502 Y95.702
G1 X56.907 Y95.826
G1 X56.304 Y95.888
G1 X55.995 Y95.896
G1 X55.696 Y95.888
G1 X55.093 Y95.826
G1 X54.498 Y95.702
G1 X53.92 Y95.517
G1 X53.364 Y95.274
G1 X52.836 Y94.975
G1 X52.341 Y94.623
G1 X51.885 Y94.223
G1 X51.472 Y93.777
G1 X51.108 Y93.292
G1 X50.795 Y92.771
G1 X50.538 Y92.221
G1 X50.338 Y91.648
G1 X50.199 Y91.057
G1 X50.121 Y90.455
G1 X50.103 Y89.995
M106 S239.7
M400 ; wait for commands to complete
M42 P16 S0 ; turn extruder 0 off
G1 E24
G1 Z0.8 F480.000

T0 ; ensure we keep T0 active to prevent changing pressure
M400 ; wait for commands to complete
G1 E24 F1000.0 ; move extruder to midpoint
M400 ; wait for commands to complete
G91
G1 X0 F1800.0 ; move over by x offset
G90
M400 ; wait for commands to complete
G1 X98.482 Y89.243 F240.000

G1 E10.0 ; Move extruder to E1 position of 10.0
M400 ; wait for commands to complete
M42 P17 S255 ; turn extruder 1 on
M400 ; wait for commands to complete
G1 X98.59 Y88.645
G1 X98.76 Y88.062
G1 X98.989 Y87.5
G1 X99.274 Y86.964
G1 X99.613 Y86.46
G1 X100.001 Y85.994
G1 X100.436 Y85.57
G1 X100.912 Y85.192
G1 X101.425 Y84.866
G1 X101.968 Y84.595
G1 X102.536 Y84.38
G1 X103.123 Y84.225
G1 X103.719 Y84.132
G1 X104.33 Y84.1
G1 X104.937 Y84.132
G1 X105.537 Y84.225
G1 X106.124 Y84.38
G1 X106.692 Y84.595
G1 X107.235 Y84.866
G1 X107.748 Y85.192
G1 X108.224 Y85.57
G1 X108.659 Y85.994
G1 X109.047 Y86.46
G1 X109.386 Y86.964
G1 X109.671 Y87.5
G1 X109.9 Y88.062
G1 X110.07 Y88.645
G1 X110.178 Y89.243
G1 X110.227 Y89.995
G1 X110.209 Y90.455
G1 X110.131 Y91.057
G1 X109.992 Y91.648
G1 X109.792 Y92.221
G1 X109.535 Y92.771
G1 X109.222 Y93.292
G1 X108.858 Y93.777
G1 X108.445 Y94.223
G1 X107.989 Y94.623
G1 X107.494 Y94.975
G1 X106.966 Y95.274
G1 X106.41 Y95.517
G1 X105.832 Y95.702
G1 X105.237 Y95.826
G1 X104.634 Y95.888
G1 X104.325 Y95.896
G1 X104.026 Y95.888
G1 X103.423 Y95.826
G1 X102.828 Y95.702
G1 X102.25 Y95.517
G1 X101.694 Y95.274
G1 X101.166 Y94.975
G1 X100.671 Y94.623
G1 X100.215 Y94.223
G1 X99.802 Y93.777
G1 X99.438 Y93.292
G1 X99.125 Y92.771
G1 X98.868 Y92.221
G1 X98.668 Y91.648
G1 X98.529 Y91.057
G1 X98.451 Y90.455
G1 X98.433 Y89.995
M400 ; wait for commands to complete
M42 P17 S0 ; turn extruder 1 off
G1 E24
G1 Z1.0 F480.000

T0 ; ensure we keep T0 active to prevent changing pressure
M400 ; wait for commands to complete
G1 E24 F1000.0 ; move extruder to midpoint
M400 ; wait for commands to complete
G91
G1 X0 F1800.0 ; move over by x offset
G90
M400 ; wait for commands to complete
G1 X50.152 Y89.243 F240.000

G1 E38.0 ; Move extruder to E0 position of 38.0
M400 ; wait for commands to complete
M42 P16 S255 ; turn extruder 0 on
M400 ; wait for commands to complete
G1 X50.26 Y88.645
G1 X50.43 Y88.062
G1 X50.659 Y87.5
G1 X50.944 Y86.964
G1 X51.283 Y86.46
G1 X51.671 Y85.994
G1 X52.106 Y85.57
G1 X52.582 Y85.192
G1 X53.095 Y84.866
G1 X53.638 Y84.595
G1 X54.206 Y84.38
G1 X54.793 Y84.225
G1 X55.389 Y84.132
G1 X56.0 Y84.1
G1 X56.607 Y84.132
G1 X57.207 Y84.225
G1 X57.794 Y84.38
G1 X58.362 Y84.595
G1 X58.905 Y84.866
G1 X59.418 Y85.192
G1 X59.894 Y85.57
G1 X60.329 Y85.994
G1 X60.717 Y86.46
G1 X61.056 Y86.964
G1 X61.341 Y87.5
G1 X61.57 Y88.062
G1 X61.74 Y88.645
G1 X61.848 Y89.243
G1 X61.897 Y89.995
G1 X61.879 Y90.455
G1 X61.801 Y91.057
G1 X61.662 Y91.648
G1 X61.462 Y92.221
G1 X61.205 Y92.771
G1 X60.892 Y93.292
G1 X60.528 Y93.777
G1 X60.115 Y94.223
G1 X59.659 Y94.623
G1 X59.164 Y94.975
G1 X58.636 Y95.274
G1 X58.08 Y95.517
G1 X57.502 Y95.702
G1 X56.907 Y95.826
G1 X56.304 Y95.888
G1 X55.995 Y95.896
G1 X55.696 Y95.888
G1 X55.093 Y95.826
G1 X54.498 Y95.702
G1 X53.92 Y95.517
G1 X53.364 Y95.274
G1 X52.836 Y94.975
G1 X52.341 Y94.623
G1 X51.885 Y94.223
G1 X51.472 Y93.777
G1 X51.108 Y93.292
G1 X50.795 Y92.771
G1 X50.538 Y92.221
G1 X50.338 Y91.648
G1 X50.199 Y91.057
G1 X50.121 Y90.455
G1 X50.103 Y89.995
M400 ; wait for commands to complete
M42 P16 S0 ; turn extruder 0 off
G1 E24
G1 Z1.2 F480.000

T0 ; ensure we keep T0 active to prevent changing pressure
M400 ; wait for commands to complete
G1 E24 F1000.0 ; move extruder to midpoint
M400 ; wait for commands to complete
G91
G1 X0 F1800.0 ; move over by x offset
G90
M400 ; wait for commands to complete
G1 X98.482 Y89.243 F240.000

G1 E10.0 ; Move extruder to E1 position of 10.0
M400 ; wait for commands to complete
M42 P17 S255 ; turn extruder 1 on
M400 ; wait for commands to complete
G1 X98.59 Y88.645
G1 X98.76 Y88.062
G1 X98.989 Y87.5
G1 X99.274 Y86.964
G1 X99.613 Y86.46
G1 X100.001 Y85.994
G1 X100.436 Y85.57
G1 X100.912 Y85.192
G1 X101.425 Y84.866
G1 X101.968 Y84.595
G1 X102.536 Y84.38
G1 X103.123 Y84.225
G1 X103.719 Y84.132
G1 X104.33 Y84.1
G1 X104.937 Y84.132
G1 X105.537 Y84.225
G1 X106.124 Y84.38
G1 X106.692 Y84.595
G1 X107.235 Y84.866
G1 X107.748 Y85.192
G1 X108.224 Y85.57
G1 X108.659 Y85.994
G1 X109.047 Y86.46
G1 X109.386 Y86.964
G1 X109.671 Y87.5
G1 X109.9 Y88.062
G1 X110.07 Y88.645
G1 X110.178 Y89.243
G1 X110.227 Y89.995
G1 X110.209 Y90.455
G1 X110.131 Y91.057
G1 X109.992 Y91.648
G1 X109.792 Y92.221
G1 X109.535 Y92.771
G1 X109.222 Y93.292
G1 X108.858 Y93.777
G1 X108.445 Y94.223
G1 X107.989 Y94.623
G1 X107.494 Y94.975
G1 X106.966 Y95.274
G1 X106.41 Y95.517
G1 X105.832 Y95.702
G1 X105.237 Y95.826
G1 X104.634 Y95.888
G1 X104.325 Y95.896
G1 X104.026 Y95.888
G1 X103.423 Y95.826
G1 X102.828 Y95.702
G1 X102.25 Y95.517
G1 X101.694 Y95.274
G1 X101.166 Y94.975
G1 X100.671 Y94.623
G1 X100.215 Y94.223
G1 X99.802 Y93.777
G1 X99.438 Y93.292
G1 X99.125 Y92.771
G1 X98.868 Y92.221
G1 X98.668 Y91.648
G1 X98.529 Y91.057
G1 X98.451 Y90.455
G1 X98.433 Y89.995
M400 ; wait for commands to complete
M42 P17 S0 ; turn extruder 1 off
G1 E24
G1 Z1.4 F480.000

T0 ; ensure we keep T0 active to prevent changing pressure
M400 ; wait for commands to complete
G1 E24 F1000.0 ; move extruder to midpoint
M400 ; wait for commands to complete
G91
G1 X0 F1800.0 ; move over by x offset
G90
M400 ; wait for commands to complete
G1 X50.152 Y89.243 F240.000

G1 E38.0 ; Move extruder to E0 position of 38.0
M400 ; wait for commands to complete
M42 P16 S255 ; turn extruder 0 on
M400 ; wait for commands to complete
G1 X50.26 Y88.645
G1 X50.43 Y88.062
G1 X50.659 Y87.5
G1 X50.944 Y86.964
G1 X51.283 Y86.46
G1 X51.671 Y85.994
G1 X52.106 Y85.57
G1 X52.582 Y85.192
G1 X53.095 Y84.866
G1 X53.638 Y84.595
G1 X54.206 Y84.38
G1 X54.793 Y84.225
G1 X55.389 Y84.132
G1 X56.0 Y84.1
G1 X56.607 Y84.132
G1 X57.207 Y84.225
G1 X57.794 Y84.38
G1 X58.362 Y84.595
G1 X58.905 Y84.866
G1 X59.418 Y85.192
G1 X59.894 Y85.57
G1 X60.329 Y85.994
G1 X60.717 Y86.46
G1 X61.056 Y86.964
G1 X61.341 Y87.5
G1 X61.57 Y88.062
G1 X61.74 Y88.645
G1 X61.848 Y89.243
G1 X61.897 Y89.995
G1 X61.879 Y90.455
G1 X61.801 Y91.057
G1 X61.662 Y91.648
G1 X61.462 Y92.221
G1 X61.205 Y92.771
G1 X60.892 Y93.292
G1 X60.528 Y93.777
G1 X60.115 Y94.223
G1 X59.659 Y94.623
G1 X59.164 Y94.975
G1 X58.636 Y95.274
G1 X58.08 Y95.517
G1 X57.502 Y95.702
G1 X56.907 Y95.826
G1 X56.304 Y95.888
G1 X55.995 Y95.896
G1 X55.696 Y95.888
G1 X55.093 Y95.826
G1 X54.498 Y95.702
G1 X53.92 Y95.517
G1 X53.364 Y95.274
G1 X52.836 Y94.975
G1 X52.341 Y94.623
G1 X51.885 Y94.223
G1 X51.472 Y93.777
G1 X51.108 Y93.292
G1 X50.795 Y92.771
G1 X50.538 Y92.221
G1 X50.338 Y91.648
G1 X50.199 Y91.057
G1 X50.121 Y90.455
G1 X50.103 Y89.995
M400 ; wait for commands to complete
M42 P16 S0 ; turn extruder 0 off
G1 E24
G1 Z1.6 F480.000

T0 ; ensure we keep T0 active to prevent changing pressure
M400 ; wait for commands to complete
G1 E24 F1000.0 ; move extruder to midpoint
M400 ; wait for commands to complete
G91
G1 X0 F1800.0 ; move over by x offset
G90
M400 ; wait for commands to complete
G1 X98.482 Y89.243 F240.000

G1 E10.0 ; Move extruder to E1 position of 10.0
M400 ; wait for commands to complete
M42 P17 S255 ; turn extruder 1 on
M400 ; wait for commands to complete
G1 X98.59 Y88.645
G1 X98.76 Y88.062
G1 X98.989 Y87.5
G1 X99.274 Y86.964
G1 X99.613 Y86.46
G1 X100.001 Y85.994
G1 X100.436 Y85.57
G1 X100.912 Y85.192
G1 X101.425 Y84.866
G1 X101.968 Y84.595
G1 X102.536 Y84.38
G1 X103.123 Y84.225
G1 X103.719 Y84.132
G1 X104.33 Y84.1
G1 X104.937 Y84.132
G1 X105.537 Y84.225
G1 X106.124 Y84.38
G1 X106.692 Y84.595
G1 X107.235 Y84.866
G1 X107.748 Y85.192
G1 X108.224 Y85.57
G1 X108.659 Y85.994
G1 X109.047 Y86.46
G1 X109.386 Y86.964
G1 X109.671 Y87.5
G1 X109.9 Y88.062
G1 X110.07 Y88.645
G1 X110.178 Y89.243
G1 X110.227 Y89.995
G1 X110.209 Y90.455
G1 X110.131 Y91.057
G1 X109.992 Y91.648
G1 X109.792 Y92.221
G1 X109.535 Y92.771
G1 X109.222 Y93.292
G1 X108.858 Y93.777
G1 X108.445 Y94.223
G1 X107.989 Y94.623
G1 X107.494 Y94.975
G1 X106.966 Y95.274
G1 X106.41 Y95.517
G1 X105.832 Y95.702
G1 X105.237 Y95.826
G1 X104.634 Y95.888
G1 X104.325 Y95.896
G1 X104.026 Y95.888
G1 X103.423 Y95.826
G1 X102.828 Y95.702
G1 X102.25 Y95.517
G1 X101.694 Y95.274
G1 X101.166 Y94.975
G1 X100.671 Y94.623
G1 X100.215 Y94.223
G1 X99.802 Y93.777
G1 X99.438 Y93.292
G1 X99.125 Y92.771
G1 X98.868 Y92.221
G1 X98.668 Y91.648
G1 X98.529 Y91.057
G1 X98.451 Y90.455
G1 X98.433 Y89.995
M400 ; wait for commands to complete
M42 P17 S0 ; turn extruder 1 off
G1 E24
G1 Z1.8 F480.000

T0 ; ensure we keep T0 active to prevent changing pressure
M400 ; wait for commands to complete
G1 E24 F1000.0 ; move extruder to midpoint
M400 ; wait for commands to complete
G91
G1 X0 F1800.0 ; move over by x offset
G90
M400 ; wait for commands to complete
G1 X50.152 Y89.243 F240.000

G1 E38.0 ; Move extruder to E0 position of 38.0
M400 ; wait for commands to complete
M42 P16 S255 ; turn extruder 0 on
M400 ; wait for commands to complete
G1 X50.26 Y88.645
G1 X50.43 Y88.062
G1 X50.659 Y87.5
G1 X50.944 Y86.964
G1 X51.283 Y86.46
G1 X51.671 Y85.994
G1 X52.106 Y85.57
G1 X52.582 Y85.192
G1 X53.095 Y84.866
G1 X53.638 Y84.595
G1 X54.206 Y84.38
G1 X54.793 Y84.225
G1 X55.389 Y84.132
G1 X56.0 Y84.1
G1 X56.607 Y84.132
G1 X57.207 Y84.225
G1 X57.794 Y84.38
G1 X58.362 Y84.595
G1 X58.905 Y84.866
G1 X59.418 Y85.192
G1 X59.894 Y85.57
G1 X60.329 Y85.994
G1 X60.717 Y86.46
G1 X61.056 Y86.964
G1 X61.341 Y87.5
G1 X61.57 Y88.062
G1 X61.74 Y88.645
G1 X61.848 Y89.243
G1 X61.897 Y89.995
G1 X61.879 Y90.455
G1 X61.801 Y91.057
G1 X61.662 Y91.648
G1 X61.462 Y92.221
G1 X61.205 Y92.771
G1 X60.892 Y93.292
G1 X60.528 Y93.777
G1 X60.115 Y94.223
G1 X59.659 Y94.623
G1 X59.164 Y94.975
G1 X58.636 Y95.274
G1 X58.08 Y95.517
G1 X57.502 Y95.702
G1 X56.907 Y95.826
G1 X56.304 Y95.888
G1 X55.995 Y95.896
G1 X55.696 Y95.888
G1 X55.093 Y95.826
G1 X54.498 Y95.702
G1 X53.92 Y95.517
G1 X53.364 Y95.274
G1 X52.836 Y94.975
G1 X52.341 Y94.623
G1 X51.885 Y94.223
G1 X51.472 Y93.777
G1 X51.108 Y93.292
G1 X50.795 Y92.771
G1 X50.538 Y92.221
G1 X50.338 Y91.648
G1 X50.199 Y91.057
G1 X50.121 Y90.455
G1 X50.103 Y89.995
M400 ; wait for commands to complete
M42 P16 S0 ; turn extruder 0 off
G1 E24
G1 Z2.0 F480.000

