; generated by Slic3r 1.2.9 on 2015-12-23 at 12:27:09

; external perimeters extrusion width = 0.20mm
; perimeters extrusion width = 0.21mm
; infill extrusion width = 0.21mm
; solid infill extrusion width = 0.21mm
; top infill extrusion width = 0.21mm

; external perimeters extrusion width = 0.20mm
; perimeters extrusion width = 0.21mm
; infill extrusion width = 0.21mm
; solid infill extrusion width = 0.21mm
; top infill extrusion width = 0.21mm

M107
M104 S200 T0 ; set temperature
M104 S200 T1 ; set temperature
G28 ; home all axes


M109 S200 T0 ; wait for temperature to be reached
M109 S200 T1 ; wait for temperature to be reached
G21 ; set units to millimeters
G90 ; use absolute coordinates
M82 ; use absolute distances for extrusion
G92 E0
T0
G92 E0
G1 Z0.200 F480.000
G1 E-1.00000 F240.00000
G92 E0
T1
G92 E0
G1 Z0.400 F480.000
G1 E-1.00000 F240.00000
G92 E0
G1 X0.103 Y1.295 F480.000
G1 E1.00000 F240.00000
G1 X0.135 Y0.689 E1.00287 F240.000
G1 X0.199 Y0.243 E1.00500
G1 X0.338 Y-0.348 E1.00787
G1 X0.538 Y-0.921 E1.01074
G1 X0.795 Y-1.471 E1.01361
G1 X1.108 Y-1.992 E1.01648
G1 X1.472 Y-2.477 E1.01935
G1 X1.885 Y-2.923 E1.02222
G1 X2.341 Y-3.323 E1.02509
G1 X2.836 Y-3.675 E1.02796
G1 X3.364 Y-3.974 E1.03083
G1 X3.920 Y-4.217 E1.03370
G1 X4.498 Y-4.402 E1.03657
G1 X5.093 Y-4.526 E1.03944
G1 X5.389 Y-4.564 E1.04085
G1 X6.005 Y-4.597 E1.04377
G1 X6.611 Y-4.562 E1.04664
G1 X6.908 Y-4.526 E1.04805
G1 X7.502 Y-4.402 E1.05092
G1 X8.080 Y-4.217 E1.05379
G1 X8.636 Y-3.974 E1.05666
G1 X9.164 Y-3.675 E1.05953
G1 X9.659 Y-3.323 E1.06240
G1 X10.115 Y-2.923 E1.06527
G1 X10.528 Y-2.477 E1.06814
G1 X10.892 Y-1.992 E1.07100
G1 X11.205 Y-1.471 E1.07387
G1 X11.462 Y-0.921 E1.07674
G1 X11.662 Y-0.348 E1.07961
G1 X11.801 Y0.243 E1.08248
G1 X11.879 Y0.845 E1.08535
G1 X11.897 Y1.305 E1.08753
G1 X11.848 Y2.057 E1.09109
G1 X11.740 Y2.655 E1.09397
G1 X11.570 Y3.238 E1.09684
G1 X11.341 Y3.800 E1.09971
G1 X11.056 Y4.336 E1.10258
G1 X10.717 Y4.840 E1.10545
G1 X10.329 Y5.306 E1.10832
G1 X9.894 Y5.730 E1.11119
G1 X9.418 Y6.107 E1.11406
G1 X8.905 Y6.434 E1.11693
G1 X8.362 Y6.705 E1.11980
G1 X7.794 Y6.920 E1.12267
G1 X7.207 Y7.075 E1.12554
G1 X6.607 Y7.168 E1.12842
G1 X6.000 Y7.200 E1.13129
G1 X5.393 Y7.168 E1.13416
G1 X4.793 Y7.075 E1.13703
G1 X4.206 Y6.920 E1.13990
G1 X3.638 Y6.705 E1.14277
G1 X3.095 Y6.434 E1.14564
G1 X2.582 Y6.107 E1.14851
G1 X2.106 Y5.730 E1.15139
G1 X1.671 Y5.306 E1.15426
G1 X1.283 Y4.840 E1.15713
G1 X0.944 Y4.336 E1.16000
G1 X0.659 Y3.800 E1.16287
G1 X0.430 Y3.238 E1.16574
G1 X0.260 Y2.655 E1.16861
G1 X0.152 Y2.057 E1.17148
G1 X0.103 Y1.295 E1.17509
G1 Z0.600 F480.000
G1 E0.17509 F240.00000
G92 E0
T0
G92 E0
G1 X0.103 Y1.095 F480.000
G1 E1.00000 F240.00000
G1 X0.135 Y0.489 E1.00287 F240.000
G1 X0.199 Y0.043 E1.00500
G1 X0.338 Y-0.548 E1.00787
G1 X0.538 Y-1.121 E1.01074
G1 X0.795 Y-1.671 E1.01361
G1 X1.108 Y-2.192 E1.01648
G1 X1.472 Y-2.677 E1.01935
G1 X1.885 Y-3.123 E1.02222
G1 X2.341 Y-3.523 E1.02509
G1 X2.836 Y-3.875 E1.02796
G1 X3.364 Y-4.174 E1.03083
G1 X3.920 Y-4.417 E1.03370
G1 X4.498 Y-4.602 E1.03657
G1 X5.093 Y-4.726 E1.03944
G1 X5.389 Y-4.764 E1.04085
G1 X6.005 Y-4.797 E1.04377
G1 X6.611 Y-4.762 E1.04664
G1 X6.908 Y-4.726 E1.04805
G1 X7.502 Y-4.602 E1.05092
G1 X8.080 Y-4.417 E1.05379
G1 X8.636 Y-4.174 E1.05666
G1 X9.164 Y-3.875 E1.05953
G1 X9.659 Y-3.523 E1.06240
G1 X10.115 Y-3.123 E1.06527
G1 X10.528 Y-2.677 E1.06814
G1 X10.892 Y-2.192 E1.07100
G1 X11.205 Y-1.671 E1.07387
G1 X11.462 Y-1.121 E1.07674
G1 X11.662 Y-0.548 E1.07961
G1 X11.801 Y0.043 E1.08248
G1 X11.879 Y0.645 E1.08535
G1 X11.897 Y1.105 E1.08753
G1 X11.848 Y1.857 E1.09109
G1 X11.740 Y2.455 E1.09397
G1 X11.570 Y3.038 E1.09684
G1 X11.341 Y3.600 E1.09971
G1 X11.056 Y4.136 E1.10258
G1 X10.717 Y4.640 E1.10545
G1 X10.329 Y5.106 E1.10832
G1 X9.894 Y5.530 E1.11119
G1 X9.418 Y5.907 E1.11406
G1 X8.905 Y6.234 E1.11693
G1 X8.362 Y6.505 E1.11980
G1 X7.794 Y6.720 E1.12267
G1 X7.207 Y6.875 E1.12554
G1 X6.611 Y6.968 E1.12839
G1 X6.000 Y7.000 E1.13129
G1 X5.393 Y6.968 E1.13416
G1 X4.793 Y6.875 E1.13703
G1 X4.206 Y6.720 E1.13990
G1 X3.638 Y6.505 E1.14277
G1 X3.095 Y6.234 E1.14564
G1 X2.582 Y5.907 E1.14851
G1 X2.106 Y5.530 E1.15139
G1 X1.671 Y5.106 E1.15426
G1 X1.283 Y4.640 E1.15713
G1 X0.944 Y4.136 E1.16000
G1 X0.659 Y3.600 E1.16287
G1 X0.430 Y3.038 E1.16574
G1 X0.260 Y2.455 E1.16861
G1 X0.152 Y1.857 E1.17148
G1 X0.103 Y1.095 E1.17509
M106 S239.7
G1 Z0.800 F480.000
G1 E0.17509 F240.00000
G92 E0
T1
G92 E0
G1 X0.103 Y1.295 F480.000
G1 E1.00000 F240.00000
G1 X0.135 Y0.689 E1.00287 F240.000
G1 X0.199 Y0.243 E1.00500
G1 X0.338 Y-0.348 E1.00787
G1 X0.538 Y-0.921 E1.01074
G1 X0.795 Y-1.471 E1.01361
G1 X1.108 Y-1.992 E1.01648
G1 X1.472 Y-2.477 E1.01935
G1 X1.885 Y-2.923 E1.02222
G1 X2.341 Y-3.323 E1.02509
G1 X2.836 Y-3.675 E1.02796
G1 X3.364 Y-3.974 E1.03083
G1 X3.920 Y-4.217 E1.03370
G1 X4.498 Y-4.402 E1.03657
G1 X5.093 Y-4.526 E1.03944
G1 X5.389 Y-4.564 E1.04085
G1 X6.005 Y-4.597 E1.04377
G1 X6.611 Y-4.562 E1.04664
G1 X6.908 Y-4.526 E1.04805
G1 X7.502 Y-4.402 E1.05092
G1 X8.080 Y-4.217 E1.05379
G1 X8.636 Y-3.974 E1.05666
G1 X9.164 Y-3.675 E1.05953
G1 X9.659 Y-3.323 E1.06240
G1 X10.115 Y-2.923 E1.06527
G1 X10.528 Y-2.477 E1.06814
G1 X10.892 Y-1.992 E1.07100
G1 X11.205 Y-1.471 E1.07387
G1 X11.462 Y-0.921 E1.07674
G1 X11.662 Y-0.348 E1.07961
G1 X11.801 Y0.243 E1.08248
G1 X11.879 Y0.845 E1.08535
G1 X11.897 Y1.305 E1.08753
G1 X11.848 Y2.057 E1.09109
G1 X11.740 Y2.655 E1.09397
G1 X11.570 Y3.238 E1.09684
G1 X11.341 Y3.800 E1.09971
G1 X11.056 Y4.336 E1.10258
G1 X10.717 Y4.840 E1.10545
G1 X10.329 Y5.306 E1.10832
G1 X9.894 Y5.730 E1.11119
G1 X9.418 Y6.107 E1.11406
G1 X8.905 Y6.434 E1.11693
G1 X8.362 Y6.705 E1.11980
G1 X7.794 Y6.920 E1.12267
G1 X7.207 Y7.075 E1.12554
G1 X6.607 Y7.168 E1.12842
G1 X6.000 Y7.200 E1.13129
G1 X5.393 Y7.168 E1.13416
G1 X4.793 Y7.075 E1.13703
G1 X4.206 Y6.920 E1.13990
G1 X3.638 Y6.705 E1.14277
G1 X3.095 Y6.434 E1.14564
G1 X2.582 Y6.107 E1.14851
G1 X2.106 Y5.730 E1.15139
G1 X1.671 Y5.306 E1.15426
G1 X1.283 Y4.840 E1.15713
G1 X0.944 Y4.336 E1.16000
G1 X0.659 Y3.800 E1.16287
G1 X0.430 Y3.238 E1.16574
G1 X0.260 Y2.655 E1.16861
G1 X0.152 Y2.057 E1.17148
G1 X0.103 Y1.295 E1.17509
G1 Z1.000 F480.000
G1 E0.17509 F240.00000
G92 E0
T0
G92 E0
G1 X0.103 Y1.095 F480.000
G1 E1.00000 F240.00000
G1 X0.135 Y0.489 E1.00287 F240.000
G1 X0.199 Y0.043 E1.00500
G1 X0.338 Y-0.548 E1.00787
G1 X0.538 Y-1.121 E1.01074
G1 X0.795 Y-1.671 E1.01361
G1 X1.108 Y-2.192 E1.01648
G1 X1.472 Y-2.677 E1.01935
G1 X1.885 Y-3.123 E1.02222
G1 X2.341 Y-3.523 E1.02509
G1 X2.836 Y-3.875 E1.02796
G1 X3.364 Y-4.174 E1.03083
G1 X3.920 Y-4.417 E1.03370
G1 X4.498 Y-4.602 E1.03657
G1 X5.093 Y-4.726 E1.03944
G1 X5.389 Y-4.764 E1.04085
G1 X6.005 Y-4.797 E1.04377
G1 X6.611 Y-4.762 E1.04664
G1 X6.908 Y-4.726 E1.04805
G1 X7.502 Y-4.602 E1.05092
G1 X8.080 Y-4.417 E1.05379
G1 X8.636 Y-4.174 E1.05666
G1 X9.164 Y-3.875 E1.05953
G1 X9.659 Y-3.523 E1.06240
G1 X10.115 Y-3.123 E1.06527
G1 X10.528 Y-2.677 E1.06814
G1 X10.892 Y-2.192 E1.07100
G1 X11.205 Y-1.671 E1.07387
G1 X11.462 Y-1.121 E1.07674
G1 X11.662 Y-0.548 E1.07961
G1 X11.801 Y0.043 E1.08248
G1 X11.879 Y0.645 E1.08535
G1 X11.897 Y1.105 E1.08753
G1 X11.848 Y1.857 E1.09109
G1 X11.740 Y2.455 E1.09397
G1 X11.570 Y3.038 E1.09684
G1 X11.341 Y3.600 E1.09971
G1 X11.056 Y4.136 E1.10258
G1 X10.717 Y4.640 E1.10545
G1 X10.329 Y5.106 E1.10832
G1 X9.894 Y5.530 E1.11119
G1 X9.418 Y5.907 E1.11406
G1 X8.905 Y6.234 E1.11693
G1 X8.362 Y6.505 E1.11980
G1 X7.794 Y6.720 E1.12267
G1 X7.207 Y6.875 E1.12554
G1 X6.611 Y6.968 E1.12839
G1 X6.000 Y7.000 E1.13129
G1 X5.393 Y6.968 E1.13416
G1 X4.793 Y6.875 E1.13703
G1 X4.206 Y6.720 E1.13990
G1 X3.638 Y6.505 E1.14277
G1 X3.095 Y6.234 E1.14564
G1 X2.582 Y5.907 E1.14851
G1 X2.106 Y5.530 E1.15139
G1 X1.671 Y5.106 E1.15426
G1 X1.283 Y4.640 E1.15713
G1 X0.944 Y4.136 E1.16000
G1 X0.659 Y3.600 E1.16287
G1 X0.430 Y3.038 E1.16574
G1 X0.260 Y2.455 E1.16861
G1 X0.152 Y1.857 E1.17148
G1 X0.103 Y1.095 E1.17509
G1 Z1.200 F480.000
G1 E0.17509 F240.00000
G92 E0
T1
G92 E0
G1 X0.103 Y1.295 F480.000
G1 E1.00000 F240.00000
G1 X0.135 Y0.689 E1.00287 F240.000
G1 X0.199 Y0.243 E1.00500
G1 X0.338 Y-0.348 E1.00787
G1 X0.538 Y-0.921 E1.01074
G1 X0.795 Y-1.471 E1.01361
G1 X1.108 Y-1.992 E1.01648
G1 X1.472 Y-2.477 E1.01935
G1 X1.885 Y-2.923 E1.02222
G1 X2.341 Y-3.323 E1.02509
G1 X2.836 Y-3.675 E1.02796
G1 X3.364 Y-3.974 E1.03083
G1 X3.920 Y-4.217 E1.03370
G1 X4.498 Y-4.402 E1.03657
G1 X5.093 Y-4.526 E1.03944
G1 X5.389 Y-4.564 E1.04085
G1 X6.005 Y-4.597 E1.04377
G1 X6.611 Y-4.562 E1.04664
G1 X6.908 Y-4.526 E1.04805
G1 X7.502 Y-4.402 E1.05092
G1 X8.080 Y-4.217 E1.05379
G1 X8.636 Y-3.974 E1.05666
G1 X9.164 Y-3.675 E1.05953
G1 X9.659 Y-3.323 E1.06240
G1 X10.115 Y-2.923 E1.06527
G1 X10.528 Y-2.477 E1.06814
G1 X10.892 Y-1.992 E1.07100
G1 X11.205 Y-1.471 E1.07387
G1 X11.462 Y-0.921 E1.07674
G1 X11.662 Y-0.348 E1.07961
G1 X11.801 Y0.243 E1.08248
G1 X11.879 Y0.845 E1.08535
G1 X11.897 Y1.305 E1.08753
G1 X11.848 Y2.057 E1.09109
G1 X11.740 Y2.655 E1.09397
G1 X11.570 Y3.238 E1.09684
G1 X11.341 Y3.800 E1.09971
G1 X11.056 Y4.336 E1.10258
G1 X10.717 Y4.840 E1.10545
G1 X10.329 Y5.306 E1.10832
G1 X9.894 Y5.730 E1.11119
G1 X9.418 Y6.107 E1.11406
G1 X8.905 Y6.434 E1.11693
G1 X8.362 Y6.705 E1.11980
G1 X7.794 Y6.920 E1.12267
G1 X7.207 Y7.075 E1.12554
G1 X6.607 Y7.168 E1.12842
G1 X6.000 Y7.200 E1.13129
G1 X5.393 Y7.168 E1.13416
G1 X4.793 Y7.075 E1.13703
G1 X4.206 Y6.920 E1.13990
G1 X3.638 Y6.705 E1.14277
G1 X3.095 Y6.434 E1.14564
G1 X2.582 Y6.107 E1.14851
G1 X2.106 Y5.730 E1.15139
G1 X1.671 Y5.306 E1.15426
G1 X1.283 Y4.840 E1.15713
G1 X0.944 Y4.336 E1.16000
G1 X0.659 Y3.800 E1.16287
G1 X0.430 Y3.238 E1.16574
G1 X0.260 Y2.655 E1.16861
G1 X0.152 Y2.057 E1.17148
G1 X0.103 Y1.295 E1.17509
G1 Z1.400 F480.000
G1 E0.17509 F240.00000
G92 E0
T0
G92 E0
G1 X0.103 Y1.095 F480.000
G1 E1.00000 F240.00000
G1 X0.135 Y0.489 E1.00287 F240.000
G1 X0.199 Y0.043 E1.00500
G1 X0.338 Y-0.548 E1.00787
G1 X0.538 Y-1.121 E1.01074
G1 X0.795 Y-1.671 E1.01361
G1 X1.108 Y-2.192 E1.01648
G1 X1.472 Y-2.677 E1.01935
G1 X1.885 Y-3.123 E1.02222
G1 X2.341 Y-3.523 E1.02509
G1 X2.836 Y-3.875 E1.02796
G1 X3.364 Y-4.174 E1.03083
G1 X3.920 Y-4.417 E1.03370
G1 X4.498 Y-4.602 E1.03657
G1 X5.093 Y-4.726 E1.03944
G1 X5.389 Y-4.764 E1.04085
G1 X6.005 Y-4.797 E1.04377
G1 X6.611 Y-4.762 E1.04664
G1 X6.908 Y-4.726 E1.04805
G1 X7.502 Y-4.602 E1.05092
G1 X8.080 Y-4.417 E1.05379
G1 X8.636 Y-4.174 E1.05666
G1 X9.164 Y-3.875 E1.05953
G1 X9.659 Y-3.523 E1.06240
G1 X10.115 Y-3.123 E1.06527
G1 X10.528 Y-2.677 E1.06814
G1 X10.892 Y-2.192 E1.07100
G1 X11.205 Y-1.671 E1.07387
G1 X11.462 Y-1.121 E1.07674
G1 X11.662 Y-0.548 E1.07961
G1 X11.801 Y0.043 E1.08248
G1 X11.879 Y0.645 E1.08535
G1 X11.897 Y1.105 E1.08753
G1 X11.848 Y1.857 E1.09109
G1 X11.740 Y2.455 E1.09397
G1 X11.570 Y3.038 E1.09684
G1 X11.341 Y3.600 E1.09971
G1 X11.056 Y4.136 E1.10258
G1 X10.717 Y4.640 E1.10545
G1 X10.329 Y5.106 E1.10832
G1 X9.894 Y5.530 E1.11119
G1 X9.418 Y5.907 E1.11406
G1 X8.905 Y6.234 E1.11693
G1 X8.362 Y6.505 E1.11980
G1 X7.794 Y6.720 E1.12267
G1 X7.207 Y6.875 E1.12554
G1 X6.611 Y6.968 E1.12839
G1 X6.000 Y7.000 E1.13129
G1 X5.393 Y6.968 E1.13416
G1 X4.793 Y6.875 E1.13703
G1 X4.206 Y6.720 E1.13990
G1 X3.638 Y6.505 E1.14277
G1 X3.095 Y6.234 E1.14564
G1 X2.582 Y5.907 E1.14851
G1 X2.106 Y5.530 E1.15139
G1 X1.671 Y5.106 E1.15426
G1 X1.283 Y4.640 E1.15713
G1 X0.944 Y4.136 E1.16000
G1 X0.659 Y3.600 E1.16287
G1 X0.430 Y3.038 E1.16574
G1 X0.260 Y2.455 E1.16861
G1 X0.152 Y1.857 E1.17148
G1 X0.103 Y1.095 E1.17509
G1 Z1.600 F480.000
G1 E0.17509 F240.00000
G92 E0
T1
G92 E0
G1 X0.103 Y1.295 F480.000
G1 E1.00000 F240.00000
G1 X0.135 Y0.689 E1.00287 F240.000
G1 X0.199 Y0.243 E1.00500
G1 X0.338 Y-0.348 E1.00787
G1 X0.538 Y-0.921 E1.01074
G1 X0.795 Y-1.471 E1.01361
G1 X1.108 Y-1.992 E1.01648
G1 X1.472 Y-2.477 E1.01935
G1 X1.885 Y-2.923 E1.02222
G1 X2.341 Y-3.323 E1.02509
G1 X2.836 Y-3.675 E1.02796
G1 X3.364 Y-3.974 E1.03083
G1 X3.920 Y-4.217 E1.03370
G1 X4.498 Y-4.402 E1.03657
G1 X5.093 Y-4.526 E1.03944
G1 X5.389 Y-4.564 E1.04085
G1 X6.005 Y-4.597 E1.04377
G1 X6.611 Y-4.562 E1.04664
G1 X6.908 Y-4.526 E1.04805
G1 X7.502 Y-4.402 E1.05092
G1 X8.080 Y-4.217 E1.05379
G1 X8.636 Y-3.974 E1.05666
G1 X9.164 Y-3.675 E1.05953
G1 X9.659 Y-3.323 E1.06240
G1 X10.115 Y-2.923 E1.06527
G1 X10.528 Y-2.477 E1.06814
G1 X10.892 Y-1.992 E1.07100
G1 X11.205 Y-1.471 E1.07387
G1 X11.462 Y-0.921 E1.07674
G1 X11.662 Y-0.348 E1.07961
G1 X11.801 Y0.243 E1.08248
G1 X11.879 Y0.845 E1.08535
G1 X11.897 Y1.305 E1.08753
G1 X11.848 Y2.057 E1.09109
G1 X11.740 Y2.655 E1.09397
G1 X11.570 Y3.238 E1.09684
G1 X11.341 Y3.800 E1.09971
G1 X11.056 Y4.336 E1.10258
G1 X10.717 Y4.840 E1.10545
G1 X10.329 Y5.306 E1.10832
G1 X9.894 Y5.730 E1.11119
G1 X9.418 Y6.107 E1.11406
G1 X8.905 Y6.434 E1.11693
G1 X8.362 Y6.705 E1.11980
G1 X7.794 Y6.920 E1.12267
G1 X7.207 Y7.075 E1.12554
G1 X6.607 Y7.168 E1.12842
G1 X6.000 Y7.200 E1.13129
G1 X5.393 Y7.168 E1.13416
G1 X4.793 Y7.075 E1.13703
G1 X4.206 Y6.920 E1.13990
G1 X3.638 Y6.705 E1.14277
G1 X3.095 Y6.434 E1.14564
G1 X2.582 Y6.107 E1.14851
G1 X2.106 Y5.730 E1.15139
G1 X1.671 Y5.306 E1.15426
G1 X1.283 Y4.840 E1.15713
G1 X0.944 Y4.336 E1.16000
G1 X0.659 Y3.800 E1.16287
G1 X0.430 Y3.238 E1.16574
G1 X0.260 Y2.655 E1.16861
G1 X0.152 Y2.057 E1.17148
G1 X0.103 Y1.295 E1.17509
G1 Z1.800 F480.000
G1 E0.17509 F240.00000
G92 E0
T0
G92 E0
G1 X0.103 Y1.095 F480.000
G1 E1.00000 F240.00000
G1 X0.135 Y0.489 E1.00287 F240.000
G1 X0.199 Y0.043 E1.00500
G1 X0.338 Y-0.548 E1.00787
G1 X0.538 Y-1.121 E1.01074
G1 X0.795 Y-1.671 E1.01361
G1 X1.108 Y-2.192 E1.01648
G1 X1.472 Y-2.677 E1.01935
G1 X1.885 Y-3.123 E1.02222
G1 X2.341 Y-3.523 E1.02509
G1 X2.836 Y-3.875 E1.02796
G1 X3.364 Y-4.174 E1.03083
G1 X3.920 Y-4.417 E1.03370
G1 X4.498 Y-4.602 E1.03657
G1 X5.093 Y-4.726 E1.03944
G1 X5.389 Y-4.764 E1.04085
G1 X6.005 Y-4.797 E1.04377
G1 X6.611 Y-4.762 E1.04664
G1 X6.908 Y-4.726 E1.04805
G1 X7.502 Y-4.602 E1.05092
G1 X8.080 Y-4.417 E1.05379
G1 X8.636 Y-4.174 E1.05666
G1 X9.164 Y-3.875 E1.05953
G1 X9.659 Y-3.523 E1.06240
G1 X10.115 Y-3.123 E1.06527
G1 X10.528 Y-2.677 E1.06814
G1 X10.892 Y-2.192 E1.07100
G1 X11.205 Y-1.671 E1.07387
G1 X11.462 Y-1.121 E1.07674
G1 X11.662 Y-0.548 E1.07961
G1 X11.801 Y0.043 E1.08248
G1 X11.879 Y0.645 E1.08535
G1 X11.897 Y1.105 E1.08753
G1 X11.848 Y1.857 E1.09109
G1 X11.740 Y2.455 E1.09397
G1 X11.570 Y3.038 E1.09684
G1 X11.341 Y3.600 E1.09971
G1 X11.056 Y4.136 E1.10258
G1 X10.717 Y4.640 E1.10545
G1 X10.329 Y5.106 E1.10832
G1 X9.894 Y5.530 E1.11119
G1 X9.418 Y5.907 E1.11406
G1 X8.905 Y6.234 E1.11693
G1 X8.362 Y6.505 E1.11980
G1 X7.794 Y6.720 E1.12267
G1 X7.207 Y6.875 E1.12554
G1 X6.611 Y6.968 E1.12839
G1 X6.000 Y7.000 E1.13129
G1 X5.393 Y6.968 E1.13416
G1 X4.793 Y6.875 E1.13703
G1 X4.206 Y6.720 E1.13990
G1 X3.638 Y6.505 E1.14277
G1 X3.095 Y6.234 E1.14564
G1 X2.582 Y5.907 E1.14851
G1 X2.106 Y5.530 E1.15139
G1 X1.671 Y5.106 E1.15426
G1 X1.283 Y4.640 E1.15713
G1 X0.944 Y4.136 E1.16000
G1 X0.659 Y3.600 E1.16287
G1 X0.430 Y3.038 E1.16574
G1 X0.260 Y2.455 E1.16861
G1 X0.152 Y1.857 E1.17148
G1 X0.103 Y1.095 E1.17509
G1 Z2.000 F480.000
G1 E0.17509 F240.00000
G92 E0
T1
G92 E0
G1 X0.103 Y1.295 F480.000
G1 E1.00000 F240.00000
G1 X0.135 Y0.689 E1.00287 F240.000
G1 X0.199 Y0.243 E1.00500
G1 X0.338 Y-0.348 E1.00787
G1 X0.538 Y-0.921 E1.01074
G1 X0.795 Y-1.471 E1.01361
G1 X1.108 Y-1.992 E1.01648
G1 X1.472 Y-2.477 E1.01935
G1 X1.885 Y-2.923 E1.02222
G1 X2.341 Y-3.323 E1.02509
G1 X2.836 Y-3.675 E1.02796
