; generated by Slic3r 1.2.9 on 2016-01-05 at 18:37:54

; external perimeters extrusion width = 0.20mm
; perimeters extrusion width = 0.34mm
; infill extrusion width = 0.34mm
; solid infill extrusion width = 0.34mm
; top infill extrusion width = 0.34mm

M107
G1 Z45
G1 E3.2
G28 X Y
G21
G1 X56 Y90 F1000


G21 ; set units to millimeters
G90 ; use absolute coordinates
M82 ; use absolute distances for extrusion
T0 ; ensure we keep T0 active to prevent changing pressure
M400 ; wait for commands to complete
G1 E24 F1000.0 ; move extruder to midpoint
M400 ; wait for commands to complete
G1 Z0.1 F480.000

G1 X94.205 Y89.993 F480.000

G1 E3.2 ; Move extruder to E1 position of 3.2
M400 ; wait for commands to complete
M42 P17 S255 ; turn extruder 1 on
M400 ; wait for commands to complete
G1 X94.264 Y88.912 F120.000

G1 X94.435 Y87.86
G1 X94.719 Y86.82
G1 X95.112 Y85.817
G1 X95.609 Y84.861
G1 X96.205 Y83.963
G1 X96.986 Y83.035
G1 X97.772 Y82.29
G1 X98.512 Y81.718
G1 X99.426 Y81.147
G1 X100.395 Y80.676
G1 X101.408 Y80.311
G1 X102.455 Y80.055
G1 X103.523 Y79.913
G1 X104.599 Y79.884
G1 X105.668 Y79.97
G1 X106.732 Y80.17
G1 X107.763 Y80.481
G1 X108.755 Y80.9
G1 X109.075 Y81.063
G1 X109.697 Y81.422
G1 X110.014 Y81.629
G1 X110.578 Y82.042
G1 X110.885 Y82.292
G1 X111.389 Y82.751
G1 X111.671 Y83.037
G1 X112.119 Y83.542
G1 X112.389 Y83.882
G1 X112.761 Y84.407
G1 X113.003 Y84.789
G1 X113.308 Y85.335
G1 X113.515 Y85.757
G1 X113.753 Y86.316
G1 X113.92 Y86.775
G1 X114.091 Y87.338
G1 X114.212 Y87.831
G1 X114.319 Y88.391
G1 X114.388 Y88.9
G1 X114.455 Y90.0
G1 X114.388 Y91.1
G1 X114.319 Y91.609
G1 X114.212 Y92.169
G1 X114.091 Y92.662
G1 X113.92 Y93.225
G1 X113.753 Y93.684
G1 X113.515 Y94.243
G1 X113.308 Y94.665
G1 X113.0 Y95.215
G1 X112.761 Y95.593
G1 X112.389 Y96.118
G1 X112.119 Y96.458
G1 X111.671 Y96.963
G1 X111.389 Y97.249
G1 X110.885 Y97.708
G1 X110.582 Y97.955
G1 X110.013 Y98.371
G1 X109.697 Y98.578
G1 X109.07 Y98.939
G1 X108.755 Y99.1
G1 X107.763 Y99.519
G1 X106.731 Y99.83
G1 X105.673 Y100.03
G1 X104.599 Y100.116
G1 X103.523 Y100.087
G1 X102.455 Y99.945
G1 X101.408 Y99.689
G1 X100.395 Y99.324
G1 X99.426 Y98.853
G1 X98.512 Y98.282
G1 X97.772 Y97.71
G1 X96.986 Y96.965
G1 X96.205 Y96.037
G1 X95.609 Y95.139
G1 X95.112 Y94.183
G1 X94.719 Y93.18
G1 X94.435 Y92.14
G1 X94.263 Y91.076
G1 X94.205 Y89.993
G92
M400 ; wait for commands to complete
M42 P17 S0 ; turn extruder 1 off
G1 Z0.2 F480.000

G1 X94.205 Y90.0 F480.000

G1 E3.2 ; Move extruder to E1 position of 3.2
M400 ; wait for commands to complete
M42 P17 S255 ; turn extruder 1 on
M400 ; wait for commands to complete
G1 X94.263 Y88.924 F120.000

G1 X94.435 Y87.86
G1 X94.719 Y86.82
G1 X95.112 Y85.817
G1 X95.609 Y84.861
G1 X96.205 Y83.963
G1 X96.986 Y83.035
G1 X97.772 Y82.29
G1 X98.512 Y81.718
G1 X99.426 Y81.147
G1 X100.395 Y80.676
G1 X101.408 Y80.311
G1 X102.455 Y80.055
G1 X103.523 Y79.913
G1 X104.599 Y79.884
G1 X105.657 Y79.969
G1 X106.732 Y80.17
G1 X107.763 Y80.481
G1 X108.081 Y80.602
G1 X108.755 Y80.901
G1 X109.089 Y81.071
G1 X109.697 Y81.422
G1 X110.014 Y81.629
G1 X110.578 Y82.042
G1 X110.885 Y82.292
G1 X111.389 Y82.751
G1 X111.671 Y83.037
G1 X112.119 Y83.542
G1 X112.389 Y83.882
G1 X112.761 Y84.407
G1 X113.003 Y84.789
G1 X113.308 Y85.335
G1 X113.515 Y85.757
G1 X113.753 Y86.316
G1 X113.92 Y86.775
G1 X114.091 Y87.338
G1 X114.213 Y87.831
G1 X114.318 Y88.391
G1 X114.389 Y88.916
G1 X114.455 Y90.0
G1 X114.388 Y91.1
G1 X114.319 Y91.609
G1 X114.212 Y92.169
G1 X114.091 Y92.662
G1 X113.92 Y93.225
G1 X113.753 Y93.684
G1 X113.515 Y94.243
G1 X113.308 Y94.665
G1 X113.003 Y95.211
G1 X112.761 Y95.593
G1 X112.389 Y96.118
G1 X112.119 Y96.458
G1 X111.671 Y96.963
G1 X111.389 Y97.249
G1 X110.885 Y97.708
G1 X110.578 Y97.958
G1 X110.014 Y98.371
G1 X109.697 Y98.577
G1 X108.769 Y99.092
G1 X107.763 Y99.519
G1 X106.731 Y99.83
G1 X105.673 Y100.03
G1 X104.599 Y100.116
G1 X103.523 Y100.087
G1 X102.455 Y99.945
G1 X101.408 Y99.689
G1 X100.395 Y99.324
G1 X99.426 Y98.853
G1 X98.512 Y98.282
G1 X97.772 Y97.71
G1 X96.986 Y96.965
G1 X96.205 Y96.037
G1 X95.609 Y95.139
G1 X95.112 Y94.183
G1 X94.719 Y93.18
G1 X94.435 Y92.14
G1 X94.263 Y91.076
G1 X94.205 Y90.0
G92
M400 ; wait for commands to complete
M42 P17 S0 ; turn extruder 1 off
G1 Z0.3 F480.000

G1 X94.205 Y89.993 F480.000

G1 E3.2 ; Move extruder to E1 position of 3.2
M400 ; wait for commands to complete
M42 P17 S255 ; turn extruder 1 on
M400 ; wait for commands to complete
G1 X94.264 Y88.912 F120.000

G1 X94.435 Y87.86
G1 X94.719 Y86.82
G1 X95.112 Y85.817
G1 X95.609 Y84.861
G1 X96.201 Y83.961
G1 X96.986 Y83.035
G1 X97.772 Y82.29
G1 X98.512 Y81.718
G1 X99.426 Y81.147
G1 X100.395 Y80.676
G1 X101.408 Y80.311
G1 X102.455 Y80.055
G1 X103.523 Y79.913
G1 X104.599 Y79.884
G1 X105.646 Y79.968
G1 X106.732 Y80.17
G1 X107.763 Y80.481
G1 X108.755 Y80.9
G1 X109.075 Y81.063
G1 X109.697 Y81.422
G1 X110.014 Y81.629
G1 X110.578 Y82.042
G1 X110.885 Y82.292
G1 X111.389 Y82.751
G1 X111.671 Y83.037
G1 X112.119 Y83.542
G1 X112.389 Y83.882
G1 X112.761 Y84.407
G1 X113.003 Y84.789
G1 X113.308 Y85.335
G1 X113.515 Y85.757
G1 X113.753 Y86.316
G1 X113.92 Y86.775
G1 X114.083 Y87.312
G1 X114.212 Y87.832
G1 X114.318 Y88.391
G1 X114.39 Y88.927
G1 X114.455 Y90.0
G1 X114.388 Y91.1
G1 X114.319 Y91.609
G1 X114.212 Y92.169
G1 X114.091 Y92.662
G1 X113.92 Y93.225
G1 X113.753 Y93.684
G1 X113.515 Y94.243
G1 X113.308 Y94.665
G1 X113.003 Y95.211
G1 X112.763 Y95.594
G1 X112.439 Y96.054
G1 X112.119 Y96.458
G1 X111.671 Y96.963
G1 X111.389 Y97.249
G1 X110.885 Y97.708
G1 X110.578 Y97.958
G1 X110.014 Y98.371
G1 X109.697 Y98.577
G1 X108.779 Y99.087
G1 X108.081 Y99.397
G1 X107.762 Y99.519
G1 X106.731 Y99.83
G1 X105.673 Y100.03
G1 X104.599 Y100.116
G1 X103.523 Y100.087
G1 X102.455 Y99.945
G1 X101.408 Y99.689
G1 X100.395 Y99.324
G1 X99.426 Y98.853
G1 X98.512 Y98.282
G1 X97.772 Y97.71
G1 X96.986 Y96.965
G1 X96.205 Y96.037
G1 X95.609 Y95.139
G1 X95.112 Y94.183
G1 X94.719 Y93.18
G1 X94.435 Y92.14
G1 X94.263 Y91.076
G1 X94.205 Y89.993
M106 S173.4
G92
M400 ; wait for commands to complete
M42 P17 S0 ; turn extruder 1 off
G1 Z0.4 F480.000

G1 X94.205 Y89.993 F480.000

G1 E3.2 ; Move extruder to E1 position of 3.2
M400 ; wait for commands to complete
M42 P17 S255 ; turn extruder 1 on
M400 ; wait for commands to complete
G1 X94.264 Y88.912 F120.000

G1 X94.435 Y87.86
G1 X94.719 Y86.82
G1 X95.112 Y85.817
G1 X95.609 Y84.861
G1 X96.205 Y83.963
G1 X96.986 Y83.035
G1 X97.772 Y82.29
G1 X98.512 Y81.718
G1 X99.427 Y81.148
G1 X100.395 Y80.676
G1 X101.408 Y80.311
G1 X102.455 Y80.055
G1 X103.523 Y79.913
G1 X104.599 Y79.884
G1 X105.635 Y79.967
G1 X105.973 Y80.017
G1 X106.732 Y80.17
G1 X107.763 Y80.481
G1 X108.755 Y80.9
G1 X109.075 Y81.063
G1 X109.697 Y81.422
G1 X110.014 Y81.629
G1 X110.578 Y82.042
G1 X110.885 Y82.292
G1 X111.389 Y82.751
G1 X111.671 Y83.037
G1 X112.119 Y83.542
G1 X112.389 Y83.882
G1 X112.761 Y84.407
G1 X113.003 Y84.79
G1 X113.307 Y85.335
G1 X113.53 Y85.792
G1 X113.753 Y86.316
G1 X113.92 Y86.775
G1 X114.091 Y87.338
G1 X114.212 Y87.831
G1 X114.319 Y88.391
G1 X114.388 Y88.9
G1 X114.455 Y90.0
G1 X114.388 Y91.1
G1 X114.319 Y91.609
G1 X114.212 Y92.169
G1 X114.091 Y92.662
G1 X113.92 Y93.225
G1 X113.753 Y93.684
G1 X113.515 Y94.243
G1 X113.307 Y94.665
G1 X112.982 Y95.243
G1 X112.761 Y95.593
G1 X112.389 Y96.118
G1 X112.119 Y96.458
G1 X111.671 Y96.963
G1 X111.389 Y97.249
G1 X110.876 Y97.716
G1 X110.013 Y98.371
G1 X109.697 Y98.578
G1 X109.075 Y98.937
G1 X108.755 Y99.1
G1 X107.763 Y99.519
G1 X106.731 Y99.83
G1 X105.673 Y100.03
G1 X104.599 Y100.116
G1 X103.523 Y100.087
G1 X102.455 Y99.945
G1 X101.408 Y99.689
G1 X100.395 Y99.324
G1 X99.426 Y98.853
G1 X98.512 Y98.282
G1 X97.772 Y97.71
G1 X96.986 Y96.965
G1 X96.205 Y96.037
G1 X95.609 Y95.139
G1 X95.112 Y94.183
G1 X94.719 Y93.18
G1 X94.435 Y92.14
G1 X94.263 Y91.076
G1 X94.205 Y89.993
G92
M400 ; wait for commands to complete
M42 P17 S0 ; turn extruder 1 off
G1 Z0.5 F480.000

G1 E3.2 ; Move extruder to E1 position of 3.2
M400 ; wait for commands to complete
M42 P17 S255 ; turn extruder 1 on
M400 ; wait for commands to complete
G1 X94.264 Y88.912 F120.000

G1 X94.435 Y87.86
G1 X94.719 Y86.82
G1 X95.112 Y85.817
G1 X95.588 Y84.905
G1 X96.205 Y83.963
G1 X96.986 Y83.035
G1 X97.772 Y82.29
G1 X98.512 Y81.718
G1 X99.427 Y81.149
G1 X100.395 Y80.676
G1 X101.408 Y80.311
G1 X102.455 Y80.055
G1 X103.523 Y79.913
G1 X104.599 Y79.884
G1 X105.625 Y79.966
G1 X105.973 Y80.017
G1 X106.732 Y80.17
G1 X107.763 Y80.481
G1 X108.755 Y80.9
G1 X109.075 Y81.063
G1 X109.697 Y81.422
G1 X110.014 Y81.629
G1 X110.578 Y82.042
G1 X110.885 Y82.292
G1 X111.389 Y82.751
G1 X111.668 Y83.033
G1 X112.119 Y83.542
G1 X112.389 Y83.882
G1 X112.761 Y84.407
G1 X113.003 Y84.789
G1 X113.308 Y85.335
G1 X113.515 Y85.757
G1 X113.753 Y86.316
G1 X113.92 Y86.775
G1 X114.091 Y87.338
G1 X114.212 Y87.831
G1 X114.319 Y88.391
G1 X114.388 Y88.9
G1 X114.455 Y90.0
G1 X114.388 Y91.1
G1 X114.319 Y91.609
G1 X114.212 Y92.169
G1 X114.091 Y92.662
G1 X113.92 Y93.225
G1 X113.753 Y93.684
G1 X113.515 Y94.243
G1 X113.308 Y94.665
G1 X113.003 Y95.211
G1 X112.761 Y95.593
G1 X112.389 Y96.118
G1 X112.119 Y96.458
G1 X111.671 Y96.963
G1 X111.389 Y97.249
G1 X110.885 Y97.708
G1 X110.578 Y97.958
G1 X110.014 Y98.371
G1 X109.697 Y98.577
G1 X108.755 Y99.1
G1 X107.763 Y99.519
G1 X106.731 Y99.83
G1 X105.673 Y100.03
G1 X104.599 Y100.116
G1 X103.523 Y100.087
G1 X102.455 Y99.945
G1 X101.408 Y99.689
G1 X100.395 Y99.324
G1 X99.426 Y98.853
G1 X98.512 Y98.282
G1 X97.772 Y97.71
G1 X96.986 Y96.965
G1 X96.205 Y96.037
G1 X95.609 Y95.139
G1 X95.112 Y94.183
G1 X94.719 Y93.18
G1 X94.435 Y92.14
G1 X94.263 Y91.076
G1 X94.205 Y89.993
G92
M400 ; wait for commands to complete
M42 P17 S0 ; turn extruder 1 off
G1 Z0.6 F480.000

G1 X94.205 Y90.0 F480.000

G1 E3.2 ; Move extruder to E1 position of 3.2
M400 ; wait for commands to complete
M42 P17 S255 ; turn extruder 1 on
M400 ; wait for commands to complete
G1 X94.263 Y88.924 F120.000

G1 X94.435 Y87.86
G1 X94.719 Y86.82
G1 X95.112 Y85.817
G1 X95.611 Y84.862
G1 X96.205 Y83.963
G1 X96.986 Y83.035
G1 X97.772 Y82.29
G1 X98.512 Y81.718
G1 X99.426 Y81.147
G1 X100.395 Y80.676
G1 X101.408 Y80.311
G1 X102.455 Y80.055
G1 X103.523 Y79.913
G1 X104.599 Y79.884
G1 X105.614 Y79.965
G1 X105.973 Y80.017
G1 X106.732 Y80.17
G1 X107.763 Y80.481
G1 X108.755 Y80.9
G1 X109.075 Y81.063
G1 X109.697 Y81.422
G1 X110.014 Y81.629
G1 X110.578 Y82.042
G1 X110.885 Y82.292
G1 X111.389 Y82.751
G1 X111.671 Y83.037
G1 X112.119 Y83.542
G1 X112.389 Y83.882
G1 X112.761 Y84.407
G1 X113.003 Y84.79
G1 X113.306 Y85.336
G1 X113.539 Y85.812
G1 X113.753 Y86.316
G1 X113.92 Y86.775
G1 X114.091 Y87.338
G1 X114.212 Y87.831
G1 X114.319 Y88.391
G1 X114.388 Y88.9
G1 X114.455 Y90.0
G1 X114.388 Y91.1
G1 X114.319 Y91.609
G1 X114.212 Y92.169
G1 X114.091 Y92.662
G1 X113.92 Y93.225
G1 X113.753 Y93.684
G1 X113.515 Y94.243
G1 X113.307 Y94.665
G1 X112.971 Y95.262
G1 X112.761 Y95.593
G1 X112.389 Y96.118
G1 X112.119 Y96.458
G1 X111.671 Y96.963
G1 X111.389 Y97.249
G1 X110.885 Y97.708
G1 X110.578 Y97.958
G1 X110.014 Y98.371
G1 X109.696 Y98.577
G1 X108.808 Y99.073
G1 X108.081 Y99.397
G1 X107.762 Y99.519
G1 X106.731 Y99.83
G1 X105.673 Y100.03
G1 X104.599 Y100.116
G1 X103.523 Y100.087
G1 X102.455 Y99.945
G1 X101.408 Y99.689
G1 X100.395 Y99.324
G1 X99.426 Y98.853
G1 X98.512 Y98.282
G1 X97.772 Y97.71
G1 X96.986 Y96.965
G1 X96.205 Y96.037
G1 X95.609 Y95.139
G1 X95.112 Y94.183
G1 X94.719 Y93.18
G1 X94.435 Y92.14
G1 X94.263 Y91.076
G1 X94.205 Y90.0
G92
M400 ; wait for commands to complete
M42 P17 S0 ; turn extruder 1 off
G1 Z0.7 F480.000

G1 X94.205 Y90.0 F480.000

G1 E3.2 ; Move extruder to E1 position of 3.2
M400 ; wait for commands to complete
M42 P17 S255 ; turn extruder 1 on
M400 ; wait for commands to complete
G1 X94.263 Y88.924 F120.000

G1 X94.435 Y87.86
G1 X94.719 Y86.82
G1 X95.112 Y85.817
G1 X95.612 Y84.863
G1 X96.205 Y83.963
G1 X96.986 Y83.035
G1 X97.772 Y82.29
G1 X98.512 Y81.718
G1 X99.427 Y81.148
G1 X100.395 Y80.676
G1 X101.408 Y80.311
G1 X102.455 Y80.055
G1 X103.523 Y79.913
G1 X104.599 Y79.884
G1 X105.603 Y79.964
G1 X105.973 Y80.018
G1 X106.732 Y80.17
G1 X107.763 Y80.481
G1 X108.755 Y80.9
G1 X109.075 Y81.063
G1 X109.697 Y81.422
G1 X110.014 Y81.629
G1 X110.578 Y82.042
G1 X110.885 Y82.292
G1 X111.389 Y82.751
G1 X111.671 Y83.037
G1 X112.119 Y83.542
G1 X112.389 Y83.882
G1 X112.761 Y84.407
G1 X113.003 Y84.789
G1 X113.308 Y85.335
G1 X113.516 Y85.758
G1 X113.751 Y86.316
G1 X113.941 Y86.843
G1 X114.091 Y87.338
G1 X114.212 Y87.831
G1 X114.319 Y88.391
G1 X114.388 Y88.9
G1 X114.455 Y90.0
G1 X114.388 Y91.1
G1 X114.319 Y91.609
G1 X114.212 Y92.169
G1 X114.091 Y92.662
G1 X113.92 Y93.225
G1 X113.753 Y93.684
G1 X113.515 Y94.243
G1 X113.308 Y94.665
G1 X113.003 Y95.211
G1 X112.761 Y95.593
G1 X112.389 Y96.118
G1 X112.119 Y96.458
G1 X111.671 Y96.963
G1 X111.389 Y97.249
G1 X110.876 Y97.716
G1 X110.013 Y98.37
G1 X109.697 Y98.578
G1 X109.075 Y98.937
G1 X108.755 Y99.1
G1 X107.763 Y99.519
G1 X106.731 Y99.83
G1 X105.673 Y100.03
G1 X104.599 Y100.116
G1 X103.523 Y100.087
G1 X102.455 Y99.945
G1 X101.408 Y99.689
G1 X100.395 Y99.324
G1 X99.426 Y98.853
G1 X98.512 Y98.282
G1 X97.772 Y97.71
G1 X96.986 Y96.965
G1 X96.268 Y96.12
G1 X95.66 Y95.224
G1 X95.111 Y94.18
G1 X94.719 Y93.18
G1 X94.435 Y92.14
G1 X94.264 Y91.088
G1 X94.205 Y90.0
G92
M400 ; wait for commands to complete
M42 P17 S0 ; turn extruder 1 off
G1 Z0.8 F480.000

G1 X94.205 Y89.993 F480.000

G1 E3.2 ; Move extruder to E1 position of 3.2
M400 ; wait for commands to complete
M42 P17 S255 ; turn extruder 1 on
M400 ; wait for commands to complete
G1 X94.264 Y88.912 F120.000

G1 X94.435 Y87.86
G1 X94.719 Y86.82
G1 X95.112 Y85.817
G1 X95.609 Y84.861
G1 X96.205 Y83.963
G1 X96.986 Y83.035
G1 X97.772 Y82.29
G1 X98.512 Y81.718
G1 X99.426 Y81.147
G1 X100.395 Y80.676
G1 X101.408 Y80.311
G1 X102.455 Y80.055
G1 X103.523 Y79.913
G1 X104.599 Y79.884
G1 X105.592 Y79.963
G1 X105.973 Y80.018
G1 X106.732 Y80.17
G1 X107.763 Y80.481
G1 X108.082 Y80.603
G1 X108.754 Y80.903
G1 X109.135 Y81.098
G1 X109.697 Y81.422
G1 X110.003 Y81.622
G1 X110.578 Y82.042
G1 X110.876 Y82.284
G1 X111.389 Y82.751
G1 X111.671 Y83.037
G1 X112.119 Y83.542
G1 X112.389 Y83.882
G1 X112.761 Y84.407
G1 X113.003 Y84.789
G1 X113.308 Y85.335
G1 X113.516 Y85.758
G1 X113.751 Y86.316
G1 X113.944 Y86.853
G1 X114.091 Y87.338
G1 X114.212 Y87.831
G1 X114.319 Y88.391
G1 X114.388 Y88.9
G1 X114.455 Y90.0
G1 X114.388 Y91.1
G1 X114.319 Y91.609
G1 X114.212 Y92.169
G1 X114.091 Y92.662
G1 X113.92 Y93.225
G1 X113.753 Y93.684
G1 X113.515 Y94.243
G1 X113.308 Y94.665
G1 X113.003 Y95.211
G1 X112.761 Y95.593
G1 X112.389 Y96.118
G1 X112.119 Y96.458
G1 X111.671 Y96.963
G1 X111.389 Y97.249
G1 X110.876 Y97.716
G1 X110.578 Y97.958
G1 X110.003 Y98.378
G1 X109.697 Y98.578
G1 X109.064 Y98.943
G1 X108.081 Y99.396
G1 X107.762 Y99.519
G1 X106.731 Y99.83
G1 X105.673 Y100.03
G1 X104.599 Y100.116
G1 X103.523 Y100.087
G1 X102.455 Y99.945
G1 X101.408 Y99.689
G1 X100.395 Y99.324
G1 X99.426 Y98.853
G1 X98.512 Y98.282
G1 X97.772 Y97.71
G1 X96.986 Y96.965
G1 X96.205 Y96.037
G1 X95.609 Y95.139
G1 X95.112 Y94.183
G1 X94.719 Y93.18
G1 X94.441 Y92.169
G1 X94.266 Y91.076
G1 X94.205 Y89.993
G92
M400 ; wait for commands to complete
M42 P17 S0 ; turn extruder 1 off
G1 Z0.9 F480.000

G1 X94.205 Y90.0 F480.000

G1 E3.2 ; Move extruder to E1 position of 3.2
M400 ; wait for commands to complete
M42 P17 S255 ; turn extruder 1 on
M400 ; wait for commands to complete
G1 X94.263 Y88.924 F120.000

G1 X94.435 Y87.86
G1 X94.719 Y86.82
G1 X95.112 Y85.817
G1 X95.612 Y84.863
G1 X96.205 Y83.963
G1 X96.986 Y83.035
G1 X97.772 Y82.29
G1 X98.512 Y81.718
G1 X99.426 Y81.147
G1 X100.395 Y80.676
G1 X101.408 Y80.311
G1 X102.455 Y80.055
G1 X103.523 Y79.913
G1 X104.599 Y79.884
G1 X105.581 Y79.962
G1 X105.973 Y80.019
G1 X106.732 Y80.17
G1 X107.763 Y80.481
G1 X108.755 Y80.9
G1 X109.075 Y81.063
G1 X109.697 Y81.422
G1 X110.014 Y81.629
G1 X110.578 Y82.042
G1 X110.885 Y82.292
G1 X111.389 Y82.751
G1 X111.671 Y83.037
G1 X112.119 Y83.542
G1 X112.389 Y83.882
G1 X112.761 Y84.407
G1 X113.003 Y84.79
G1 X113.306 Y85.336
G1 X113.546 Y85.831
G1 X113.753 Y86.316
G1 X113.92 Y86.775
G1 X114.091 Y87.338
