; generated by Slic3r 1.2.9 on 2016-01-05 at 18:37:54

; external perimeters extrusion width = 0.20mm
; perimeters extrusion width = 0.34mm
; infill extrusion width = 0.34mm
; solid infill extrusion width = 0.34mm
; top infill extrusion width = 0.34mm

M107
G1 Z45
G1 E3.2
G28 X Y
G21
G1 X56 Y90 F1000


G21 ; set units to millimeters
G90 ; use absolute coordinates
M82 ; use absolute distances for extrusion
T0 ; ensure we keep T0 active to prevent changing pressure
M400 ; wait for commands to complete
G1 E24 F1000.0 ; move extruder to midpoint
M400 ; wait for commands to complete
G1 Z0.1 F480.000

G1 X94.205 Y89.993 F480.000

G1 E3.2 ; Move extruder to E1 position of 3.2
M400 ; wait for commands to complete
M42 P17 S255 ; turn extruder 1 on
M400 ; wait for commands to complete
G1 X94.264 Y88.912 F120.000

G92
M400 ; wait for commands to complete
M42 P17 S0 ; turn extruder 1 off
G1 Z0.2 F480.000

G1 X94.205 Y90.0 F480.000

G1 E3.2 ; Move extruder to E1 position of 3.2
M400 ; wait for commands to complete
M42 P17 S255 ; turn extruder 1 on
M400 ; wait for commands to complete
G1 X94.263 Y88.924 F120.000

G92
M400 ; wait for commands to complete
M42 P17 S0 ; turn extruder 1 off
G1 Z0.3 F480.000

G1 X94.205 Y89.993 F480.000

G1 E3.2 ; Move extruder to E1 position of 3.2
M400 ; wait for commands to complete
M42 P17 S255 ; turn extruder 1 on
M400 ; wait for commands to complete
G1 X94.264 Y88.912 F120.000

M106 S173.4
G92
M400 ; wait for commands to complete
M42 P17 S0 ; turn extruder 1 off
G1 Z0.4 F480.000

G1 X94.205 Y89.993 F480.000

G1 E3.2 ; Move extruder to E1 position of 3.2
M400 ; wait for commands to complete
M42 P17 S255 ; turn extruder 1 on
M400 ; wait for commands to complete
G1 X94.264 Y88.912 F120.000

G92
M400 ; wait for commands to complete
M42 P17 S0 ; turn extruder 1 off
G1 Z0.5 F480.000

G1 E3.2 ; Move extruder to E1 position of 3.2
M400 ; wait for commands to complete
M42 P17 S255 ; turn extruder 1 on
M400 ; wait for commands to complete
G1 X94.264 Y88.912 F120.000

G92
M400 ; wait for commands to complete
M42 P17 S0 ; turn extruder 1 off
G1 Z0.6 F480.000

G1 X94.205 Y90.0 F480.000

G1 E3.2 ; Move extruder to E1 position of 3.2
M400 ; wait for commands to complete
M42 P17 S255 ; turn extruder 1 on
M400 ; wait for commands to complete
G1 X94.263 Y88.924 F120.000

G92
M400 ; wait for commands to complete
M42 P17 S0 ; turn extruder 1 off
G1 Z0.7 F480.000

G1 X94.205 Y90.0 F480.000

G1 E3.2 ; Move extruder to E1 position of 3.2
M400 ; wait for commands to complete
M42 P17 S255 ; turn extruder 1 on
M400 ; wait for commands to complete
G1 X94.263 Y88.924 F120.000

G92
M400 ; wait for commands to complete
M42 P17 S0 ; turn extruder 1 off
G1 Z0.8 F480.000

G1 X94.205 Y89.993 F480.000

G1 E3.2 ; Move extruder to E1 position of 3.2
M400 ; wait for commands to complete
M42 P17 S255 ; turn extruder 1 on
M400 ; wait for commands to complete
G1 X94.264 Y88.912 F120.000

G92
M400 ; wait for commands to complete
M42 P17 S0 ; turn extruder 1 off
G1 Z0.9 F480.000

G1 X94.205 Y90.0 F480.000

G1 E3.2 ; Move extruder to E1 position of 3.2
M400 ; wait for commands to complete
M42 P17 S255 ; turn extruder 1 on
M400 ; wait for commands to complete
G1 X94.263 Y88.924 F120.000

G92
M400 ; wait for commands to complete
M42 P17 S0 ; turn extruder 1 off
G1 Z1.0 F480.000

G1 X94.205 Y89.993 F480.000

G1 E3.2 ; Move extruder to E1 position of 3.2
M400 ; wait for commands to complete
M42 P17 S255 ; turn extruder 1 on
M400 ; wait for commands to complete
G1 X94.264 Y88.912 F120.000

G92
M400 ; wait for commands to complete
M42 P17 S0 ; turn extruder 1 off
G1 Z1.1 F480.000

G1 E3.2 ; Move extruder to E1 position of 3.2
M400 ; wait for commands to complete
M42 P17 S255 ; turn extruder 1 on
M400 ; wait for commands to complete
G1 X94.264 Y88.912 F120.000

G92
M400 ; wait for commands to complete
M42 P17 S0 ; turn extruder 1 off
G1 Z1.2 F480.000

G1 X94.205 Y90.0 F480.000

G1 E3.2 ; Move extruder to E1 position of 3.2
M400 ; wait for commands to complete
M42 P17 S255 ; turn extruder 1 on
M400 ; wait for commands to complete
G1 X94.263 Y88.924 F120.000

G92
M400 ; wait for commands to complete
M42 P17 S0 ; turn extruder 1 off
G1 Z1.3 F480.000

G1 X94.205 Y89.993 F480.000

G1 E3.2 ; Move extruder to E1 position of 3.2
M400 ; wait for commands to complete
M42 P17 S255 ; turn extruder 1 on
M400 ; wait for commands to complete
G1 X94.264 Y88.912 F120.000

G92
M400 ; wait for commands to complete
M42 P17 S0 ; turn extruder 1 off
G1 Z1.4 F480.000

G1 X94.205 Y89.993 F480.000

G1 E3.2 ; Move extruder to E1 position of 3.2
M400 ; wait for commands to complete
M42 P17 S255 ; turn extruder 1 on
M400 ; wait for commands to complete
G1 X94.264 Y88.912 F120.000

G92
M400 ; wait for commands to complete
M42 P17 S0 ; turn extruder 1 off
G1 Z1.5 F480.000

G1 X94.205 Y90.0 F480.000

G1 E3.2 ; Move extruder to E1 position of 3.2
M400 ; wait for commands to complete
M42 P17 S255 ; turn extruder 1 on
M400 ; wait for commands to complete
G1 X94.263 Y88.924 F120.000

G92
M400 ; wait for commands to complete
M42 P17 S0 ; turn extruder 1 off
G1 Z1.6 F480.000

G1 X94.205 Y90.0 F480.000

G1 E3.2 ; Move extruder to E1 position of 3.2
M400 ; wait for commands to complete
M42 P17 S255 ; turn extruder 1 on
M400 ; wait for commands to complete
G1 X94.263 Y88.924 F120.000

G92
M400 ; wait for commands to complete
M42 P17 S0 ; turn extruder 1 off
G1 Z1.7 F480.000

G1 X94.205 Y89.993 F480.000

G1 E3.2 ; Move extruder to E1 position of 3.2
M400 ; wait for commands to complete
M42 P17 S255 ; turn extruder 1 on
M400 ; wait for commands to complete
G1 X94.264 Y88.912 F120.000

G92
M400 ; wait for commands to complete
M42 P17 S0 ; turn extruder 1 off
G1 Z1.8 F480.000

G1 X94.205 Y89.993 F480.000

G1 E3.2 ; Move extruder to E1 position of 3.2
M400 ; wait for commands to complete
M42 P17 S255 ; turn extruder 1 on
M400 ; wait for commands to complete
G1 X94.264 Y88.912 F120.000

G92
M400 ; wait for commands to complete
M42 P17 S0 ; turn extruder 1 off
G1 Z1.9 F480.000

G1 X94.205 Y89.993 F480.000

G1 E3.2 ; Move extruder to E1 position of 3.2
M400 ; wait for commands to complete
M42 P17 S255 ; turn extruder 1 on
M400 ; wait for commands to complete
G1 X94.264 Y88.912 F120.000

G92
M400 ; wait for commands to complete
M42 P17 S0 ; turn extruder 1 off
G1 Z2.0 F480.000

G1 X94.205 Y90.0 F480.000

G1 E3.2 ; Move extruder to E1 position of 3.2
M400 ; wait for commands to complete
M42 P17 S255 ; turn extruder 1 on
M400 ; wait for commands to complete
G1 X94.263 Y88.924 F120.000

G92
M400 ; wait for commands to complete
M42 P17 S0 ; turn extruder 1 off
G1 Z2.1 F480.000

G1 X94.205 Y90.0 F480.000

G1 E3.2 ; Move extruder to E1 position of 3.2
M400 ; wait for commands to complete
M42 P17 S255 ; turn extruder 1 on
M400 ; wait for commands to complete
G1 X94.263 Y88.924 F120.000

G92
M400 ; wait for commands to complete
M42 P17 S0 ; turn extruder 1 off
G1 Z2.2 F480.000

G1 X94.205 Y90.0 F480.000

G1 E3.2 ; Move extruder to E1 position of 3.2
M400 ; wait for commands to complete
M42 P17 S255 ; turn extruder 1 on
M400 ; wait for commands to complete
G1 X94.263 Y88.924 F120.000

G92
M400 ; wait for commands to complete
M42 P17 S0 ; turn extruder 1 off
G1 Z2.3 F480.000

G1 X94.205 Y90.0 F480.000

G1 E3.2 ; Move extruder to E1 position of 3.2
M400 ; wait for commands to complete
M42 P17 S255 ; turn extruder 1 on
M400 ; wait for commands to complete
G1 X94.263 Y88.924 F120.000

G92
M400 ; wait for commands to complete
M42 P17 S0 ; turn extruder 1 off
G1 Z2.4 F480.000

G1 X94.205 Y89.993 F480.000

G1 E3.2 ; Move extruder to E1 position of 3.2
M400 ; wait for commands to complete
M42 P17 S255 ; turn extruder 1 on
M400 ; wait for commands to complete
G1 X94.264 Y88.912 F120.000

G92
M400 ; wait for commands to complete
M42 P17 S0 ; turn extruder 1 off
G1 Z2.5 F480.000

G1 X94.205 Y89.993 F480.000

G1 E3.2 ; Move extruder to E1 position of 3.2
M400 ; wait for commands to complete
M42 P17 S255 ; turn extruder 1 on
M400 ; wait for commands to complete
G1 X94.264 Y88.912 F120.000

G92
M400 ; wait for commands to complete
M42 P17 S0 ; turn extruder 1 off
G1 Z2.6 F480.000

G1 X94.205 Y89.993 F480.000

G1 E3.2 ; Move extruder to E1 position of 3.2
M400 ; wait for commands to complete
M42 P17 S255 ; turn extruder 1 on
M400 ; wait for commands to complete
G1 X94.264 Y88.912 F120.000

G92
M400 ; wait for commands to complete
M42 P17 S0 ; turn extruder 1 off
G1 Z2.7 F480.000

G1 E3.2 ; Move extruder to E1 position of 3.2
M400 ; wait for commands to complete
M42 P17 S255 ; turn extruder 1 on
M400 ; wait for commands to complete
G1 X94.264 Y88.912 F120.000

G92
M400 ; wait for commands to complete
M42 P17 S0 ; turn extruder 1 off
G1 Z2.8 F480.000

G1 X94.205 Y89.993 F480.000

G1 E3.2 ; Move extruder to E1 position of 3.2
M400 ; wait for commands to complete
M42 P17 S255 ; turn extruder 1 on
M400 ; wait for commands to complete
G1 X94.264 Y88.912 F120.000

G92
M400 ; wait for commands to complete
M42 P17 S0 ; turn extruder 1 off
G1 Z2.9 F480.000

G1 X94.205 Y90.0 F480.000

G1 E3.2 ; Move extruder to E1 position of 3.2
M400 ; wait for commands to complete
M42 P17 S255 ; turn extruder 1 on
M400 ; wait for commands to complete
G1 X94.263 Y88.924 F120.000

G92
M400 ; wait for commands to complete
M42 P17 S0 ; turn extruder 1 off
G1 Z3.0 F480.000

G1 X94.205 Y89.993 F480.000

G1 E3.2 ; Move extruder to E1 position of 3.2
M400 ; wait for commands to complete
M42 P17 S255 ; turn extruder 1 on
M400 ; wait for commands to complete
G1 X94.264 Y88.912 F120.000

G92
M400 ; wait for commands to complete
M42 P17 S0 ; turn extruder 1 off
G1 Z3.1 F480.000

G1 X94.205 Y89.993 F480.000

G1 E3.2 ; Move extruder to E1 position of 3.2
M400 ; wait for commands to complete
M42 P17 S255 ; turn extruder 1 on
M400 ; wait for commands to complete
G1 X94.264 Y88.912 F120.000

G92
M400 ; wait for commands to complete
M42 P17 S0 ; turn extruder 1 off
G1 Z3.2 F480.000

G1 X94.205 Y89.993 F480.000

G1 E3.2 ; Move extruder to E1 position of 3.2
M400 ; wait for commands to complete
M42 P17 S255 ; turn extruder 1 on
M400 ; wait for commands to complete
G1 X94.264 Y88.912 F120.000

G92
M400 ; wait for commands to complete
M42 P17 S0 ; turn extruder 1 off
G1 Z3.3 F480.000

G1 E3.2 ; Move extruder to E1 position of 3.2
M400 ; wait for commands to complete
M42 P17 S255 ; turn extruder 1 on
M400 ; wait for commands to complete
G1 X94.264 Y88.912 F120.000

G92
M400 ; wait for commands to complete
M42 P17 S0 ; turn extruder 1 off
G1 Z3.4 F480.000

G1 E3.2 ; Move extruder to E1 position of 3.2
M400 ; wait for commands to complete
M42 P17 S255 ; turn extruder 1 on
M400 ; wait for commands to complete
G1 X94.264 Y88.912 F120.000

G92
M400 ; wait for commands to complete
M42 P17 S0 ; turn extruder 1 off
G1 Z3.5 F480.000

G1 X94.205 Y89.993 F480.000

G1 E3.2 ; Move extruder to E1 position of 3.2
M400 ; wait for commands to complete
M42 P17 S255 ; turn extruder 1 on
M400 ; wait for commands to complete
G1 X94.264 Y88.912 F120.000

G92
M400 ; wait for commands to complete
M42 P17 S0 ; turn extruder 1 off
G1 Z3.6 F480.000

G1 X94.205 Y90.0 F480.000

G1 E3.2 ; Move extruder to E1 position of 3.2
M400 ; wait for commands to complete
M42 P17 S255 ; turn extruder 1 on
M400 ; wait for commands to complete
G1 X94.263 Y88.924 F120.000

G92
M400 ; wait for commands to complete
M42 P17 S0 ; turn extruder 1 off
G1 Z3.7 F480.000

G1 X94.205 Y90.0 F480.000

G1 E3.2 ; Move extruder to E1 position of 3.2
M400 ; wait for commands to complete
M42 P17 S255 ; turn extruder 1 on
M400 ; wait for commands to complete
G1 X94.263 Y88.924 F120.000

G92
M400 ; wait for commands to complete
M42 P17 S0 ; turn extruder 1 off
G1 Z3.8 F480.000

G1 X94.205 Y89.993 F480.000

G1 E3.2 ; Move extruder to E1 position of 3.2
M400 ; wait for commands to complete
M42 P17 S255 ; turn extruder 1 on
M400 ; wait for commands to complete
G1 X94.264 Y88.912 F120.000

G92
M400 ; wait for commands to complete
M42 P17 S0 ; turn extruder 1 off
G1 Z3.9 F480.000

G1 X94.205 Y90.0 F480.000

G1 E3.2 ; Move extruder to E1 position of 3.2
M400 ; wait for commands to complete
M42 P17 S255 ; turn extruder 1 on
M400 ; wait for commands to complete
G1 X94.263 Y88.924 F120.000

G92
M400 ; wait for commands to complete
M42 P17 S0 ; turn extruder 1 off
G1 Z4.0 F480.000

G1 E3.2 ; Move extruder to E1 position of 3.2
M400 ; wait for commands to complete
M42 P17 S255 ; turn extruder 1 on
M400 ; wait for commands to complete
G1 X94.263 Y88.924 F120.000

G92
M400 ; wait for commands to complete
M42 P17 S0 ; turn extruder 1 off
G1 Z4.1 F480.000

G1 X94.205 Y89.993 F480.000

G1 E3.2 ; Move extruder to E1 position of 3.2
M400 ; wait for commands to complete
M42 P17 S255 ; turn extruder 1 on
M400 ; wait for commands to complete
G1 X94.264 Y88.912 F120.000

G92
M400 ; wait for commands to complete
M42 P17 S0 ; turn extruder 1 off
G1 Z4.2 F480.000

G1 E3.2 ; Move extruder to E1 position of 3.2
M400 ; wait for commands to complete
M42 P17 S255 ; turn extruder 1 on
M400 ; wait for commands to complete
G1 X94.264 Y88.912 F120.000

G92
M400 ; wait for commands to complete
M42 P17 S0 ; turn extruder 1 off
G1 Z4.3 F480.000

G1 X94.205 Y90.0 F480.000

G1 E3.2 ; Move extruder to E1 position of 3.2
M400 ; wait for commands to complete
M42 P17 S255 ; turn extruder 1 on
M400 ; wait for commands to complete
G1 X94.263 Y88.924 F120.000

G92
M400 ; wait for commands to complete
M42 P17 S0 ; turn extruder 1 off
G1 Z4.4 F480.000

G1 X94.205 Y89.993 F480.000

G1 E3.2 ; Move extruder to E1 position of 3.2
M400 ; wait for commands to complete
M42 P17 S255 ; turn extruder 1 on
M400 ; wait for commands to complete
G1 X94.264 Y88.912 F120.000

G92
M400 ; wait for commands to complete
M42 P17 S0 ; turn extruder 1 off
G1 Z4.5 F480.000

G1 X94.205 Y89.993 F480.000

G1 E3.2 ; Move extruder to E1 position of 3.2
M400 ; wait for commands to complete
M42 P17 S255 ; turn extruder 1 on
M400 ; wait for commands to complete
G1 X94.264 Y88.912 F120.000

G92
M400 ; wait for commands to complete
M42 P17 S0 ; turn extruder 1 off
G1 Z4.6 F480.000

G1 E3.2 ; Move extruder to E1 position of 3.2
M400 ; wait for commands to complete
M42 P17 S255 ; turn extruder 1 on
M400 ; wait for commands to complete
G1 X94.264 Y88.912 F120.000

G92
M400 ; wait for commands to complete
M42 P17 S0 ; turn extruder 1 off
G1 Z4.7 F480.000

G1 E3.2 ; Move extruder to E1 position of 3.2
M400 ; wait for commands to complete
M42 P17 S255 ; turn extruder 1 on
M400 ; wait for commands to complete
G1 X94.264 Y88.912 F120.000

G92
M400 ; wait for commands to complete
M42 P17 S0 ; turn extruder 1 off
G1 Z4.8 F480.000

G1 E3.2 ; Move extruder to E1 position of 3.2
M400 ; wait for commands to complete
M42 P17 S255 ; turn extruder 1 on
M400 ; wait for commands to complete
G1 X94.264 Y88.912 F120.000

G92
M400 ; wait for commands to complete
M42 P17 S0 ; turn extruder 1 off
G1 Z4.9 F480.000

G1 E3.2 ; Move extruder to E1 position of 3.2
M400 ; wait for commands to complete
M42 P17 S255 ; turn extruder 1 on
M400 ; wait for commands to complete
G1 X94.264 Y88.912 F120.000

G92
M400 ; wait for commands to complete
M42 P17 S0 ; turn extruder 1 off
G1 Z5.0 F480.000

G1 E3.2 ; Move extruder to E1 position of 3.2
M400 ; wait for commands to complete
M42 P17 S255 ; turn extruder 1 on
M400 ; wait for commands to complete
G1 X94.264 Y88.912 F120.000

G92
M400 ; wait for commands to complete
M42 P17 S0 ; turn extruder 1 off
G1 Z5.1 F480.000

G1 X94.205 Y90.0 F480.000

G1 E3.2 ; Move extruder to E1 position of 3.2
M400 ; wait for commands to complete
M42 P17 S255 ; turn extruder 1 on
M400 ; wait for commands to complete
G1 X94.263 Y88.924 F120.000

G92
M400 ; wait for commands to complete
M42 P17 S0 ; turn extruder 1 off
G1 Z5.2 F480.000

G1 X94.205 Y90.0 F480.000

G1 E3.2 ; Move extruder to E1 position of 3.2
M400 ; wait for commands to complete
M42 P17 S255 ; turn extruder 1 on
M400 ; wait for commands to complete
G1 X94.263 Y88.924 F120.000

G92
M400 ; wait for commands to complete
