; generated by Slic3r 1.2.9 on 2015-12-23 at 12:27:09

; external perimeters extrusion width = 0.20mm
; perimeters extrusion width = 0.21mm
; infill extrusion width = 0.21mm
; solid infill extrusion width = 0.21mm
; top infill extrusion width = 0.21mm

; external perimeters extrusion width = 0.20mm
; perimeters extrusion width = 0.21mm
; infill extrusion width = 0.21mm
; solid infill extrusion width = 0.21mm
; top infill extrusion width = 0.21mm

M107
G28 X Y E; home all axes
G1 Z45
G21 ; set units to millimeters
G90 ; use absolute coordinates
M82 ; use absolute distances for extrusion
M400 ; wait for commands to complete
M42 P16 S0 ; turn extruder 0 off
G1 E24
T0 ; ensure we keep T0 active to prevent changing pressure
M400 ; wait for commands to complete
G1 E24 F1000.0 ; move extruder to midpoint
M400 ; wait for commands to complete
G91
G1 X-49 F1800.0 ; move over by x offset
G90
M400 ; wait for commands to complete
G1 E48 F1000.0 ; move extruder 0 into position
M400 ; wait for commands to complete
M42 P16 S0 ; turn extruder 0 off
G1 E24
G1 Z11.0 F480.000
 ; X offset of 56 Y offset of 90 and Z offset of 10.8 added.
G1 F240.00000
M400 ; wait for commands to complete
M42 P16 S0 ; turn extruder 0 off
G1 E24
T0 ; ensure we keep T0 active to prevent changing pressure
M400 ; wait for commands to complete
G1 E24 F1000.0 ; move extruder to midpoint
M400 ; wait for commands to complete
G91
G1 X49 F1800.0 ; move over by x offset
G90
M400 ; wait for commands to complete
G1 E0 F1000.0 ; move extruder 1 into position
M400 ; wait for commands to complete
M42 P17 S0 ; turn extruder 1 off
G1 E24
G1 Z11.2 F480.000
 ; X offset of 105 Y offset of 90 and Z offset of 10.8 added.
G1 F240.00000
M400 ; wait for commands to complete
M42 P17 S0 ; turn extruder 1 off
G1 E24
G1 X105.103 Y91.295 F480.000
 ; X offset of 105 Y offset of 90 and Z offset of 10.8 added.
G1 E0
M400 ; wait for commands to complete
M42 P17 S255 ; turn extruder 1 on
G1 X105.135 Y90.689 F240.000
 ; X offset of 105 Y offset of 90 and Z offset of 10.8 added.
G1 X105.199 Y90.243 ; X offset of 105 Y offset of 90 and Z offset of 10.8 added.
G1 X105.338 Y89.652 ; X offset of 105 Y offset of 90 and Z offset of 10.8 added.
G1 X105.538 Y89.079 ; X offset of 105 Y offset of 90 and Z offset of 10.8 added.
G1 X105.795 Y88.529 ; X offset of 105 Y offset of 90 and Z offset of 10.8 added.
G1 X106.108 Y88.008 ; X offset of 105 Y offset of 90 and Z offset of 10.8 added.
G1 X106.472 Y87.523 ; X offset of 105 Y offset of 90 and Z offset of 10.8 added.
G1 X106.885 Y87.077 ; X offset of 105 Y offset of 90 and Z offset of 10.8 added.
G1 X107.341 Y86.677 ; X offset of 105 Y offset of 90 and Z offset of 10.8 added.
G1 X107.836 Y86.325 ; X offset of 105 Y offset of 90 and Z offset of 10.8 added.
G1 X108.364 Y86.026 ; X offset of 105 Y offset of 90 and Z offset of 10.8 added.
G1 X108.92 Y85.783 ; X offset of 105 Y offset of 90 and Z offset of 10.8 added.
G1 X109.498 Y85.598 ; X offset of 105 Y offset of 90 and Z offset of 10.8 added.
G1 X110.093 Y85.474 ; X offset of 105 Y offset of 90 and Z offset of 10.8 added.
G1 X110.389 Y85.436 ; X offset of 105 Y offset of 90 and Z offset of 10.8 added.
G1 X111.005 Y85.403 ; X offset of 105 Y offset of 90 and Z offset of 10.8 added.
G1 X111.611 Y85.438 ; X offset of 105 Y offset of 90 and Z offset of 10.8 added.
G1 X111.908 Y85.474 ; X offset of 105 Y offset of 90 and Z offset of 10.8 added.
G1 X112.502 Y85.598 ; X offset of 105 Y offset of 90 and Z offset of 10.8 added.
G1 X113.08 Y85.783 ; X offset of 105 Y offset of 90 and Z offset of 10.8 added.
G1 X113.636 Y86.026 ; X offset of 105 Y offset of 90 and Z offset of 10.8 added.
G1 X114.164 Y86.325 ; X offset of 105 Y offset of 90 and Z offset of 10.8 added.
G1 X114.659 Y86.677 ; X offset of 105 Y offset of 90 and Z offset of 10.8 added.
G1 X115.115 Y87.077 ; X offset of 105 Y offset of 90 and Z offset of 10.8 added.
G1 X115.528 Y87.523 ; X offset of 105 Y offset of 90 and Z offset of 10.8 added.
G1 X115.892 Y88.008 ; X offset of 105 Y offset of 90 and Z offset of 10.8 added.
G1 X116.205 Y88.529 ; X offset of 105 Y offset of 90 and Z offset of 10.8 added.
G1 X116.462 Y89.079 ; X offset of 105 Y offset of 90 and Z offset of 10.8 added.
G1 X116.662 Y89.652 ; X offset of 105 Y offset of 90 and Z offset of 10.8 added.
G1 X116.801 Y90.243 ; X offset of 105 Y offset of 90 and Z offset of 10.8 added.
G1 X116.879 Y90.845 ; X offset of 105 Y offset of 90 and Z offset of 10.8 added.
G1 X116.897 Y91.305 ; X offset of 105 Y offset of 90 and Z offset of 10.8 added.
G1 X116.848 Y92.057 ; X offset of 105 Y offset of 90 and Z offset of 10.8 added.
G1 X116.74 Y92.655 ; X offset of 105 Y offset of 90 and Z offset of 10.8 added.
G1 X116.57 Y93.238 ; X offset of 105 Y offset of 90 and Z offset of 10.8 added.
G1 X116.341 Y93.8 ; X offset of 105 Y offset of 90 and Z offset of 10.8 added.
G1 X116.056 Y94.336 ; X offset of 105 Y offset of 90 and Z offset of 10.8 added.
G1 X115.717 Y94.84 ; X offset of 105 Y offset of 90 and Z offset of 10.8 added.
G1 X115.329 Y95.306 ; X offset of 105 Y offset of 90 and Z offset of 10.8 added.
G1 X114.894 Y95.73 ; X offset of 105 Y offset of 90 and Z offset of 10.8 added.
G1 X114.418 Y96.107 ; X offset of 105 Y offset of 90 and Z offset of 10.8 added.
G1 X113.905 Y96.434 ; X offset of 105 Y offset of 90 and Z offset of 10.8 added.
G1 X113.362 Y96.705 ; X offset of 105 Y offset of 90 and Z offset of 10.8 added.
G1 X112.794 Y96.92 ; X offset of 105 Y offset of 90 and Z offset of 10.8 added.
G1 X112.207 Y97.075 ; X offset of 105 Y offset of 90 and Z offset of 10.8 added.
G1 X111.607 Y97.168 ; X offset of 105 Y offset of 90 and Z offset of 10.8 added.
G1 X111.0 Y97.2 ; X offset of 105 Y offset of 90 and Z offset of 10.8 added.
G1 X110.393 Y97.168 ; X offset of 105 Y offset of 90 and Z offset of 10.8 added.
G1 X109.793 Y97.075 ; X offset of 105 Y offset of 90 and Z offset of 10.8 added.
G1 X109.206 Y96.92 ; X offset of 105 Y offset of 90 and Z offset of 10.8 added.
G1 X108.638 Y96.705 ; X offset of 105 Y offset of 90 and Z offset of 10.8 added.
G1 X108.095 Y96.434 ; X offset of 105 Y offset of 90 and Z offset of 10.8 added.
G1 X107.582 Y96.107 ; X offset of 105 Y offset of 90 and Z offset of 10.8 added.
G1 X107.106 Y95.73 ; X offset of 105 Y offset of 90 and Z offset of 10.8 added.
G1 X106.671 Y95.306 ; X offset of 105 Y offset of 90 and Z offset of 10.8 added.
G1 X106.283 Y94.84 ; X offset of 105 Y offset of 90 and Z offset of 10.8 added.
G1 X105.944 Y94.336 ; X offset of 105 Y offset of 90 and Z offset of 10.8 added.
G1 X105.659 Y93.8 ; X offset of 105 Y offset of 90 and Z offset of 10.8 added.
G1 X105.43 Y93.238 ; X offset of 105 Y offset of 90 and Z offset of 10.8 added.
G1 X105.26 Y92.655 ; X offset of 105 Y offset of 90 and Z offset of 10.8 added.
G1 X105.152 Y92.057 ; X offset of 105 Y offset of 90 and Z offset of 10.8 added.
G1 X105.103 Y91.295 ; X offset of 105 Y offset of 90 and Z offset of 10.8 added.
G1 Z11.4 F480.000
 ; X offset of 105 Y offset of 90 and Z offset of 10.8 added.
G1 F240.00000
M400 ; wait for commands to complete
M42 P17 S0 ; turn extruder 1 off
G1 E24
T0 ; ensure we keep T0 active to prevent changing pressure
M400 ; wait for commands to complete
G1 E24 F1000.0 ; move extruder to midpoint
M400 ; wait for commands to complete
G91
G1 X-49 F1800.0 ; move over by x offset
G90
M400 ; wait for commands to complete
G1 E48 F1000.0 ; move extruder 0 into position
M400 ; wait for commands to complete
M42 P16 S0 ; turn extruder 0 off
G1 E24
G1 X56.103 Y91.095 F480.000
 ; X offset of 56 Y offset of 90 and Z offset of 10.8 added.
G1 E48
M400 ; wait for commands to complete
M42 P16 S255 ; turn extruder 0 on
G1 X56.135 Y90.489 F240.000
 ; X offset of 56 Y offset of 90 and Z offset of 10.8 added.
G1 X56.199 Y90.043 ; X offset of 56 Y offset of 90 and Z offset of 10.8 added.
G1 X56.338 Y89.452 ; X offset of 56 Y offset of 90 and Z offset of 10.8 added.
G1 X56.538 Y88.879 ; X offset of 56 Y offset of 90 and Z offset of 10.8 added.
G1 X56.795 Y88.329 ; X offset of 56 Y offset of 90 and Z offset of 10.8 added.
G1 X57.108 Y87.808 ; X offset of 56 Y offset of 90 and Z offset of 10.8 added.
G1 X57.472 Y87.323 ; X offset of 56 Y offset of 90 and Z offset of 10.8 added.
G1 X57.885 Y86.877 ; X offset of 56 Y offset of 90 and Z offset of 10.8 added.
G1 X58.341 Y86.477 ; X offset of 56 Y offset of 90 and Z offset of 10.8 added.
G1 X58.836 Y86.125 ; X offset of 56 Y offset of 90 and Z offset of 10.8 added.
G1 X59.364 Y85.826 ; X offset of 56 Y offset of 90 and Z offset of 10.8 added.
G1 X59.92 Y85.583 ; X offset of 56 Y offset of 90 and Z offset of 10.8 added.
G1 X60.498 Y85.398 ; X offset of 56 Y offset of 90 and Z offset of 10.8 added.
G1 X61.093 Y85.274 ; X offset of 56 Y offset of 90 and Z offset of 10.8 added.
G1 X61.389 Y85.236 ; X offset of 56 Y offset of 90 and Z offset of 10.8 added.
G1 X62.005 Y85.203 ; X offset of 56 Y offset of 90 and Z offset of 10.8 added.
G1 X62.611 Y85.238 ; X offset of 56 Y offset of 90 and Z offset of 10.8 added.
G1 X62.908 Y85.274 ; X offset of 56 Y offset of 90 and Z offset of 10.8 added.
G1 X63.502 Y85.398 ; X offset of 56 Y offset of 90 and Z offset of 10.8 added.
G1 X64.08 Y85.583 ; X offset of 56 Y offset of 90 and Z offset of 10.8 added.
G1 X64.636 Y85.826 ; X offset of 56 Y offset of 90 and Z offset of 10.8 added.
G1 X65.164 Y86.125 ; X offset of 56 Y offset of 90 and Z offset of 10.8 added.
G1 X65.659 Y86.477 ; X offset of 56 Y offset of 90 and Z offset of 10.8 added.
G1 X66.115 Y86.877 ; X offset of 56 Y offset of 90 and Z offset of 10.8 added.
G1 X66.528 Y87.323 ; X offset of 56 Y offset of 90 and Z offset of 10.8 added.
G1 X66.892 Y87.808 ; X offset of 56 Y offset of 90 and Z offset of 10.8 added.
G1 X67.205 Y88.329 ; X offset of 56 Y offset of 90 and Z offset of 10.8 added.
G1 X67.462 Y88.879 ; X offset of 56 Y offset of 90 and Z offset of 10.8 added.
G1 X67.662 Y89.452 ; X offset of 56 Y offset of 90 and Z offset of 10.8 added.
G1 X67.801 Y90.043 ; X offset of 56 Y offset of 90 and Z offset of 10.8 added.
G1 X67.879 Y90.645 ; X offset of 56 Y offset of 90 and Z offset of 10.8 added.
G1 X67.897 Y91.105 ; X offset of 56 Y offset of 90 and Z offset of 10.8 added.
G1 X67.848 Y91.857 ; X offset of 56 Y offset of 90 and Z offset of 10.8 added.
G1 X67.74 Y92.455 ; X offset of 56 Y offset of 90 and Z offset of 10.8 added.
G1 X67.57 Y93.038 ; X offset of 56 Y offset of 90 and Z offset of 10.8 added.
G1 X67.341 Y93.6 ; X offset of 56 Y offset of 90 and Z offset of 10.8 added.
G1 X67.056 Y94.136 ; X offset of 56 Y offset of 90 and Z offset of 10.8 added.
G1 X66.717 Y94.64 ; X offset of 56 Y offset of 90 and Z offset of 10.8 added.
G1 X66.329 Y95.106 ; X offset of 56 Y offset of 90 and Z offset of 10.8 added.
G1 X65.894 Y95.53 ; X offset of 56 Y offset of 90 and Z offset of 10.8 added.
G1 X65.418 Y95.907 ; X offset of 56 Y offset of 90 and Z offset of 10.8 added.
G1 X64.905 Y96.234 ; X offset of 56 Y offset of 90 and Z offset of 10.8 added.
G1 X64.362 Y96.505 ; X offset of 56 Y offset of 90 and Z offset of 10.8 added.
G1 X63.794 Y96.72 ; X offset of 56 Y offset of 90 and Z offset of 10.8 added.
G1 X63.207 Y96.875 ; X offset of 56 Y offset of 90 and Z offset of 10.8 added.
G1 X62.611 Y96.968 ; X offset of 56 Y offset of 90 and Z offset of 10.8 added.
G1 X62.0 Y97.0 ; X offset of 56 Y offset of 90 and Z offset of 10.8 added.
G1 X61.393 Y96.968 ; X offset of 56 Y offset of 90 and Z offset of 10.8 added.
G1 X60.793 Y96.875 ; X offset of 56 Y offset of 90 and Z offset of 10.8 added.
G1 X60.206 Y96.72 ; X offset of 56 Y offset of 90 and Z offset of 10.8 added.
G1 X59.638 Y96.505 ; X offset of 56 Y offset of 90 and Z offset of 10.8 added.
G1 X59.095 Y96.234 ; X offset of 56 Y offset of 90 and Z offset of 10.8 added.
G1 X58.582 Y95.907 ; X offset of 56 Y offset of 90 and Z offset of 10.8 added.
G1 X58.106 Y95.53 ; X offset of 56 Y offset of 90 and Z offset of 10.8 added.
G1 X57.671 Y95.106 ; X offset of 56 Y offset of 90 and Z offset of 10.8 added.
G1 X57.283 Y94.64 ; X offset of 56 Y offset of 90 and Z offset of 10.8 added.
G1 X56.944 Y94.136 ; X offset of 56 Y offset of 90 and Z offset of 10.8 added.
G1 X56.659 Y93.6 ; X offset of 56 Y offset of 90 and Z offset of 10.8 added.
G1 X56.43 Y93.038 ; X offset of 56 Y offset of 90 and Z offset of 10.8 added.
G1 X56.26 Y92.455 ; X offset of 56 Y offset of 90 and Z offset of 10.8 added.
G1 X56.152 Y91.857 ; X offset of 56 Y offset of 90 and Z offset of 10.8 added.
G1 X56.103 Y91.095 ; X offset of 56 Y offset of 90 and Z offset of 10.8 added.
M106 S239.7
G1 Z11.6 F480.000
 ; X offset of 56 Y offset of 90 and Z offset of 10.8 added.
G1 F240.00000
M400 ; wait for commands to complete
M42 P16 S0 ; turn extruder 0 off
G1 E24
T0 ; ensure we keep T0 active to prevent changing pressure
M400 ; wait for commands to complete
G1 E24 F1000.0 ; move extruder to midpoint
M400 ; wait for commands to complete
G91
G1 X49 F1800.0 ; move over by x offset
G90
M400 ; wait for commands to complete
G1 E0 F1000.0 ; move extruder 1 into position
M400 ; wait for commands to complete
M42 P17 S0 ; turn extruder 1 off
G1 E24
G1 X105.103 Y91.295 F480.000
 ; X offset of 105 Y offset of 90 and Z offset of 10.8 added.
G1 E0
M400 ; wait for commands to complete
M42 P17 S255 ; turn extruder 1 on
G1 X105.135 Y90.689 F240.000
 ; X offset of 105 Y offset of 90 and Z offset of 10.8 added.
G1 X105.199 Y90.243 ; X offset of 105 Y offset of 90 and Z offset of 10.8 added.
G1 X105.338 Y89.652 ; X offset of 105 Y offset of 90 and Z offset of 10.8 added.
G1 X105.538 Y89.079 ; X offset of 105 Y offset of 90 and Z offset of 10.8 added.
G1 X105.795 Y88.529 ; X offset of 105 Y offset of 90 and Z offset of 10.8 added.
G1 X106.108 Y88.008 ; X offset of 105 Y offset of 90 and Z offset of 10.8 added.
G1 X106.472 Y87.523 ; X offset of 105 Y offset of 90 and Z offset of 10.8 added.
G1 X106.885 Y87.077 ; X offset of 105 Y offset of 90 and Z offset of 10.8 added.
G1 X107.341 Y86.677 ; X offset of 105 Y offset of 90 and Z offset of 10.8 added.
G1 X107.836 Y86.325 ; X offset of 105 Y offset of 90 and Z offset of 10.8 added.
G1 X108.364 Y86.026 ; X offset of 105 Y offset of 90 and Z offset of 10.8 added.
G1 X108.92 Y85.783 ; X offset of 105 Y offset of 90 and Z offset of 10.8 added.
G1 X109.498 Y85.598 ; X offset of 105 Y offset of 90 and Z offset of 10.8 added.
G1 X110.093 Y85.474 ; X offset of 105 Y offset of 90 and Z offset of 10.8 added.
G1 X110.389 Y85.436 ; X offset of 105 Y offset of 90 and Z offset of 10.8 added.
G1 X111.005 Y85.403 ; X offset of 105 Y offset of 90 and Z offset of 10.8 added.
G1 X111.611 Y85.438 ; X offset of 105 Y offset of 90 and Z offset of 10.8 added.
G1 X111.908 Y85.474 ; X offset of 105 Y offset of 90 and Z offset of 10.8 added.
G1 X112.502 Y85.598 ; X offset of 105 Y offset of 90 and Z offset of 10.8 added.
G1 X113.08 Y85.783 ; X offset of 105 Y offset of 90 and Z offset of 10.8 added.
G1 X113.636 Y86.026 ; X offset of 105 Y offset of 90 and Z offset of 10.8 added.
G1 X114.164 Y86.325 ; X offset of 105 Y offset of 90 and Z offset of 10.8 added.
G1 X114.659 Y86.677 ; X offset of 105 Y offset of 90 and Z offset of 10.8 added.
G1 X115.115 Y87.077 ; X offset of 105 Y offset of 90 and Z offset of 10.8 added.
G1 X115.528 Y87.523 ; X offset of 105 Y offset of 90 and Z offset of 10.8 added.
G1 X115.892 Y88.008 ; X offset of 105 Y offset of 90 and Z offset of 10.8 added.
G1 X116.205 Y88.529 ; X offset of 105 Y offset of 90 and Z offset of 10.8 added.
G1 X116.462 Y89.079 ; X offset of 105 Y offset of 90 and Z offset of 10.8 added.
G1 X116.662 Y89.652 ; X offset of 105 Y offset of 90 and Z offset of 10.8 added.
G1 X116.801 Y90.243 ; X offset of 105 Y offset of 90 and Z offset of 10.8 added.
G1 X116.879 Y90.845 ; X offset of 105 Y offset of 90 and Z offset of 10.8 added.
G1 X116.897 Y91.305 ; X offset of 105 Y offset of 90 and Z offset of 10.8 added.
G1 X116.848 Y92.057 ; X offset of 105 Y offset of 90 and Z offset of 10.8 added.
