; generated by Slic3r 1.2.9 on 2016-01-04 at 20:54:36

; external perimeters extrusion width = 0.20mm
; perimeters extrusion width = 0.21mm
; infill extrusion width = 0.21mm
; solid infill extrusion width = 0.21mm
; top infill extrusion width = 0.21mm

; external perimeters extrusion width = 0.20mm
; perimeters extrusion width = 0.21mm
; infill extrusion width = 0.21mm
; solid infill extrusion width = 0.21mm
; top infill extrusion width = 0.21mm

M107
M104 S200 T0 ; set temperature
M104 S200 T1 ; set temperature
G28 ; home all axes


M109 S200 T0 ; wait for temperature to be reached
M109 S200 T1 ; wait for temperature to be reached
G21 ; set units to millimeters
G90 ; use absolute coordinates
M82 ; use absolute distances for extrusion
G92 E0
T0
G92 E0
G1 Z0.200 F480.000
G1 X-5.897 Y-0.005 F480.000
G1 X-5.848 Y-0.757 E0.00356 F240.000
G1 X-5.740 Y-1.355 E0.00643
G1 X-5.570 Y-1.938 E0.00930
G1 X-5.341 Y-2.500 E0.01217
G1 X-5.056 Y-3.036 E0.01504
G1 X-4.717 Y-3.540 E0.01792
G1 X-4.329 Y-4.006 E0.02079
G1 X-3.894 Y-4.430 E0.02366
G1 X-3.418 Y-4.808 E0.02653
G1 X-2.905 Y-5.134 E0.02940
G1 X-2.362 Y-5.405 E0.03227
G1 X-1.794 Y-5.620 E0.03514
G1 X-1.207 Y-5.775 E0.03801
G1 X-0.611 Y-5.868 E0.04086
G1 X0.000 Y-5.900 E0.04376
G1 X0.607 Y-5.868 E0.04663
G1 X1.207 Y-5.775 E0.04950
G1 X1.794 Y-5.620 E0.05237
G1 X2.362 Y-5.405 E0.05524
G1 X2.905 Y-5.134 E0.05811
G1 X3.418 Y-4.808 E0.06098
G1 X3.894 Y-4.430 E0.06385
G1 X4.329 Y-4.006 E0.06672
G1 X4.717 Y-3.540 E0.06960
G1 X5.056 Y-3.036 E0.07247
G1 X5.341 Y-2.500 E0.07534
G1 X5.570 Y-1.938 E0.07821
G1 X5.740 Y-1.355 E0.08108
G1 X5.848 Y-0.757 E0.08395
G1 X5.897 Y-0.005 E0.08751
G1 X5.879 Y0.455 E0.08969
G1 X5.801 Y1.057 E0.09256
G1 X5.662 Y1.648 E0.09543
G1 X5.462 Y2.221 E0.09830
G1 X5.205 Y2.771 E0.10117
G1 X4.892 Y3.292 E0.10404
G1 X4.528 Y3.777 E0.10691
G1 X4.115 Y4.223 E0.10978
G1 X3.659 Y4.623 E0.11265
G1 X3.164 Y4.975 E0.11552
G1 X2.636 Y5.274 E0.11839
G1 X2.080 Y5.517 E0.12126
G1 X1.502 Y5.702 E0.12413
G1 X0.907 Y5.826 E0.12700
G1 X0.304 Y5.888 E0.12987
G1 X-0.005 Y5.896 E0.13132
G1 X-0.304 Y5.888 E0.13274
G1 X-0.907 Y5.826 E0.13561
G1 X-1.502 Y5.702 E0.13848
G1 X-2.080 Y5.517 E0.14134
G1 X-2.636 Y5.274 E0.14421
G1 X-3.164 Y4.975 E0.14708
G1 X-3.659 Y4.623 E0.14995
G1 X-4.115 Y4.223 E0.15282
G1 X-4.528 Y3.777 E0.15569
G1 X-4.892 Y3.292 E0.15856
G1 X-5.205 Y2.771 E0.16143
G1 X-5.462 Y2.221 E0.16430
G1 X-5.662 Y1.648 E0.16717
G1 X-5.801 Y1.057 E0.17004
G1 X-5.879 Y0.455 E0.17291
G1 X-5.897 Y-0.005 E0.17509
G92 E0
G1 Z0.400 F480.000
T1
G92 E0
G1 X-5.848 Y-0.757 E0.00356 F240.000
G1 X-5.740 Y-1.355 E0.00643
G1 X-5.570 Y-1.938 E0.00930
G1 X-5.341 Y-2.500 E0.01217
G1 X-5.056 Y-3.036 E0.01504
G1 X-4.717 Y-3.540 E0.01792
G1 X-4.329 Y-4.006 E0.02079
G1 X-3.894 Y-4.430 E0.02366
G1 X-3.418 Y-4.808 E0.02653
G1 X-2.905 Y-5.134 E0.02940
G1 X-2.362 Y-5.405 E0.03227
G1 X-1.794 Y-5.620 E0.03514
G1 X-1.207 Y-5.775 E0.03801
G1 X-0.611 Y-5.868 E0.04086
G1 X0.000 Y-5.900 E0.04376
G1 X0.607 Y-5.868 E0.04663
G1 X1.207 Y-5.775 E0.04950
G1 X1.794 Y-5.620 E0.05237
G1 X2.362 Y-5.405 E0.05524
G1 X2.905 Y-5.134 E0.05811
G1 X3.418 Y-4.808 E0.06098
G1 X3.894 Y-4.430 E0.06385
G1 X4.329 Y-4.006 E0.06672
G1 X4.717 Y-3.540 E0.06960
G1 X5.056 Y-3.036 E0.07247
G1 X5.341 Y-2.500 E0.07534
G1 X5.570 Y-1.938 E0.07821
G1 X5.740 Y-1.355 E0.08108
G1 X5.848 Y-0.757 E0.08395
G1 X5.897 Y-0.005 E0.08751
G1 X5.879 Y0.455 E0.08969
G1 X5.801 Y1.057 E0.09256
G1 X5.662 Y1.648 E0.09543
G1 X5.462 Y2.221 E0.09830
G1 X5.205 Y2.771 E0.10117
G1 X4.892 Y3.292 E0.10404
G1 X4.528 Y3.777 E0.10691
G1 X4.115 Y4.223 E0.10978
G1 X3.659 Y4.623 E0.11265
G1 X3.164 Y4.975 E0.11552
G1 X2.636 Y5.274 E0.11839
G1 X2.080 Y5.517 E0.12126
G1 X1.502 Y5.702 E0.12413
G1 X0.907 Y5.826 E0.12700
G1 X0.304 Y5.888 E0.12987
G1 X-0.005 Y5.896 E0.13132
G1 X-0.304 Y5.888 E0.13274
G1 X-0.907 Y5.826 E0.13561
G1 X-1.502 Y5.702 E0.13848
G1 X-2.080 Y5.517 E0.14134
G1 X-2.636 Y5.274 E0.14421
G1 X-3.164 Y4.975 E0.14708
G1 X-3.659 Y4.623 E0.14995
G1 X-4.115 Y4.223 E0.15282
G1 X-4.528 Y3.777 E0.15569
G1 X-4.892 Y3.292 E0.15856
G1 X-5.205 Y2.771 E0.16143
G1 X-5.462 Y2.221 E0.16430
G1 X-5.662 Y1.648 E0.16717
G1 X-5.801 Y1.057 E0.17004
G1 X-5.879 Y0.455 E0.17291
G1 X-5.897 Y-0.005 E0.17509
G92 E0
G1 Z0.600 F480.000
T0
G92 E0
G1 X-5.848 Y-0.757 E0.00356 F240.000
G1 X-5.740 Y-1.355 E0.00643
G1 X-5.570 Y-1.938 E0.00930
G1 X-5.341 Y-2.500 E0.01217
G1 X-5.056 Y-3.036 E0.01504
G1 X-4.717 Y-3.540 E0.01792
G1 X-4.329 Y-4.006 E0.02079
G1 X-3.894 Y-4.430 E0.02366
G1 X-3.418 Y-4.808 E0.02653
G1 X-2.905 Y-5.134 E0.02940
G1 X-2.362 Y-5.405 E0.03227
G1 X-1.794 Y-5.620 E0.03514
G1 X-1.207 Y-5.775 E0.03801
G1 X-0.611 Y-5.868 E0.04086
G1 X0.000 Y-5.900 E0.04376
G1 X0.607 Y-5.868 E0.04663
G1 X1.207 Y-5.775 E0.04950
G1 X1.794 Y-5.620 E0.05237
G1 X2.362 Y-5.405 E0.05524
G1 X2.905 Y-5.134 E0.05811
G1 X3.418 Y-4.808 E0.06098
G1 X3.894 Y-4.430 E0.06385
G1 X4.329 Y-4.006 E0.06672
G1 X4.717 Y-3.540 E0.06960
G1 X5.056 Y-3.036 E0.07247
G1 X5.341 Y-2.500 E0.07534
G1 X5.570 Y-1.938 E0.07821
G1 X5.740 Y-1.355 E0.08108
G1 X5.848 Y-0.757 E0.08395
G1 X5.897 Y-0.005 E0.08751
G1 X5.879 Y0.455 E0.08969
G1 X5.801 Y1.057 E0.09256
G1 X5.662 Y1.648 E0.09543
G1 X5.462 Y2.221 E0.09830
G1 X5.205 Y2.771 E0.10117
G1 X4.892 Y3.292 E0.10404
G1 X4.528 Y3.777 E0.10691
G1 X4.115 Y4.223 E0.10978
G1 X3.659 Y4.623 E0.11265
G1 X3.164 Y4.975 E0.11552
G1 X2.636 Y5.274 E0.11839
G1 X2.080 Y5.517 E0.12126
G1 X1.502 Y5.702 E0.12413
G1 X0.907 Y5.826 E0.12700
G1 X0.304 Y5.888 E0.12987
G1 X-0.005 Y5.896 E0.13132
G1 X-0.304 Y5.888 E0.13274
G1 X-0.907 Y5.826 E0.13561
G1 X-1.502 Y5.702 E0.13848
G1 X-2.080 Y5.517 E0.14134
G1 X-2.636 Y5.274 E0.14421
G1 X-3.164 Y4.975 E0.14708
G1 X-3.659 Y4.623 E0.14995
G1 X-4.115 Y4.223 E0.15282
G1 X-4.528 Y3.777 E0.15569
G1 X-4.892 Y3.292 E0.15856
G1 X-5.205 Y2.771 E0.16143
G1 X-5.462 Y2.221 E0.16430
G1 X-5.662 Y1.648 E0.16717
G1 X-5.801 Y1.057 E0.17004
G1 X-5.879 Y0.455 E0.17291
G1 X-5.897 Y-0.005 E0.17509
M106 S239.7
G92 E0
G1 Z0.800 F480.000
T1
G92 E0
G1 X-5.848 Y-0.757 E0.00356 F240.000
G1 X-5.740 Y-1.355 E0.00643
G1 X-5.570 Y-1.938 E0.00930
G1 X-5.341 Y-2.500 E0.01217
G1 X-5.056 Y-3.036 E0.01504
G1 X-4.717 Y-3.540 E0.01792
G1 X-4.329 Y-4.006 E0.02079
G1 X-3.894 Y-4.430 E0.02366
G1 X-3.418 Y-4.808 E0.02653
G1 X-2.905 Y-5.134 E0.02940
G1 X-2.362 Y-5.405 E0.03227
G1 X-1.794 Y-5.620 E0.03514
G1 X-1.207 Y-5.775 E0.03801
G1 X-0.611 Y-5.868 E0.04086
G1 X0.000 Y-5.900 E0.04376
G1 X0.607 Y-5.868 E0.04663
G1 X1.207 Y-5.775 E0.04950
G1 X1.794 Y-5.620 E0.05237
G1 X2.362 Y-5.405 E0.05524
G1 X2.905 Y-5.134 E0.05811
G1 X3.418 Y-4.808 E0.06098
G1 X3.894 Y-4.430 E0.06385
G1 X4.329 Y-4.006 E0.06672
G1 X4.717 Y-3.540 E0.06960
G1 X5.056 Y-3.036 E0.07247
G1 X5.341 Y-2.500 E0.07534
G1 X5.570 Y-1.938 E0.07821
G1 X5.740 Y-1.355 E0.08108
G1 X5.848 Y-0.757 E0.08395
G1 X5.897 Y-0.005 E0.08751
G1 X5.879 Y0.455 E0.08969
G1 X5.801 Y1.057 E0.09256
G1 X5.662 Y1.648 E0.09543
G1 X5.462 Y2.221 E0.09830
G1 X5.205 Y2.771 E0.10117
G1 X4.892 Y3.292 E0.10404
G1 X4.528 Y3.777 E0.10691
G1 X4.115 Y4.223 E0.10978
G1 X3.659 Y4.623 E0.11265
G1 X3.164 Y4.975 E0.11552
G1 X2.636 Y5.274 E0.11839
G1 X2.080 Y5.517 E0.12126
G1 X1.502 Y5.702 E0.12413
G1 X0.907 Y5.826 E0.12700
G1 X0.304 Y5.888 E0.12987
G1 X-0.005 Y5.896 E0.13132
G1 X-0.304 Y5.888 E0.13274
G1 X-0.907 Y5.826 E0.13561
G1 X-1.502 Y5.702 E0.13848
G1 X-2.080 Y5.517 E0.14134
G1 X-2.636 Y5.274 E0.14421
G1 X-3.164 Y4.975 E0.14708
G1 X-3.659 Y4.623 E0.14995
G1 X-4.115 Y4.223 E0.15282
G1 X-4.528 Y3.777 E0.15569
G1 X-4.892 Y3.292 E0.15856
G1 X-5.205 Y2.771 E0.16143
G1 X-5.462 Y2.221 E0.16430
G1 X-5.662 Y1.648 E0.16717
G1 X-5.801 Y1.057 E0.17004
G1 X-5.879 Y0.455 E0.17291
G1 X-5.897 Y-0.005 E0.17509
G92 E0
G1 Z1.000 F480.000
T0
G92 E0
G1 X-5.848 Y-0.757 E0.00356 F240.000
G1 X-5.740 Y-1.355 E0.00643
G1 X-5.570 Y-1.938 E0.00930
G1 X-5.341 Y-2.500 E0.01217
G1 X-5.056 Y-3.036 E0.01504
G1 X-4.717 Y-3.540 E0.01792
G1 X-4.329 Y-4.006 E0.02079
G1 X-3.894 Y-4.430 E0.02366
G1 X-3.418 Y-4.808 E0.02653
G1 X-2.905 Y-5.134 E0.02940
G1 X-2.362 Y-5.405 E0.03227
G1 X-1.794 Y-5.620 E0.03514
G1 X-1.207 Y-5.775 E0.03801
G1 X-0.611 Y-5.868 E0.04086
G1 X0.000 Y-5.900 E0.04376
G1 X0.607 Y-5.868 E0.04663
G1 X1.207 Y-5.775 E0.04950
G1 X1.794 Y-5.620 E0.05237
G1 X2.362 Y-5.405 E0.05524
G1 X2.905 Y-5.134 E0.05811
G1 X3.418 Y-4.808 E0.06098
G1 X3.894 Y-4.430 E0.06385
G1 X4.329 Y-4.006 E0.06672
G1 X4.717 Y-3.540 E0.06960
G1 X5.056 Y-3.036 E0.07247
G1 X5.341 Y-2.500 E0.07534
G1 X5.570 Y-1.938 E0.07821
G1 X5.740 Y-1.355 E0.08108
G1 X5.848 Y-0.757 E0.08395
G1 X5.897 Y-0.005 E0.08751
G1 X5.879 Y0.455 E0.08969
G1 X5.801 Y1.057 E0.09256
G1 X5.662 Y1.648 E0.09543
G1 X5.462 Y2.221 E0.09830
G1 X5.205 Y2.771 E0.10117
G1 X4.892 Y3.292 E0.10404
G1 X4.528 Y3.777 E0.10691
G1 X4.115 Y4.223 E0.10978
G1 X3.659 Y4.623 E0.11265
G1 X3.164 Y4.975 E0.11552
G1 X2.636 Y5.274 E0.11839
G1 X2.080 Y5.517 E0.12126
G1 X1.502 Y5.702 E0.12413
G1 X0.907 Y5.826 E0.12700
G1 X0.304 Y5.888 E0.12987
G1 X-0.005 Y5.896 E0.13132
G1 X-0.304 Y5.888 E0.13274
G1 X-0.907 Y5.826 E0.13561
G1 X-1.502 Y5.702 E0.13848
G1 X-2.080 Y5.517 E0.14134
G1 X-2.636 Y5.274 E0.14421
G1 X-3.164 Y4.975 E0.14708
G1 X-3.659 Y4.623 E0.14995
G1 X-4.115 Y4.223 E0.15282
G1 X-4.528 Y3.777 E0.15569
G1 X-4.892 Y3.292 E0.15856
G1 X-5.205 Y2.771 E0.16143
G1 X-5.462 Y2.221 E0.16430
G1 X-5.662 Y1.648 E0.16717
G1 X-5.801 Y1.057 E0.17004
G1 X-5.879 Y0.455 E0.17291
G1 X-5.897 Y-0.005 E0.17509
G92 E0
G1 Z1.200 F480.000
T1
G92 E0
G1 X-5.848 Y-0.757 E0.00356 F240.000
G1 X-5.740 Y-1.355 E0.00643
G1 X-5.570 Y-1.938 E0.00930
G1 X-5.341 Y-2.500 E0.01217
G1 X-5.056 Y-3.036 E0.01504
G1 X-4.717 Y-3.540 E0.01792
G1 X-4.329 Y-4.006 E0.02079
G1 X-3.894 Y-4.430 E0.02366
G1 X-3.418 Y-4.808 E0.02653
G1 X-2.905 Y-5.134 E0.02940
G1 X-2.362 Y-5.405 E0.03227
G1 X-1.794 Y-5.620 E0.03514
G1 X-1.207 Y-5.775 E0.03801
G1 X-0.611 Y-5.868 E0.04086
G1 X0.000 Y-5.900 E0.04376
G1 X0.607 Y-5.868 E0.04663
G1 X1.207 Y-5.775 E0.04950
G1 X1.794 Y-5.620 E0.05237
G1 X2.362 Y-5.405 E0.05524
G1 X2.905 Y-5.134 E0.05811
G1 X3.418 Y-4.808 E0.06098
G1 X3.894 Y-4.430 E0.06385
G1 X4.329 Y-4.006 E0.06672
G1 X4.717 Y-3.540 E0.06960
G1 X5.056 Y-3.036 E0.07247
G1 X5.341 Y-2.500 E0.07534
G1 X5.570 Y-1.938 E0.07821
G1 X5.740 Y-1.355 E0.08108
G1 X5.848 Y-0.757 E0.08395
G1 X5.897 Y-0.005 E0.08751
G1 X5.879 Y0.455 E0.08969
G1 X5.801 Y1.057 E0.09256
G1 X5.662 Y1.648 E0.09543
G1 X5.462 Y2.221 E0.09830
G1 X5.205 Y2.771 E0.10117
G1 X4.892 Y3.292 E0.10404
G1 X4.528 Y3.777 E0.10691
G1 X4.115 Y4.223 E0.10978
G1 X3.659 Y4.623 E0.11265
G1 X3.164 Y4.975 E0.11552
G1 X2.636 Y5.274 E0.11839
G1 X2.080 Y5.517 E0.12126
G1 X1.502 Y5.702 E0.12413
G1 X0.907 Y5.826 E0.12700
G1 X0.304 Y5.888 E0.12987
G1 X-0.005 Y5.896 E0.13132
G1 X-0.304 Y5.888 E0.13274
G1 X-0.907 Y5.826 E0.13561
G1 X-1.502 Y5.702 E0.13848
G1 X-2.080 Y5.517 E0.14134
G1 X-2.636 Y5.274 E0.14421
G1 X-3.164 Y4.975 E0.14708
G1 X-3.659 Y4.623 E0.14995
G1 X-4.115 Y4.223 E0.15282
G1 X-4.528 Y3.777 E0.15569
G1 X-4.892 Y3.292 E0.15856
G1 X-5.205 Y2.771 E0.16143
G1 X-5.462 Y2.221 E0.16430
G1 X-5.662 Y1.648 E0.16717
G1 X-5.801 Y1.057 E0.17004
G1 X-5.879 Y0.455 E0.17291
G1 X-5.897 Y-0.005 E0.17509
G92 E0
G1 Z1.400 F480.000
T0
G92 E0
G1 X-5.848 Y-0.757 E0.00356 F240.000
G1 X-5.740 Y-1.355 E0.00643
G1 X-5.570 Y-1.938 E0.00930
G1 X-5.341 Y-2.500 E0.01217
G1 X-5.056 Y-3.036 E0.01504
G1 X-4.717 Y-3.540 E0.01792
G1 X-4.329 Y-4.006 E0.02079
G1 X-3.894 Y-4.430 E0.02366
G1 X-3.418 Y-4.808 E0.02653
G1 X-2.905 Y-5.134 E0.02940
G1 X-2.362 Y-5.405 E0.03227
G1 X-1.794 Y-5.620 E0.03514
G1 X-1.207 Y-5.775 E0.03801
G1 X-0.611 Y-5.868 E0.04086
G1 X0.000 Y-5.900 E0.04376
G1 X0.607 Y-5.868 E0.04663
G1 X1.207 Y-5.775 E0.04950
G1 X1.794 Y-5.620 E0.05237
G1 X2.362 Y-5.405 E0.05524
G1 X2.905 Y-5.134 E0.05811
G1 X3.418 Y-4.808 E0.06098
G1 X3.894 Y-4.430 E0.06385
G1 X4.329 Y-4.006 E0.06672
G1 X4.717 Y-3.540 E0.06960
G1 X5.056 Y-3.036 E0.07247
G1 X5.341 Y-2.500 E0.07534
G1 X5.570 Y-1.938 E0.07821
G1 X5.740 Y-1.355 E0.08108
G1 X5.848 Y-0.757 E0.08395
G1 X5.897 Y-0.005 E0.08751
G1 X5.879 Y0.455 E0.08969
G1 X5.801 Y1.057 E0.09256
G1 X5.662 Y1.648 E0.09543
G1 X5.462 Y2.221 E0.09830
G1 X5.205 Y2.771 E0.10117
G1 X4.892 Y3.292 E0.10404
G1 X4.528 Y3.777 E0.10691
G1 X4.115 Y4.223 E0.10978
G1 X3.659 Y4.623 E0.11265
G1 X3.164 Y4.975 E0.11552
G1 X2.636 Y5.274 E0.11839
G1 X2.080 Y5.517 E0.12126
G1 X1.502 Y5.702 E0.12413
G1 X0.907 Y5.826 E0.12700
G1 X0.304 Y5.888 E0.12987
G1 X-0.005 Y5.896 E0.13132
G1 X-0.304 Y5.888 E0.13274
G1 X-0.907 Y5.826 E0.13561
G1 X-1.502 Y5.702 E0.13848
G1 X-2.080 Y5.517 E0.14134
G1 X-2.636 Y5.274 E0.14421
G1 X-3.164 Y4.975 E0.14708
G1 X-3.659 Y4.623 E0.14995
G1 X-4.115 Y4.223 E0.15282
G1 X-4.528 Y3.777 E0.15569
G1 X-4.892 Y3.292 E0.15856
G1 X-5.205 Y2.771 E0.16143
G1 X-5.462 Y2.221 E0.16430
G1 X-5.662 Y1.648 E0.16717
G1 X-5.801 Y1.057 E0.17004
G1 X-5.879 Y0.455 E0.17291
G1 X-5.897 Y-0.005 E0.17509
G92 E0
G1 Z1.600 F480.000
T1
G92 E0
G1 X-5.848 Y-0.757 E0.00356 F240.000
G1 X-5.740 Y-1.355 E0.00643
G1 X-5.570 Y-1.938 E0.00930
G1 X-5.341 Y-2.500 E0.01217
G1 X-5.056 Y-3.036 E0.01504
G1 X-4.717 Y-3.540 E0.01792
G1 X-4.329 Y-4.006 E0.02079
G1 X-3.894 Y-4.430 E0.02366
G1 X-3.418 Y-4.808 E0.02653
G1 X-2.905 Y-5.134 E0.02940
G1 X-2.362 Y-5.405 E0.03227
G1 X-1.794 Y-5.620 E0.03514
G1 X-1.207 Y-5.775 E0.03801
G1 X-0.611 Y-5.868 E0.04086
G1 X0.000 Y-5.900 E0.04376
G1 X0.607 Y-5.868 E0.04663
G1 X1.207 Y-5.775 E0.04950
G1 X1.794 Y-5.620 E0.05237
G1 X2.362 Y-5.405 E0.05524
G1 X2.905 Y-5.134 E0.05811
G1 X3.418 Y-4.808 E0.06098
G1 X3.894 Y-4.430 E0.06385
G1 X4.329 Y-4.006 E0.06672
G1 X4.717 Y-3.540 E0.06960
G1 X5.056 Y-3.036 E0.07247
G1 X5.341 Y-2.500 E0.07534
G1 X5.570 Y-1.938 E0.07821
G1 X5.740 Y-1.355 E0.08108
G1 X5.848 Y-0.757 E0.08395
G1 X5.897 Y-0.005 E0.08751
G1 X5.879 Y0.455 E0.08969
G1 X5.801 Y1.057 E0.09256
G1 X5.662 Y1.648 E0.09543
G1 X5.462 Y2.221 E0.09830
G1 X5.205 Y2.771 E0.10117
G1 X4.892 Y3.292 E0.10404
G1 X4.528 Y3.777 E0.10691
G1 X4.115 Y4.223 E0.10978
G1 X3.659 Y4.623 E0.11265
G1 X3.164 Y4.975 E0.11552
G1 X2.636 Y5.274 E0.11839
G1 X2.080 Y5.517 E0.12126
G1 X1.502 Y5.702 E0.12413
G1 X0.907 Y5.826 E0.12700
G1 X0.304 Y5.888 E0.12987
G1 X-0.005 Y5.896 E0.13132
G1 X-0.304 Y5.888 E0.13274
G1 X-0.907 Y5.826 E0.13561
G1 X-1.502 Y5.702 E0.13848
G1 X-2.080 Y5.517 E0.14134
G1 X-2.636 Y5.274 E0.14421
G1 X-3.164 Y4.975 E0.14708
G1 X-3.659 Y4.623 E0.14995
G1 X-4.115 Y4.223 E0.15282
G1 X-4.528 Y3.777 E0.15569
G1 X-4.892 Y3.292 E0.15856
G1 X-5.205 Y2.771 E0.16143
G1 X-5.462 Y2.221 E0.16430
G1 X-5.662 Y1.648 E0.16717
G1 X-5.801 Y1.057 E0.17004
G1 X-5.879 Y0.455 E0.17291
G1 X-5.897 Y-0.005 E0.17509
G92 E0
G1 Z1.800 F480.000
T0
G92 E0
G1 X-5.848 Y-0.757 E0.00356 F240.000
G1 X-5.740 Y-1.355 E0.00643
G1 X-5.570 Y-1.938 E0.00930
G1 X-5.341 Y-2.500 E0.01217
G1 X-5.056 Y-3.036 E0.01504
G1 X-4.717 Y-3.540 E0.01792
G1 X-4.329 Y-4.006 E0.02079
G1 X-3.894 Y-4.430 E0.02366
G1 X-3.418 Y-4.808 E0.02653
G1 X-2.905 Y-5.134 E0.02940
G1 X-2.362 Y-5.405 E0.03227
G1 X-1.794 Y-5.620 E0.03514
G1 X-1.207 Y-5.775 E0.03801
G1 X-0.611 Y-5.868 E0.04086
G1 X0.000 Y-5.900 E0.04376
G1 X0.607 Y-5.868 E0.04663
G1 X1.207 Y-5.775 E0.04950
G1 X1.794 Y-5.620 E0.05237
G1 X2.362 Y-5.405 E0.05524
G1 X2.905 Y-5.134 E0.05811
G1 X3.418 Y-4.808 E0.06098
G1 X3.894 Y-4.430 E0.06385
G1 X4.329 Y-4.006 E0.06672
G1 X4.717 Y-3.540 E0.06960
G1 X5.056 Y-3.036 E0.07247
G1 X5.341 Y-2.500 E0.07534
G1 X5.570 Y-1.938 E0.07821
G1 X5.740 Y-1.355 E0.08108
G1 X5.848 Y-0.757 E0.08395
G1 X5.897 Y-0.005 E0.08751
G1 X5.879 Y0.455 E0.08969
G1 X5.801 Y1.057 E0.09256
G1 X5.662 Y1.648 E0.09543
G1 X5.462 Y2.221 E0.09830
G1 X5.205 Y2.771 E0.10117
G1 X4.892 Y3.292 E0.10404
G1 X4.528 Y3.777 E0.10691
G1 X4.115 Y4.223 E0.10978
G1 X3.659 Y4.623 E0.11265
G1 X3.164 Y4.975 E0.11552
G1 X2.636 Y5.274 E0.11839
G1 X2.080 Y5.517 E0.12126
G1 X1.502 Y5.702 E0.12413
G1 X0.907 Y5.826 E0.12700
G1 X0.304 Y5.888 E0.12987
G1 X-0.005 Y5.896 E0.13132
G1 X-0.304 Y5.888 E0.13274
G1 X-0.907 Y5.826 E0.13561
G1 X-1.502 Y5.702 E0.13848
G1 X-2.080 Y5.517 E0.14134
G1 X-2.636 Y5.274 E0.14421
G1 X-3.164 Y4.975 E0.14708
