; generated by Slic3r 1.2.9 on 2015-12-22 at 19:01:43

; external perimeters extrusion width = 0.20mm
; perimeters extrusion width = 0.21mm
; infill extrusion width = 0.21mm
; solid infill extrusion width = 0.21mm
; top infill extrusion width = 0.21mm

; external perimeters extrusion width = 0.20mm
; perimeters extrusion width = 0.21mm
; infill extrusion width = 0.21mm
; solid infill extrusion width = 0.21mm
; top infill extrusion width = 0.21mm

G28 ; home all axes
G1 Z16.2 F5000 ; lift nozzle
 ; X offset of 56 Y offset of 90 and Z offset of 11.2 added.
G21 ; set units to millimeters
G90 ; use absolute coordinates
M82 ; use absolute distances for extrusion
G1 E24
M400 ; wait for commands to complete
M42 P16 S0 ; turn extruder 0 off
T0 ; ensure we keep T0 active to prevent changing pressure
M400 ; wait for commands to complete
G1 E24 F100.0 ; move extruder to midpoint
M400 ; wait for commands to complete
G91
G1 X-49 F1800.0 ; move over by x offset
G90
M400 ; wait for commands to complete
G1 E48 F100.0 ; move extruder 0 into position
G1 E24
M400 ; wait for commands to complete
M42 P16 S0 ; turn extruder 0 off
G1 F1800.00000
G1 E24
M400 ; wait for commands to complete
M42 P16 S0 ; turn extruder 0 off
G1 Z11.4 F480.000
 ; X offset of 56 Y offset of 90 and Z offset of 11.2 added.
G1 X56.101 Y88.267 F480.000
 ; X offset of 56 Y offset of 90 and Z offset of 11.2 added.
G1 E48
M400 ; wait for commands to complete
M42 P16 S255 ; turn extruder 0 on
G1 X55.419 Y88.227 F240.000
 ; X offset of 56 Y offset of 90 and Z offset of 11.2 added.
G1 X54.709 Y88.102 ; X offset of 56 Y offset of 90 and Z offset of 11.2 added.
G1 X54.019 Y87.895 ; X offset of 56 Y offset of 90 and Z offset of 11.2 added.
G1 X53.356 Y87.61 ; X offset of 56 Y offset of 90 and Z offset of 11.2 added.
G1 X52.732 Y87.249 ; X offset of 56 Y offset of 90 and Z offset of 11.2 added.
G1 X52.154 Y86.819 ; X offset of 56 Y offset of 90 and Z offset of 11.2 added.
G1 X51.629 Y86.324 ; X offset of 56 Y offset of 90 and Z offset of 11.2 added.
G1 X51.166 Y85.771 ; X offset of 56 Y offset of 90 and Z offset of 11.2 added.
G1 X50.763 Y85.157 ; X offset of 56 Y offset of 90 and Z offset of 11.2 added.
G1 X50.446 Y84.525 ; X offset of 56 Y offset of 90 and Z offset of 11.2 added.
G1 X50.199 Y83.847 ; X offset of 56 Y offset of 90 and Z offset of 11.2 added.
G1 X50.033 Y83.146 ; X offset of 56 Y offset of 90 and Z offset of 11.2 added.
G1 X49.949 Y82.43 ; X offset of 56 Y offset of 90 and Z offset of 11.2 added.
G1 X49.949 Y81.709 ; X offset of 56 Y offset of 90 and Z offset of 11.2 added.
G1 X50.033 Y80.992 ; X offset of 56 Y offset of 90 and Z offset of 11.2 added.
G1 X50.204 Y80.277 ; X offset of 56 Y offset of 90 and Z offset of 11.2 added.
G1 X50.446 Y79.613 ; X offset of 56 Y offset of 90 and Z offset of 11.2 added.
G1 X50.77 Y78.969 ; X offset of 56 Y offset of 90 and Z offset of 11.2 added.
G1 X51.166 Y78.366 ; X offset of 56 Y offset of 90 and Z offset of 11.2 added.
G1 X51.629 Y77.814 ; X offset of 56 Y offset of 90 and Z offset of 11.2 added.
G1 X52.165 Y77.311 ; X offset of 56 Y offset of 90 and Z offset of 11.2 added.
G1 X52.732 Y76.889 ; X offset of 56 Y offset of 90 and Z offset of 11.2 added.
G1 X53.356 Y76.528 ; X offset of 56 Y offset of 90 and Z offset of 11.2 added.
G1 X54.019 Y76.243 ; X offset of 56 Y offset of 90 and Z offset of 11.2 added.
G1 X54.71 Y76.036 ; X offset of 56 Y offset of 90 and Z offset of 11.2 added.
G1 X55.434 Y75.91 ; X offset of 56 Y offset of 90 and Z offset of 11.2 added.
G1 X56.139 Y75.869 F240.000
 ; X offset of 56 Y offset of 90 and Z offset of 11.2 added.
G1 X56.859 Y75.911 ; X offset of 56 Y offset of 90 and Z offset of 11.2 added.
G1 X57.569 Y76.036 ; X offset of 56 Y offset of 90 and Z offset of 11.2 added.
G1 X58.26 Y76.243 ; X offset of 56 Y offset of 90 and Z offset of 11.2 added.
G1 X58.922 Y76.528 ; X offset of 56 Y offset of 90 and Z offset of 11.2 added.
G1 X59.546 Y76.889 ; X offset of 56 Y offset of 90 and Z offset of 11.2 added.
G1 X60.125 Y77.319 ; X offset of 56 Y offset of 90 and Z offset of 11.2 added.
G1 X60.649 Y77.814 ; X offset of 56 Y offset of 90 and Z offset of 11.2 added.
G1 X61.113 Y78.367 ; X offset of 56 Y offset of 90 and Z offset of 11.2 added.
G1 X61.515 Y78.982 ; X offset of 56 Y offset of 90 and Z offset of 11.2 added.
G1 X61.832 Y79.613 ; X offset of 56 Y offset of 90 and Z offset of 11.2 added.
G1 X62.079 Y80.291 ; X offset of 56 Y offset of 90 and Z offset of 11.2 added.
G1 X62.245 Y80.992 ; X offset of 56 Y offset of 90 and Z offset of 11.2 added.
G1 X62.329 Y81.709 ; X offset of 56 Y offset of 90 and Z offset of 11.2 added.
G1 X62.327 Y82.444 ; X offset of 56 Y offset of 90 and Z offset of 11.2 added.
G1 X62.245 Y83.146 ; X offset of 56 Y offset of 90 and Z offset of 11.2 added.
G1 X62.079 Y83.847 ; X offset of 56 Y offset of 90 and Z offset of 11.2 added.
G1 X61.832 Y84.525 ; X offset of 56 Y offset of 90 and Z offset of 11.2 added.
G1 X61.509 Y85.169 ; X offset of 56 Y offset of 90 and Z offset of 11.2 added.
G1 X61.113 Y85.772 ; X offset of 56 Y offset of 90 and Z offset of 11.2 added.
G1 X60.649 Y86.324 ; X offset of 56 Y offset of 90 and Z offset of 11.2 added.
G1 X60.113 Y86.827 ; X offset of 56 Y offset of 90 and Z offset of 11.2 added.
G1 X59.546 Y87.249 ; X offset of 56 Y offset of 90 and Z offset of 11.2 added.
G1 X58.922 Y87.61 ; X offset of 56 Y offset of 90 and Z offset of 11.2 added.
G1 X58.26 Y87.895 ; X offset of 56 Y offset of 90 and Z offset of 11.2 added.
G1 X57.569 Y88.102 ; X offset of 56 Y offset of 90 and Z offset of 11.2 added.
G1 X56.859 Y88.227 ; X offset of 56 Y offset of 90 and Z offset of 11.2 added.
G1 X56.131 Y88.269 ; X offset of 56 Y offset of 90 and Z offset of 11.2 added.
G1 X56.043 Y89.364 F480.000
 ; X offset of 56 Y offset of 90 and Z offset of 11.2 added.
G1 X55.376 Y89.329 F240.000
 ; X offset of 56 Y offset of 90 and Z offset of 11.2 added.
G1 X54.621 Y89.209 ; X offset of 56 Y offset of 90 and Z offset of 11.2 added.
G1 X53.883 Y89.012 ; X offset of 56 Y offset of 90 and Z offset of 11.2 added.
G1 X53.17 Y88.738 ; X offset of 56 Y offset of 90 and Z offset of 11.2 added.
G1 X52.503 Y88.398 ; X offset of 56 Y offset of 90 and Z offset of 11.2 added.
G1 X51.848 Y87.975 ; X offset of 56 Y offset of 90 and Z offset of 11.2 added.
G1 X51.255 Y87.494 ; X offset of 56 Y offset of 90 and Z offset of 11.2 added.
G1 X50.714 Y86.954 ; X offset of 56 Y offset of 90 and Z offset of 11.2 added.
G1 X50.234 Y86.36 ; X offset of 56 Y offset of 90 and Z offset of 11.2 added.
G1 X49.817 Y85.719 ; X offset of 56 Y offset of 90 and Z offset of 11.2 added.
G1 X49.471 Y85.038 ; X offset of 56 Y offset of 90 and Z offset of 11.2 added.
G1 X49.197 Y84.325 ; X offset of 56 Y offset of 90 and Z offset of 11.2 added.
G1 X48.999 Y83.587 ; X offset of 56 Y offset of 90 and Z offset of 11.2 added.
G1 X48.879 Y82.832 ; X offset of 56 Y offset of 90 and Z offset of 11.2 added.
G1 X48.839 Y82.069 ; X offset of 56 Y offset of 90 and Z offset of 11.2 added.
G1 X48.879 Y81.306 ; X offset of 56 Y offset of 90 and Z offset of 11.2 added.
G1 X48.999 Y80.551 ; X offset of 56 Y offset of 90 and Z offset of 11.2 added.
G1 X49.197 Y79.813 ; X offset of 56 Y offset of 90 and Z offset of 11.2 added.
G1 X49.471 Y79.1 ; X offset of 56 Y offset of 90 and Z offset of 11.2 added.
G1 X49.817 Y78.419 ; X offset of 56 Y offset of 90 and Z offset of 11.2 added.
G1 X50.234 Y77.778 ; X offset of 56 Y offset of 90 and Z offset of 11.2 added.
G1 X50.705 Y77.197 ; X offset of 56 Y offset of 90 and Z offset of 11.2 added.
G1 X51.255 Y76.644 ; X offset of 56 Y offset of 90 and Z offset of 11.2 added.
G1 X51.849 Y76.163 ; X offset of 56 Y offset of 90 and Z offset of 11.2 added.
G1 X52.489 Y75.747 ; X offset of 56 Y offset of 90 and Z offset of 11.2 added.
G1 X53.17 Y75.4 ; X offset of 56 Y offset of 90 and Z offset of 11.2 added.
G1 X53.883 Y75.127 ; X offset of 56 Y offset of 90 and Z offset of 11.2 added.
G1 X54.621 Y74.929 ; X offset of 56 Y offset of 90 and Z offset of 11.2 added.
G1 X55.376 Y74.809 ; X offset of 56 Y offset of 90 and Z offset of 11.2 added.
G1 X56.139 Y74.769 ; X offset of 56 Y offset of 90 and Z offset of 11.2 added.
G1 X56.887 Y74.809 ; X offset of 56 Y offset of 90 and Z offset of 11.2 added.
G1 X57.657 Y74.929 F240.000
 ; X offset of 56 Y offset of 90 and Z offset of 11.2 added.
G1 X58.395 Y75.127 ; X offset of 56 Y offset of 90 and Z offset of 11.2 added.
G1 X59.108 Y75.4 ; X offset of 56 Y offset of 90 and Z offset of 11.2 added.
G1 X59.789 Y75.747 ; X offset of 56 Y offset of 90 and Z offset of 11.2 added.
G1 X60.43 Y76.163 ; X offset of 56 Y offset of 90 and Z offset of 11.2 added.
G1 X61.024 Y76.644 ; X offset of 56 Y offset of 90 and Z offset of 11.2 added.
G1 X61.564 Y77.185 ; X offset of 56 Y offset of 90 and Z offset of 11.2 added.
G1 X62.045 Y77.778 ; X offset of 56 Y offset of 90 and Z offset of 11.2 added.
G1 X62.461 Y78.419 ; X offset of 56 Y offset of 90 and Z offset of 11.2 added.
G1 X62.808 Y79.1 ; X offset of 56 Y offset of 90 and Z offset of 11.2 added.
G1 X63.082 Y79.813 ; X offset of 56 Y offset of 90 and Z offset of 11.2 added.
G1 X63.279 Y80.551 ; X offset of 56 Y offset of 90 and Z offset of 11.2 added.
G1 X63.399 Y81.306 ; X offset of 56 Y offset of 90 and Z offset of 11.2 added.
G1 X63.439 Y82.069 ; X offset of 56 Y offset of 90 and Z offset of 11.2 added.
G1 X63.399 Y82.832 ; X offset of 56 Y offset of 90 and Z offset of 11.2 added.
G1 X63.279 Y83.587 ; X offset of 56 Y offset of 90 and Z offset of 11.2 added.
G1 X63.082 Y84.325 ; X offset of 56 Y offset of 90 and Z offset of 11.2 added.
G1 X62.808 Y85.038 ; X offset of 56 Y offset of 90 and Z offset of 11.2 added.
G1 X62.461 Y85.719 ; X offset of 56 Y offset of 90 and Z offset of 11.2 added.
G1 X62.045 Y86.36 ; X offset of 56 Y offset of 90 and Z offset of 11.2 added.
G1 X61.564 Y86.954 ; X offset of 56 Y offset of 90 and Z offset of 11.2 added.
G1 X61.024 Y87.494 ; X offset of 56 Y offset of 90 and Z offset of 11.2 added.
G1 X60.442 Y87.965 ; X offset of 56 Y offset of 90 and Z offset of 11.2 added.
G1 X59.789 Y88.391 ; X offset of 56 Y offset of 90 and Z offset of 11.2 added.
G1 X59.108 Y88.738 ; X offset of 56 Y offset of 90 and Z offset of 11.2 added.
G1 X58.395 Y89.012 ; X offset of 56 Y offset of 90 and Z offset of 11.2 added.
G1 X57.657 Y89.209 ; X offset of 56 Y offset of 90 and Z offset of 11.2 added.
G1 X56.902 Y89.329 ; X offset of 56 Y offset of 90 and Z offset of 11.2 added.
G1 X56.073 Y89.365 ; X offset of 56 Y offset of 90 and Z offset of 11.2 added.
G1 X54.004 Y88.801 F480.000
 ; X offset of 56 Y offset of 90 and Z offset of 11.2 added.
G1 X52.77 Y87.567 F240.000
 ; X offset of 56 Y offset of 90 and Z offset of 11.2 added.
G1 X53.136 Y88.439 F480.000
 ; X offset of 56 Y offset of 90 and Z offset of 11.2 added.
G1 X49.769 Y85.072 F240.000
 ; X offset of 56 Y offset of 90 and Z offset of 11.2 added.
G1 X50.168 Y84.458 F480.000
 ; X offset of 56 Y offset of 90 and Z offset of 11.2 added.
G1 X49.215 Y83.505 F240.000
 ; X offset of 56 Y offset of 90 and Z offset of 11.2 added.
G1 X49.407 Y84.204 F480.000
 ; X offset of 56 Y offset of 90 and Z offset of 11.2 added.
G1 X50.622 Y85.419 F240.000
 ; X offset of 56 Y offset of 90 and Z offset of 11.2 added.
G1 X50.729 Y86.539 F480.000
 ; X offset of 56 Y offset of 90 and Z offset of 11.2 added.
G1 X51.669 Y87.479 F240.000
 ; X offset of 56 Y offset of 90 and Z offset of 11.2 added.
G1 X53.76 Y88.049 F480.000
 ; X offset of 56 Y offset of 90 and Z offset of 11.2 added.
G1 X54.703 Y88.993 F240.000
 ; X offset of 56 Y offset of 90 and Z offset of 11.2 added.
G1 X55.312 Y89.095 ; X offset of 56 Y offset of 90 and Z offset of 11.2 added.
G1 X54.499 Y88.282 ; X offset of 56 Y offset of 90 and Z offset of 11.2 added.
G1 X55.124 Y88.401 ; X offset of 56 Y offset of 90 and Z offset of 11.2 added.
G1 X55.866 Y89.142 ; X offset of 56 Y offset of 90 and Z offset of 11.2 added.
G1 X56.382 Y89.152 ; X offset of 56 Y offset of 90 and Z offset of 11.2 added.
G1 X55.686 Y88.456 ; X offset of 56 Y offset of 90 and Z offset of 11.2 added.
G1 X56.206 Y88.469 ; X offset of 56 Y offset of 90 and Z offset of 11.2 added.
G1 X56.863 Y89.127 ; X offset of 56 Y offset of 90 and Z offset of 11.2 added.
G1 X57.309 Y89.065 ; X offset of 56 Y offset of 90 and Z offset of 11.2 added.
G1 X56.685 Y88.441 ; X offset of 56 Y offset of 90 and Z offset of 11.2 added.
G1 X57.129 Y88.379 ; X offset of 56 Y offset of 90 and Z offset of 11.2 added.
G1 X57.74 Y88.99 ; X offset of 56 Y offset of 90 and Z offset of 11.2 added.
G1 X58.139 Y88.883 ; X offset of 56 Y offset of 90 and Z offset of 11.2 added.
G1 X57.559 Y88.303 ; X offset of 56 Y offset of 90 and Z offset of 11.2 added.
G1 X57.949 Y88.186 ; X offset of 56 Y offset of 90 and Z offset of 11.2 added.
G1 X58.526 Y88.762 ; X offset of 56 Y offset of 90 and Z offset of 11.2 added.
G1 X58.892 Y88.622 ; X offset of 56 Y offset of 90 and Z offset of 11.2 added.
G1 X58.334 Y88.064 ; X offset of 56 Y offset of 90 and Z offset of 11.2 added.
G1 X58.688 Y87.911 ; X offset of 56 Y offset of 90 and Z offset of 11.2 added.
G1 X59.242 Y88.466 ; X offset of 56 Y offset of 90 and Z offset of 11.2 added.
G1 X59.578 Y88.295 ; X offset of 56 Y offset of 90 and Z offset of 11.2 added.
G1 X59.036 Y87.752 ; X offset of 56 Y offset of 90 and Z offset of 11.2 added.
G1 X59.357 Y87.567 ; X offset of 56 Y offset of 90 and Z offset of 11.2 added.
G1 X59.897 Y88.107 ; X offset of 56 Y offset of 90 and Z offset of 11.2 added.
G1 X60.204 Y87.907 ; X offset of 56 Y offset of 90 and Z offset of 11.2 added.
G1 X59.673 Y87.376 ; X offset of 56 Y offset of 90 and Z offset of 11.2 added.
G1 X59.964 Y87.16 ; X offset of 56 Y offset of 90 and Z offset of 11.2 added.
G1 X60.496 Y87.693 ; X offset of 56 Y offset of 90 and Z offset of 11.2 added.
G1 X60.775 Y87.465 ; X offset of 56 Y offset of 90 and Z offset of 11.2 added.
G1 X60.251 Y86.94 ; X offset of 56 Y offset of 90 and Z offset of 11.2 added.
G1 X60.512 Y86.695 ; X offset of 56 Y offset of 90 and Z offset of 11.2 added.
G1 X61.028 Y87.211 ; X offset of 56 Y offset of 90 and Z offset of 11.2 added.
G1 X61.282 Y86.958 ; X offset of 56 Y offset of 90 and Z offset of 11.2 added.
G1 X60.773 Y86.45 ; X offset of 56 Y offset of 90 and Z offset of 11.2 added.
G1 X61.005 Y86.175 ; X offset of 56 Y offset of 90 and Z offset of 11.2 added.
G1 X61.535 Y86.705 ; X offset of 56 Y offset of 90 and Z offset of 11.2 added.
G1 X61.763 Y86.426 ; X offset of 56 Y offset of 90 and Z offset of 11.2 added.
G1 X61.236 Y85.899 ; X offset of 56 Y offset of 90 and Z offset of 11.2 added.
G1 X61.441 Y85.597 ; X offset of 56 Y offset of 90 and Z offset of 11.2 added.
G1 X61.978 Y86.135 ; X offset of 56 Y offset of 90 and Z offset of 11.2 added.
G1 X62.177 Y85.827 ; X offset of 56 Y offset of 90 and Z offset of 11.2 added.
G1 X61.642 Y85.292 ; X offset of 56 Y offset of 90 and Z offset of 11.2 added.
G1 X61.817 Y84.96 ; X offset of 56 Y offset of 90 and Z offset of 11.2 added.
G1 X62.365 Y85.508 ; X offset of 56 Y offset of 90 and Z offset of 11.2 added.
G1 X62.536 Y85.172 ; X offset of 56 Y offset of 90 and Z offset of 11.2 added.
G1 X61.987 Y84.623 ; X offset of 56 Y offset of 90 and Z offset of 11.2 added.
G1 X62.128 Y84.258 ; X offset of 56 Y offset of 90 and Z offset of 11.2 added.
G1 X62.692 Y84.822 ; X offset of 56 Y offset of 90 and Z offset of 11.2 added.
G1 X62.833 Y84.456 ; X offset of 56 Y offset of 90 and Z offset of 11.2 added.
G1 X62.263 Y83.886 ; X offset of 56 Y offset of 90 and Z offset of 11.2 added.
G1 X62.364 Y83.48 ; X offset of 56 Y offset of 90 and Z offset of 11.2 added.
G1 X62.953 Y84.069 ; X offset of 56 Y offset of 90 and Z offset of 11.2 added.
G1 X63.06 Y83.67 ; X offset of 56 Y offset of 90 and Z offset of 11.2 added.
G1 X62.456 Y83.065 ; X offset of 56 Y offset of 90 and Z offset of 11.2 added.
G1 X62.509 Y82.612 ; X offset of 56 Y offset of 90 and Z offset of 11.2 added.
