; generated by Slic3r 1.2.9 on 2015-12-22 at 19:01:43

; external perimeters extrusion width = 0.20mm
; perimeters extrusion width = 0.21mm
; infill extrusion width = 0.21mm
; solid infill extrusion width = 0.21mm
; top infill extrusion width = 0.21mm

; external perimeters extrusion width = 0.20mm
; perimeters extrusion width = 0.21mm
; infill extrusion width = 0.21mm
; solid infill extrusion width = 0.21mm
; top infill extrusion width = 0.21mm

M104 S200 T0 ; set temperature
M104 S200 T1 ; set temperature
G28 ; home all axes
G1 Z5 F5000 ; lift nozzle
M109 S200 T0 ; wait for temperature to be reached
M109 S200 T1 ; wait for temperature to be reached
G21 ; set units to millimeters
G90 ; use absolute coordinates
M82 ; use absolute distances for extrusion
G92 E0
T0
G92 E0
G1 E-1.00000 F1800.00000
G92 E0
G1 Z0.200 F480.000
G1 X0.101 Y-1.733 F480.000
G1 E1.00000 F1800.00000
G1 X-0.581 Y-1.773 E1.00690 F240.000
G1 X-1.291 Y-1.898 E1.01418
G1 X-1.981 Y-2.105 E1.02147
G1 X-2.644 Y-2.390 E1.02875
G1 X-3.268 Y-2.751 E1.03604
G1 X-3.846 Y-3.181 E1.04332
G1 X-4.371 Y-3.676 E1.05061
G1 X-4.834 Y-4.229 E1.05789
G1 X-5.237 Y-4.843 E1.06532
G1 X-5.554 Y-5.475 E1.07246
G1 X-5.801 Y-6.153 E1.07974
G1 X-5.967 Y-6.854 E1.08703
G1 X-6.051 Y-7.570 E1.09431
G1 X-6.051 Y-8.291 E1.10160
G1 X-5.967 Y-9.008 E1.10889
G1 X-5.796 Y-9.723 E1.11631
G1 X-5.554 Y-10.387 E1.12345
G1 X-5.230 Y-11.031 E1.13074
G1 X-4.834 Y-11.634 E1.13802
G1 X-4.371 Y-12.186 E1.14531
G1 X-3.835 Y-12.689 E1.15273
G1 X-3.268 Y-13.111 E1.15988
G1 X-2.644 Y-13.472 E1.16716
G1 X-1.981 Y-13.757 E1.17445
G1 X-1.290 Y-13.964 E1.18173
G1 X-0.566 Y-14.090 E1.18916
G1 X0.139 Y-14.131 E1.19630 F240.000
G1 X0.859 Y-14.089 E1.20358
G1 X1.569 Y-13.964 E1.21087
G1 X2.260 Y-13.757 E1.21815
G1 X2.922 Y-13.472 E1.22544
G1 X3.546 Y-13.111 E1.23272
G1 X4.125 Y-12.681 E1.24001
G1 X4.649 Y-12.186 E1.24729
G1 X5.113 Y-11.633 E1.25458
G1 X5.515 Y-11.018 E1.26201
G1 X5.832 Y-10.387 E1.26915
G1 X6.079 Y-9.709 E1.27643
G1 X6.245 Y-9.008 E1.28372
G1 X6.329 Y-8.291 E1.29100
G1 X6.327 Y-7.556 E1.29843
G1 X6.245 Y-6.854 E1.30557
G1 X6.079 Y-6.153 E1.31285
G1 X5.832 Y-5.475 E1.32014
G1 X5.509 Y-4.831 E1.32742
G1 X5.113 Y-4.228 E1.33471
G1 X4.649 Y-3.676 E1.34200
G1 X4.113 Y-3.173 E1.34942
G1 X3.546 Y-2.751 E1.35656
G1 X2.922 Y-2.390 E1.36385
G1 X2.260 Y-2.105 E1.37113
G1 X1.569 Y-1.898 E1.37842
G1 X0.859 Y-1.773 E1.38570
G1 X0.131 Y-1.731 E1.39307
G1 X0.043 Y-0.636 F480.000
G1 X-0.624 Y-0.671 E1.39982 F240.000
G1 X-1.379 Y-0.791 E1.40754
G1 X-2.117 Y-0.988 E1.41526
G1 X-2.830 Y-1.262 E1.42298
G1 X-3.497 Y-1.602 E1.43054
G1 X-4.152 Y-2.025 E1.43842
G1 X-4.745 Y-2.506 E1.44614
G1 X-5.286 Y-3.046 E1.45386
G1 X-5.766 Y-3.640 E1.46158
G1 X-6.183 Y-4.281 E1.46930
G1 X-6.529 Y-4.962 E1.47702
G1 X-6.803 Y-5.675 E1.48474
G1 X-7.001 Y-6.413 E1.49246
G1 X-7.121 Y-7.168 E1.50018
G1 X-7.161 Y-7.931 E1.50790
G1 X-7.121 Y-8.694 E1.51562
G1 X-7.001 Y-9.449 E1.52334
G1 X-6.803 Y-10.187 E1.53106
G1 X-6.529 Y-10.900 E1.53877
G1 X-6.183 Y-11.581 E1.54649
G1 X-5.766 Y-12.222 E1.55421
G1 X-5.295 Y-12.803 E1.56178
G1 X-4.745 Y-13.356 E1.56965
G1 X-4.151 Y-13.837 E1.57737
G1 X-3.511 Y-14.253 E1.58509
G1 X-2.830 Y-14.600 E1.59281
G1 X-2.117 Y-14.873 E1.60053
G1 X-1.379 Y-15.071 E1.60825
G1 X-0.624 Y-15.191 E1.61597
G1 X0.139 Y-15.231 E1.62369
G1 X0.887 Y-15.191 E1.63125
G1 X1.657 Y-15.071 E1.63913 F240.000
G1 X2.395 Y-14.873 E1.64685
G1 X3.108 Y-14.600 E1.65457
G1 X3.789 Y-14.253 E1.66229
G1 X4.430 Y-13.837 E1.67001
G1 X5.024 Y-13.356 E1.67773
G1 X5.564 Y-12.815 E1.68545
G1 X6.045 Y-12.222 E1.69317
G1 X6.461 Y-11.581 E1.70089
G1 X6.808 Y-10.900 E1.70861
G1 X7.082 Y-10.187 E1.71633
G1 X7.279 Y-9.449 E1.72405
G1 X7.399 Y-8.694 E1.73177
G1 X7.439 Y-7.931 E1.73949
G1 X7.399 Y-7.168 E1.74720
G1 X7.279 Y-6.413 E1.75492
G1 X7.082 Y-5.675 E1.76264
G1 X6.808 Y-4.962 E1.77036
G1 X6.461 Y-4.281 E1.77808
G1 X6.045 Y-3.640 E1.78580
G1 X5.564 Y-3.046 E1.79352
G1 X5.024 Y-2.506 E1.80124
G1 X4.442 Y-2.035 E1.80881
G1 X3.789 Y-1.609 E1.81668
G1 X3.108 Y-1.262 E1.82440
G1 X2.395 Y-0.988 E1.83212
G1 X1.657 Y-0.791 E1.83984
G1 X0.902 Y-0.671 E1.84756
G1 X0.073 Y-0.635 E1.85594
G1 X-1.996 Y-1.199 F480.000
G1 X-3.230 Y-2.433 E1.87363 F240.000
G1 X-2.864 Y-1.561 F480.000
G1 X-6.231 Y-4.928 E1.92190 F240.000
G1 X-5.832 Y-5.542 F480.000
G1 X-6.785 Y-6.495 E1.93557 F240.000
G1 X-6.593 Y-5.796 F480.000
G1 X-5.378 Y-4.581 E1.95298 F240.000
G1 X-5.271 Y-3.461 F480.000
G1 X-4.331 Y-2.521 E1.96645 F240.000
G1 X-2.240 Y-1.951 F480.000
G1 X-1.297 Y-1.007 E1.97998 F240.000
G1 X-0.688 Y-0.905 E1.98624
G1 X-1.501 Y-1.718 E1.99789
G1 X-0.876 Y-1.599 E2.00435
G1 X-0.134 Y-0.858 E2.01498
G1 X0.382 Y-0.848 E2.02021
G1 X-0.314 Y-1.544 E2.03019
G1 X0.206 Y-1.531 E2.03547
G1 X0.863 Y-0.873 E2.04489
G1 X1.309 Y-0.935 E2.04945
G1 X0.685 Y-1.559 E2.05839
G1 X1.129 Y-1.621 E2.06293
G1 X1.740 Y-1.010 E2.07169
G1 X2.139 Y-1.117 E2.07588
G1 X1.559 Y-1.697 E2.08420
G1 X1.949 Y-1.814 E2.08832
G1 X2.526 Y-1.238 E2.09659
G1 X2.892 Y-1.378 E2.10056
G1 X2.334 Y-1.936 E2.10856
G1 X2.688 Y-2.089 E2.11247
G1 X3.242 Y-1.534 E2.12042
G1 X3.578 Y-1.705 E2.12423
G1 X3.036 Y-2.248 E2.13201
G1 X3.357 Y-2.433 E2.13577
G1 X3.897 Y-1.893 E2.14352
G1 X4.204 Y-2.093 E2.14723
G1 X3.673 Y-2.624 E2.15483
G1 X3.964 Y-2.840 E2.15850
G1 X4.496 Y-2.307 E2.16614
G1 X4.775 Y-2.535 E2.16979
G1 X4.251 Y-3.060 E2.17731
G1 X4.512 Y-3.305 E2.18094
G1 X5.028 Y-2.789 E2.18835
G1 X5.282 Y-3.042 E2.19198
G1 X4.773 Y-3.550 E2.19927
G1 X5.005 Y-3.825 E2.20291
G1 X5.535 Y-3.295 E2.21051
G1 X5.763 Y-3.574 E2.21416
G1 X5.236 Y-4.101 E2.22171
G1 X5.441 Y-4.403 E2.22541
G1 X5.978 Y-3.865 E2.23311
G1 X6.177 Y-4.173 E2.23682
G1 X5.642 Y-4.708 E2.24450
G1 X5.817 Y-5.040 E2.24830
G1 X6.365 Y-4.492 E2.25615
G1 X6.536 Y-4.828 E2.25997
G1 X5.987 Y-5.377 E2.26784
G1 X6.128 Y-5.742 E2.27181
G1 X6.692 Y-5.178 E2.27989
G1 X6.833 Y-5.544 E2.28387
G1 X6.263 Y-6.114 E2.29203
G1 X6.364 Y-6.520 E2.29627
G1 X6.953 Y-5.931 E2.30472
G1 X7.060 Y-6.330 E2.30891
G1 X6.456 Y-6.935 E2.31757
G1 X6.509 Y-7.388 E2.32220
G1 X7.135 Y-6.762 E2.33118
G1 X7.197 Y-7.207 E2.33574
G1 X6.536 Y-7.868 E2.34522
G1 X6.537 Y-8.373 E2.35034
G1 X7.222 Y-7.688 E2.36016
G1 X7.212 Y-8.204 E2.36540
G1 X6.471 Y-8.946 E2.37603
G1 X6.343 Y-9.580 E2.38259
G1 X7.165 Y-8.758 E2.39438
G1 X7.063 Y-9.367 E2.40064
G1 X6.110 Y-10.320 E2.41430
G1 X6.509 Y-10.934 F480.000
G1 X3.142 Y-14.301 E2.46257 F240.000
G1 X2.519 Y-13.911 F480.000
G1 X1.575 Y-14.855 E2.47610 F240.000
G1 X2.274 Y-14.663 F480.000
G1 X3.508 Y-13.429 E2.49379 F240.000
G1 X4.609 Y-13.341 F480.000
G1 X5.549 Y-12.401 E2.50726 F240.000
G1 X5.656 Y-11.280 F480.000
G1 X6.871 Y-10.066 E2.52467 F240.000
G1 E1.52467 F1800.00000
G92 E0
G1 X1.779 Y-14.144 F480.000
G1 E1.00000 F1800.00000
G1 X0.968 Y-14.956 E1.01164 F240.000
G1 X0.413 Y-15.004 E1.01729
G1 X1.154 Y-14.263 E1.02791
G1 X0.593 Y-14.318 E1.03363
G1 X-0.104 Y-15.014 E1.04361
G1 X-0.585 Y-14.989 E1.04850
G1 X0.072 Y-14.331 E1.05792
G1 X-0.407 Y-14.303 E1.06278
G1 X-1.030 Y-14.927 E1.07172
G1 X-1.461 Y-14.851 E1.07616
G1 X-0.850 Y-14.240 E1.08493
G1 X-1.281 Y-14.165 E1.08937
G1 X-1.861 Y-14.744 E1.09768
G1 X-2.247 Y-14.624 E1.10179
G1 X-1.671 Y-14.048 E1.11005
G1 X-2.056 Y-13.926 E1.11414
G1 X-2.614 Y-14.484 E1.12214
G1 X-2.964 Y-14.327 E1.12603
G1 X-2.410 Y-13.773 E1.13398
G1 X-2.757 Y-13.614 E1.13785
G1 X-3.300 Y-14.156 E1.14563
G1 X-3.619 Y-13.969 E1.14938
G1 X-3.078 Y-13.429 E1.15713
G1 X-3.395 Y-13.238 E1.16087
G1 X-3.926 Y-13.770 E1.16849
G1 X-4.218 Y-13.555 E1.17217
G1 X-3.685 Y-13.022 E1.17981
G1 X-3.972 Y-12.802 E1.18347
G1 X-4.497 Y-13.327 E1.19099
G1 X-4.750 Y-13.073 E1.19462
G1 X-4.233 Y-12.557 E1.20202
G1 X-4.495 Y-12.312 E1.20566
G1 X-5.003 Y-12.820 E1.21295
G1 X-5.257 Y-12.567 E1.21658
G1 X-4.727 Y-12.037 E1.22417
G1 X-4.958 Y-11.761 E1.22782
G1 X-5.485 Y-12.288 E1.23537
G1 X-5.700 Y-11.996 E1.23905
G1 X-5.163 Y-11.459 E1.24674
G1 X-5.364 Y-11.154 E1.25045
G1 X-5.899 Y-11.689 E1.25813
G1 X-6.086 Y-11.370 E1.26188
G1 X-5.539 Y-10.822 E1.26973
G1 X-5.708 Y-10.485 E1.27356
G1 X-6.257 Y-11.034 E1.28143
G1 X-6.414 Y-10.684 E1.28532
G1 X-5.850 Y-10.120 E1.29340
G1 X-5.985 Y-9.748 E1.29741
G1 X-6.554 Y-10.318 E1.30557
G1 X-6.674 Y-9.931 E1.30967
G1 X-6.085 Y-9.341 E1.31813
G1 X-6.177 Y-8.927 E1.32243
G1 X-6.781 Y-9.531 E1.33109
G1 X-6.857 Y-9.100 E1.33553
G1 X-6.230 Y-8.474 E1.34451
G1 X-6.258 Y-7.995 E1.34937
G1 X-6.918 Y-8.655 E1.35883
G1 X-6.944 Y-8.174 E1.36372
G1 X-6.258 Y-7.489 E1.37354
G1 X-6.193 Y-6.916 E1.37938
G1 X-6.934 Y-7.658 E1.39001
G1 X-6.887 Y-7.104 E1.39564
G1 X-6.065 Y-6.282 E1.40743
G1 E0.40743 F1800.00000
G92 E0
G1 Z0.200 F480.000
T1
G92 E0
G1 E-1.00000 F1800.00000
G92 E0
G1 X-2.418 Y2.173 F480.000
G1 E1.00000 F1800.00000
G1 X-2.260 Y2.105 E1.00174 F240.000
G1 X-1.569 Y1.898 E1.00903
G1 X-0.845 Y1.772 E1.01645
G1 X-0.139 Y1.731 E1.02359 F240.000
G1 X0.581 Y1.773 E1.03088
G1 X1.291 Y1.898 E1.03816
G1 X1.981 Y2.105 E1.04545
G1 X2.644 Y2.390 E1.05273
G1 X3.268 Y2.751 E1.06002
G1 X3.846 Y3.181 E1.06730
G1 X4.371 Y3.676 E1.07459
G1 X4.834 Y4.229 E1.08187
G1 X5.237 Y4.843 E1.08930
G1 X5.554 Y5.475 E1.09644
G1 X5.801 Y6.153 E1.10373
G1 X5.967 Y6.854 E1.11101
G1 X6.051 Y7.571 E1.11830
G1 X6.049 Y8.306 E1.12572
G1 X5.967 Y9.008 E1.13286
G1 X5.801 Y9.709 E1.14015
G1 X5.554 Y10.387 E1.14743
G1 X5.230 Y11.031 E1.15472
G1 X4.834 Y11.634 E1.16200
G1 X4.371 Y12.186 E1.16929
G1 X3.835 Y12.689 E1.17672
G1 X3.268 Y13.111 E1.18386
G1 X2.644 Y13.472 E1.19114
G1 X1.981 Y13.757 E1.19843
G1 X1.291 Y13.964 E1.20571
G1 X0.581 Y14.089 E1.21300
G1 X-0.139 Y14.131 E1.22028
G1 X-0.859 Y14.089 E1.22757
G1 X-1.569 Y13.964 E1.23485
G1 X-2.260 Y13.757 E1.24214
G1 X-2.922 Y13.472 E1.24942
G1 X-3.546 Y13.111 E1.25671
G1 X-4.125 Y12.681 E1.26399
G1 X-4.649 Y12.186 E1.27127
G1 X-5.113 Y11.633 E1.27856
G1 X-5.515 Y11.018 E1.28599
G1 X-5.832 Y10.387 E1.29313
G1 X-6.079 Y9.709 E1.30041
G1 X-6.245 Y9.008 E1.30770
G1 X-6.329 Y8.291 E1.31498
G1 X-6.329 Y7.570 E1.32227
G1 X-6.245 Y6.854 E1.32955
G1 X-6.074 Y6.139 E1.33698
G1 X-5.832 Y5.475 E1.34412
G1 X-5.509 Y4.831 E1.35141
G1 X-5.113 Y4.228 E1.35869
G1 X-4.649 Y3.676 E1.36598
G1 X-4.113 Y3.173 E1.37340
G1 X-3.546 Y2.751 E1.38054
G1 X-2.922 Y2.390 E1.38783
G1 X-2.446 Y2.185 E1.39307
G1 X-2.811 Y1.148 F480.000
G1 X-2.395 Y0.988 E1.39758 F240.000
G1 X-1.657 Y0.791 E1.40530
G1 X-0.902 Y0.671 E1.41302
G1 X-0.139 Y0.631 E1.42074
G1 X0.608 Y0.670 E1.42830
G1 X1.379 Y0.791 E1.43618 F240.000
G1 X2.117 Y0.988 E1.44389
G1 X2.830 Y1.262 E1.45161
G1 X3.511 Y1.609 E1.45933
G1 X4.151 Y2.025 E1.46705
G1 X4.745 Y2.506 E1.47477
G1 X5.286 Y3.046 E1.48249
G1 X5.766 Y3.640 E1.49021
G1 X6.183 Y4.281 E1.49793
G1 X6.529 Y4.962 E1.50565
G1 X6.803 Y5.675 E1.51337
G1 X7.001 Y6.413 E1.52109
G1 X7.121 Y7.168 E1.52881
G1 X7.161 Y7.931 E1.53653
G1 X7.121 Y8.694 E1.54425
G1 X7.001 Y9.449 E1.55197
G1 X6.803 Y10.187 E1.55969
G1 X6.529 Y10.900 E1.56741
G1 X6.183 Y11.581 E1.57513
G1 X5.766 Y12.222 E1.58285
G1 X5.286 Y12.815 E1.59057
G1 X4.745 Y13.356 E1.59829
G1 X4.164 Y13.827 E1.60585
G1 X3.510 Y14.253 E1.61373
G1 X2.830 Y14.600 E1.62145
G1 X2.117 Y14.873 E1.62916
G1 X1.379 Y15.071 E1.63688
G1 X0.624 Y15.191 E1.64460
G1 X-0.139 Y15.231 E1.65232
G1 X-0.902 Y15.191 E1.66004
G1 X-1.657 Y15.071 E1.66776
G1 X-2.395 Y14.873 E1.67548
G1 X-3.108 Y14.600 E1.68320
G1 X-3.775 Y14.260 E1.69077
G1 X-4.430 Y13.836 E1.69864
G1 X-5.024 Y13.356 E1.70636
G1 X-5.564 Y12.815 E1.71408
G1 X-6.045 Y12.222 E1.72180
G1 X-6.461 Y11.581 E1.72952
G1 X-6.808 Y10.900 E1.73724
G1 X-7.082 Y10.187 E1.74496
G1 X-7.279 Y9.449 E1.75268
G1 X-7.399 Y8.694 E1.76040
G1 X-7.439 Y7.931 E1.76812
G1 X-7.399 Y7.168 E1.77584
G1 X-7.279 Y6.413 E1.78356
G1 X-7.082 Y5.675 E1.79128
G1 X-6.808 Y4.962 E1.79900
G1 X-6.461 Y4.281 E1.80672
G1 X-6.045 Y3.640 E1.81444
G1 X-5.574 Y3.059 E1.82200
G1 X-5.023 Y2.506 E1.82988
G1 X-4.430 Y2.025 E1.83759
G1 X-3.789 Y1.609 E1.84531
G1 X-3.108 Y1.262 E1.85303
G1 X-2.839 Y1.159 E1.85595
G1 X1.297 Y1.007 F480.000
G1 X2.240 Y1.951 E1.86947 F240.000
G1 X2.864 Y1.561 F480.000
G1 X6.231 Y4.928 E1.91775 F240.000
G1 X5.832 Y5.542 F480.000
G1 X6.785 Y6.495 E1.93141 F240.000
G1 X6.887 Y7.104 E1.93766
G1 X6.065 Y6.282 E1.94945
G1 X6.193 Y6.916 E1.95602
G1 X6.934 Y7.658 E1.96664
G1 X6.944 Y8.174 E1.97188
G1 X6.258 Y7.489 E1.98170
G1 X6.257 Y7.994 E1.98682
G1 X6.918 Y8.655 E1.99630
G1 X6.857 Y9.100 E2.00086
G1 X6.230 Y8.474 E2.00984
G1 X6.177 Y8.927 E2.01447
G1 X6.781 Y9.531 E2.02313
G1 X6.674 Y9.931 E2.02733
G1 X6.085 Y9.342 E2.03577
G1 X5.985 Y9.748 E2.04001
G1 X6.554 Y10.318 E2.04817
G1 X6.414 Y10.684 E2.05215
G1 X5.850 Y10.120 E2.06023
G1 X5.708 Y10.485 E2.06420
G1 X6.257 Y11.034 E2.07207
G1 X6.086 Y11.370 E2.07589
G1 X5.539 Y10.822 E2.08374
G1 X5.364 Y11.154 E2.08754
G1 X5.899 Y11.689 E2.09522
G1 X5.700 Y11.996 E2.09893
G1 X5.163 Y11.459 E2.10663
G1 X4.958 Y11.761 E2.11033
G1 X5.485 Y12.288 E2.11788
G1 X5.257 Y12.567 E2.12153
G1 X4.727 Y12.037 E2.12913
G1 X4.495 Y12.312 E2.13277
G1 X5.003 Y12.820 E2.14006
G1 X4.750 Y13.073 E2.14369
G1 X4.233 Y12.557 E2.15110
G1 X3.972 Y12.802 E2.15473
G1 X4.497 Y13.327 E2.16225
G1 X4.218 Y13.555 E2.16590
G1 X3.685 Y13.022 E2.17354
G1 X3.395 Y13.238 E2.17721
G1 X3.925 Y13.769 E2.18481
G1 X3.619 Y13.969 E2.18853
G1 X3.078 Y13.429 E2.19627
G1 X2.757 Y13.614 E2.20003
G1 X3.300 Y14.156 E2.20781
G1 X2.964 Y14.327 E2.21163
G1 X2.410 Y13.773 E2.21957
G1 X2.056 Y13.926 E2.22348
G1 X2.614 Y14.484 E2.23148
G1 X2.247 Y14.624 E2.23546
G1 X1.671 Y14.048 E2.24372
G1 X1.281 Y14.165 E2.24785
G1 X1.861 Y14.744 E2.25616
G1 X1.461 Y14.851 E2.26035
G1 X0.850 Y14.241 E2.26911
G1 X0.407 Y14.303 E2.27366
G1 X1.030 Y14.927 E2.28260
G1 X0.585 Y14.989 E2.28715
G1 X-0.072 Y14.331 E2.29658
G1 X-0.593 Y14.318 E2.30185
G1 X0.104 Y15.014 E2.31183
G1 X-0.413 Y15.004 E2.31707
G1 X-1.154 Y14.263 E2.32769
G1 X-1.779 Y14.144 E2.33415
G1 X-0.966 Y14.957 E2.34581
G1 X-1.575 Y14.855 E2.35207
G1 X-2.519 Y13.911 E2.36559
G1 X-3.142 Y14.301 F480.000
G1 X-6.509 Y10.934 E2.41386 F240.000
G1 X-6.110 Y10.320 F480.000
G1 X-7.063 Y9.367 E2.42752 F240.000
G1 X-6.871 Y10.066 F480.000
G1 X-5.656 Y11.280 E2.44494 F240.000
G1 X-5.549 Y12.401 F480.000
G1 X-4.609 Y13.341 E2.45841 F240.000
G1 X-3.508 Y13.429 F480.000
G1 X-2.274 Y14.663 E2.47610 F240.000
G1 E1.47610 F1800.00000
G92 E0
G1 X-6.343 Y9.580 F480.000
G1 E1.00000 F1800.00000
G1 X-7.165 Y8.758 E1.01179 F240.000
G1 X-7.212 Y8.204 E1.01742
G1 X-6.471 Y8.946 E1.02805
G1 X-6.537 Y8.373 E1.03389
G1 X-7.222 Y7.688 E1.04371
G1 X-7.197 Y7.207 E1.04860
G1 X-6.537 Y7.867 E1.05806
G1 X-6.509 Y7.388 E1.06292
G1 X-7.135 Y6.762 E1.07190
G1 X-7.060 Y6.330 E1.07634
G1 X-6.456 Y6.935 E1.08500
G1 X-6.363 Y6.520 E1.08930
G1 X-6.953 Y5.931 E1.09776
G1 X-6.833 Y5.544 E1.10186
G1 X-6.263 Y6.114 E1.11002
G1 X-6.128 Y5.742 E1.11403
G1 X-6.692 Y5.178 E1.12211
G1 X-6.536 Y4.828 E1.12600
G1 X-5.987 Y5.377 E1.13387
G1 X-5.817 Y5.040 E1.13770
G1 X-6.365 Y4.492 E1.14555
G1 X-6.177 Y4.173 E1.14930
G1 X-5.642 Y4.708 E1.15698
G1 X-5.441 Y4.403 E1.16069
G1 X-5.978 Y3.866 E1.16838
G1 X-5.763 Y3.574 E1.17206
G1 X-5.236 Y4.101 E1.17961
G1 X-5.005 Y3.825 E1.18326
G1 X-5.535 Y3.295 E1.19085
G1 X-5.282 Y3.042 E1.19448
G1 X-4.773 Y3.550 E1.20177
G1 X-4.512 Y3.305 E1.20541
G1 X-5.028 Y2.789 E1.21281
G1 X-4.775 Y2.535 E1.21644
G1 X-4.251 Y3.060 E1.22396
G1 X-3.964 Y2.840 E1.22762
G1 X-4.496 Y2.307 E1.23526
G1 X-4.205 Y2.092 E1.23894
G1 X-3.673 Y2.624 E1.24656
G1 X-3.357 Y2.433 E1.25030
G1 X-3.897 Y1.893 E1.25805
G1 X-3.578 Y1.705 E1.26180
G1 X-3.036 Y2.248 E1.26958
G1 X-2.688 Y2.089 E1.27345
G1 X-3.242 Y1.534 E1.28140
G1 X-2.892 Y1.378 E1.28529
G1 X-2.334 Y1.936 E1.29329
G1 X-1.949 Y1.814 E1.29738
G1 X-2.526 Y1.238 E1.30564
G1 X-2.139 Y1.117 E1.30975
G1 X-1.559 Y1.697 E1.31806
G1 X-1.128 Y1.622 E1.32250
G1 X-1.740 Y1.010 E1.33127
G1 X-1.309 Y0.935 E1.33571
G1 X-0.685 Y1.559 E1.34465
G1 X-0.206 Y1.531 E1.34951
G1 X-0.863 Y0.873 E1.35893
G1 X-0.382 Y0.848 E1.36382
G1 X0.314 Y1.544 E1.37380
G1 X0.876 Y1.599 E1.37952
G1 X0.134 Y0.858 E1.39014
G1 X0.689 Y0.906 E1.39579
G1 X1.501 Y1.718 E1.40743
G1 X1.996 Y1.199 F480.000
G1 X3.230 Y2.433 E1.42512 F240.000
