; generated by Slic3r 1.2.9 on 2015-12-23 at 12:50:26

; external perimeters extrusion width = 0.20mm
; perimeters extrusion width = 0.21mm
; infill extrusion width = 0.21mm
; solid infill extrusion width = 0.21mm
; top infill extrusion width = 0.21mm

; external perimeters extrusion width = 0.20mm
; perimeters extrusion width = 0.21mm
; infill extrusion width = 0.21mm
; solid infill extrusion width = 0.21mm
; top infill extrusion width = 0.21mm

M107
G1 Z45
G1 E10.2
G28 X Y
G21
G1 X56 Y90 F1000
G21 ; set units to millimeters
G90 ; use absolute coordinates
M82 ; use absolute distances for extrusion
M400 ; wait for commands to complete
M42 P16 S0 ; turn extruder 0 off
G1 E13.0
T0 ; ensure we keep T0 active to prevent changing pressure
M400 ; wait for commands to complete
G1 E23.2 F1000.0 ; move extruder to midpoint
M400 ; wait for commands to complete
G91
G1 X-49 F1800.0 ; move over by x offset
G90
M400 ; wait for commands to complete
G1 E36.2 F1000.0 ; move extruder 0 into position
M400 ; wait for commands to complete
M42 P16 S0 ; turn extruder 0 off
G1 E13.0
G1 Z0.2 F480.000
 ; X offset of 56 Y offset of 90 and Z offset of 0 added.
G1 F240.00000
M400 ; wait for commands to complete
M42 P16 S0 ; turn extruder 0 off
G1 E13.0
T0 ; ensure we keep T0 active to prevent changing pressure
M400 ; wait for commands to complete
G1 E23.2 F1000.0 ; move extruder to midpoint
M400 ; wait for commands to complete
G91
G1 X49 F1800.0 ; move over by x offset
G90
M400 ; wait for commands to complete
G1 E10.2 F1000.0 ; move extruder 1 into position
M400 ; wait for commands to complete
M42 P17 S0 ; turn extruder 1 off
G1 E13.0
G1 F240.00000
M400 ; wait for commands to complete
M42 P17 S0 ; turn extruder 1 off
G1 E13.0
G1 X105.125 Y75.25 F480.000
 ; X offset of 105 Y offset of 90 and Z offset of 0 added.
G1 E10.2 ; Move extruder to E1 position of 10.2
M400 ; wait for commands to complete
M42 P17 S255 ; turn extruder 1 on
G1 X105.183 Y74.174 F240.000
 ; X offset of 105 Y offset of 90 and Z offset of 0 added.
G1 X105.355 Y73.11 ; X offset of 105 Y offset of 90 and Z offset of 0 added.
G1 X105.639 Y72.07 ; X offset of 105 Y offset of 90 and Z offset of 0 added.
G1 X106.032 Y71.067 ; X offset of 105 Y offset of 90 and Z offset of 0 added.
G1 X106.529 Y70.111 ; X offset of 105 Y offset of 90 and Z offset of 0 added.
G1 X107.125 Y69.213 ; X offset of 105 Y offset of 90 and Z offset of 0 added.
G1 X107.906 Y68.285 ; X offset of 105 Y offset of 90 and Z offset of 0 added.
G1 X108.692 Y67.54 ; X offset of 105 Y offset of 90 and Z offset of 0 added.
G1 X109.432 Y66.968 ; X offset of 105 Y offset of 90 and Z offset of 0 added.
G1 X110.346 Y66.397 ; X offset of 105 Y offset of 90 and Z offset of 0 added.
G1 X111.315 Y65.926 ; X offset of 105 Y offset of 90 and Z offset of 0 added.
G1 X112.328 Y65.561 ; X offset of 105 Y offset of 90 and Z offset of 0 added.
G1 X113.375 Y65.305 ; X offset of 105 Y offset of 90 and Z offset of 0 added.
G1 X114.443 Y65.163 ; X offset of 105 Y offset of 90 and Z offset of 0 added.
G1 X115.519 Y65.134 ; X offset of 105 Y offset of 90 and Z offset of 0 added.
G1 X116.582 Y65.219 ; X offset of 105 Y offset of 90 and Z offset of 0 added.
G1 X117.651 Y65.421 ; X offset of 105 Y offset of 90 and Z offset of 0 added.
G1 X118.683 Y65.731 ; X offset of 105 Y offset of 90 and Z offset of 0 added.
G1 X119.675 Y66.15 ; X offset of 105 Y offset of 90 and Z offset of 0 added.
G1 X119.995 Y66.313 ; X offset of 105 Y offset of 90 and Z offset of 0 added.
G1 X120.617 Y66.672 ; X offset of 105 Y offset of 90 and Z offset of 0 added.
G1 X120.934 Y66.879 ; X offset of 105 Y offset of 90 and Z offset of 0 added.
G1 X121.498 Y67.292 ; X offset of 105 Y offset of 90 and Z offset of 0 added.
G1 X121.805 Y67.542 ; X offset of 105 Y offset of 90 and Z offset of 0 added.
G1 X122.309 Y68.001 ; X offset of 105 Y offset of 90 and Z offset of 0 added.
G1 X122.591 Y68.287 ; X offset of 105 Y offset of 90 and Z offset of 0 added.
G1 X123.039 Y68.792 ; X offset of 105 Y offset of 90 and Z offset of 0 added.
G1 X123.309 Y69.132 ; X offset of 105 Y offset of 90 and Z offset of 0 added.
G1 X123.681 Y69.657 ; X offset of 105 Y offset of 90 and Z offset of 0 added.
G1 X123.923 Y70.039 ; X offset of 105 Y offset of 90 and Z offset of 0 added.
G1 X124.228 Y70.585 ; X offset of 105 Y offset of 90 and Z offset of 0 added.
G1 X124.435 Y71.007 ; X offset of 105 Y offset of 90 and Z offset of 0 added.
G1 X124.673 Y71.566 ; X offset of 105 Y offset of 90 and Z offset of 0 added.
G1 X124.84 Y72.025 ; X offset of 105 Y offset of 90 and Z offset of 0 added.
G1 X125.011 Y72.588 ; X offset of 105 Y offset of 90 and Z offset of 0 added.
G1 X125.132 Y73.081 ; X offset of 105 Y offset of 90 and Z offset of 0 added.
G1 X125.239 Y73.641 ; X offset of 105 Y offset of 90 and Z offset of 0 added.
G1 X125.308 Y74.15 ; X offset of 105 Y offset of 90 and Z offset of 0 added.
G1 X125.375 Y75.25 ; X offset of 105 Y offset of 90 and Z offset of 0 added.
G1 X125.308 Y76.35 ; X offset of 105 Y offset of 90 and Z offset of 0 added.
G1 X125.239 Y76.859 ; X offset of 105 Y offset of 90 and Z offset of 0 added.
G1 X125.132 Y77.419 ; X offset of 105 Y offset of 90 and Z offset of 0 added.
G1 X125.011 Y77.912 ; X offset of 105 Y offset of 90 and Z offset of 0 added.
G1 X124.84 Y78.475 ; X offset of 105 Y offset of 90 and Z offset of 0 added.
G1 X124.673 Y78.934 ; X offset of 105 Y offset of 90 and Z offset of 0 added.
G1 X124.435 Y79.493 ; X offset of 105 Y offset of 90 and Z offset of 0 added.
G1 X124.228 Y79.915 ; X offset of 105 Y offset of 90 and Z offset of 0 added.
G1 X123.923 Y80.461 ; X offset of 105 Y offset of 90 and Z offset of 0 added.
G1 X123.681 Y80.843 ; X offset of 105 Y offset of 90 and Z offset of 0 added.
G1 X123.309 Y81.368 ; X offset of 105 Y offset of 90 and Z offset of 0 added.
G1 X123.039 Y81.708 ; X offset of 105 Y offset of 90 and Z offset of 0 added.
G1 X122.591 Y82.213 ; X offset of 105 Y offset of 90 and Z offset of 0 added.
G1 X122.309 Y82.499 ; X offset of 105 Y offset of 90 and Z offset of 0 added.
G1 X121.805 Y82.958 ; X offset of 105 Y offset of 90 and Z offset of 0 added.
G1 X121.507 Y83.202 ; X offset of 105 Y offset of 90 and Z offset of 0 added.
G1 X120.933 Y83.621 ; X offset of 105 Y offset of 90 and Z offset of 0 added.
G1 X120.617 Y83.828 ; X offset of 105 Y offset of 90 and Z offset of 0 added.
G1 X119.995 Y84.187 ; X offset of 105 Y offset of 90 and Z offset of 0 added.
G1 X119.675 Y84.35 ; X offset of 105 Y offset of 90 and Z offset of 0 added.
G1 X118.683 Y84.769 ; X offset of 105 Y offset of 90 and Z offset of 0 added.
G1 X117.651 Y85.08 ; X offset of 105 Y offset of 90 and Z offset of 0 added.
G1 X116.593 Y85.28 ; X offset of 105 Y offset of 90 and Z offset of 0 added.
G1 X115.519 Y85.366 ; X offset of 105 Y offset of 90 and Z offset of 0 added.
G1 X114.443 Y85.337 ; X offset of 105 Y offset of 90 and Z offset of 0 added.
G1 X113.375 Y85.195 ; X offset of 105 Y offset of 90 and Z offset of 0 added.
G1 X112.328 Y84.939 ; X offset of 105 Y offset of 90 and Z offset of 0 added.
G1 X111.315 Y84.574 ; X offset of 105 Y offset of 90 and Z offset of 0 added.
G1 X110.346 Y84.103 ; X offset of 105 Y offset of 90 and Z offset of 0 added.
G1 X109.432 Y83.532 ; X offset of 105 Y offset of 90 and Z offset of 0 added.
G1 X108.692 Y82.96 ; X offset of 105 Y offset of 90 and Z offset of 0 added.
G1 X107.906 Y82.215 ; X offset of 105 Y offset of 90 and Z offset of 0 added.
G1 X107.125 Y81.287 ; X offset of 105 Y offset of 90 and Z offset of 0 added.
G1 X106.529 Y80.389 ; X offset of 105 Y offset of 90 and Z offset of 0 added.
G1 X106.032 Y79.433 ; X offset of 105 Y offset of 90 and Z offset of 0 added.
G1 X105.639 Y78.43 ; X offset of 105 Y offset of 90 and Z offset of 0 added.
G1 X105.355 Y77.39 ; X offset of 105 Y offset of 90 and Z offset of 0 added.
G1 X105.183 Y76.327 ; X offset of 105 Y offset of 90 and Z offset of 0 added.
G1 X105.125 Y75.25 ; X offset of 105 Y offset of 90 and Z offset of 0 added.
G1 F240.00000
M400 ; wait for commands to complete
M42 P17 S0 ; turn extruder 1 off
G1 E13.0
T0 ; ensure we keep T0 active to prevent changing pressure
M400 ; wait for commands to complete
G1 E23.2 F1000.0 ; move extruder to midpoint
M400 ; wait for commands to complete
G91
G1 X-49 F1800.0 ; move over by x offset
G90
M400 ; wait for commands to complete
G1 E36.2 F1000.0 ; move extruder 0 into position
M400 ; wait for commands to complete
M42 P16 S0 ; turn extruder 0 off
G1 E13.0
G1 X56.125 Y100.243 F480.000
 ; X offset of 56 Y offset of 90 and Z offset of 0 added.
G1 E36.2 ; Move extruder to E0 position of 36.2
M400 ; wait for commands to complete
M42 P16 S255 ; turn extruder 0 on
G1 X56.184 Y99.162 F240.000
 ; X offset of 56 Y offset of 90 and Z offset of 0 added.
G1 X56.355 Y98.11 ; X offset of 56 Y offset of 90 and Z offset of 0 added.
G1 X56.639 Y97.07 ; X offset of 56 Y offset of 90 and Z offset of 0 added.
G1 X57.032 Y96.067 ; X offset of 56 Y offset of 90 and Z offset of 0 added.
G1 X57.529 Y95.111 ; X offset of 56 Y offset of 90 and Z offset of 0 added.
G1 X58.125 Y94.213 ; X offset of 56 Y offset of 90 and Z offset of 0 added.
G1 X58.906 Y93.285 ; X offset of 56 Y offset of 90 and Z offset of 0 added.
G1 X59.692 Y92.54 ; X offset of 56 Y offset of 90 and Z offset of 0 added.
G1 X60.432 Y91.968 ; X offset of 56 Y offset of 90 and Z offset of 0 added.
G1 X61.346 Y91.397 ; X offset of 56 Y offset of 90 and Z offset of 0 added.
G1 X62.315 Y90.926 ; X offset of 56 Y offset of 90 and Z offset of 0 added.
G1 X63.329 Y90.561 ; X offset of 56 Y offset of 90 and Z offset of 0 added.
G1 X64.375 Y90.305 ; X offset of 56 Y offset of 90 and Z offset of 0 added.
G1 X65.443 Y90.163 ; X offset of 56 Y offset of 90 and Z offset of 0 added.
G1 X66.519 Y90.134 ; X offset of 56 Y offset of 90 and Z offset of 0 added.
G1 X67.582 Y90.219 ; X offset of 56 Y offset of 90 and Z offset of 0 added.
G1 X68.651 Y90.421 ; X offset of 56 Y offset of 90 and Z offset of 0 added.
G1 X69.683 Y90.731 ; X offset of 56 Y offset of 90 and Z offset of 0 added.
G1 X70.675 Y91.15 ; X offset of 56 Y offset of 90 and Z offset of 0 added.
G1 X70.995 Y91.313 ; X offset of 56 Y offset of 90 and Z offset of 0 added.
G1 X71.617 Y91.672 ; X offset of 56 Y offset of 90 and Z offset of 0 added.
G1 X71.934 Y91.879 ; X offset of 56 Y offset of 90 and Z offset of 0 added.
G1 X72.498 Y92.292 ; X offset of 56 Y offset of 90 and Z offset of 0 added.
G1 X72.805 Y92.542 ; X offset of 56 Y offset of 90 and Z offset of 0 added.
G1 X73.309 Y93.001 ; X offset of 56 Y offset of 90 and Z offset of 0 added.
G1 X73.591 Y93.287 ; X offset of 56 Y offset of 90 and Z offset of 0 added.
G1 X74.039 Y93.792 ; X offset of 56 Y offset of 90 and Z offset of 0 added.
G1 X74.309 Y94.132 ; X offset of 56 Y offset of 90 and Z offset of 0 added.
G1 X74.681 Y94.657 ; X offset of 56 Y offset of 90 and Z offset of 0 added.
G1 X74.923 Y95.039 ; X offset of 56 Y offset of 90 and Z offset of 0 added.
G1 X75.228 Y95.585 ; X offset of 56 Y offset of 90 and Z offset of 0 added.
G1 X75.435 Y96.007 ; X offset of 56 Y offset of 90 and Z offset of 0 added.
G1 X75.673 Y96.566 ; X offset of 56 Y offset of 90 and Z offset of 0 added.
G1 X75.84 Y97.025 ; X offset of 56 Y offset of 90 and Z offset of 0 added.
G1 X76.011 Y97.588 ; X offset of 56 Y offset of 90 and Z offset of 0 added.
G1 X76.132 Y98.081 ; X offset of 56 Y offset of 90 and Z offset of 0 added.
G1 X76.239 Y98.641 ; X offset of 56 Y offset of 90 and Z offset of 0 added.
G1 X76.308 Y99.15 ; X offset of 56 Y offset of 90 and Z offset of 0 added.
G1 X76.375 Y100.25 ; X offset of 56 Y offset of 90 and Z offset of 0 added.
G1 X76.308 Y101.35 ; X offset of 56 Y offset of 90 and Z offset of 0 added.
G1 X76.239 Y101.859 ; X offset of 56 Y offset of 90 and Z offset of 0 added.
G1 X76.132 Y102.419 ; X offset of 56 Y offset of 90 and Z offset of 0 added.
G1 X76.011 Y102.912 ; X offset of 56 Y offset of 90 and Z offset of 0 added.
G1 X75.84 Y103.475 ; X offset of 56 Y offset of 90 and Z offset of 0 added.
G1 X75.673 Y103.934 ; X offset of 56 Y offset of 90 and Z offset of 0 added.
G1 X75.431 Y104.502 ; X offset of 56 Y offset of 90 and Z offset of 0 added.
G1 X75.228 Y104.915 ; X offset of 56 Y offset of 90 and Z offset of 0 added.
G1 X74.923 Y105.461 ; X offset of 56 Y offset of 90 and Z offset of 0 added.
G1 X74.681 Y105.843 ; X offset of 56 Y offset of 90 and Z offset of 0 added.
G1 X74.309 Y106.368 ; X offset of 56 Y offset of 90 and Z offset of 0 added.
G1 X74.039 Y106.708 ; X offset of 56 Y offset of 90 and Z offset of 0 added.
G1 X73.591 Y107.213 ; X offset of 56 Y offset of 90 and Z offset of 0 added.
G1 X73.309 Y107.499 ; X offset of 56 Y offset of 90 and Z offset of 0 added.
G1 X72.805 Y107.958 ; X offset of 56 Y offset of 90 and Z offset of 0 added.
G1 X72.498 Y108.208 ; X offset of 56 Y offset of 90 and Z offset of 0 added.
G1 X71.934 Y108.621 ; X offset of 56 Y offset of 90 and Z offset of 0 added.
G1 X71.617 Y108.828 ; X offset of 56 Y offset of 90 and Z offset of 0 added.
G1 X70.995 Y109.187 ; X offset of 56 Y offset of 90 and Z offset of 0 added.
G1 X70.675 Y109.35 ; X offset of 56 Y offset of 90 and Z offset of 0 added.
G1 X69.683 Y109.769 ; X offset of 56 Y offset of 90 and Z offset of 0 added.
G1 X68.651 Y110.08 ; X offset of 56 Y offset of 90 and Z offset of 0 added.
G1 X67.593 Y110.28 ; X offset of 56 Y offset of 90 and Z offset of 0 added.
G1 X66.519 Y110.366 ; X offset of 56 Y offset of 90 and Z offset of 0 added.
G1 X65.443 Y110.337 ; X offset of 56 Y offset of 90 and Z offset of 0 added.
G1 X64.375 Y110.195 ; X offset of 56 Y offset of 90 and Z offset of 0 added.
G1 X63.328 Y109.939 ; X offset of 56 Y offset of 90 and Z offset of 0 added.
G1 X62.315 Y109.574 ; X offset of 56 Y offset of 90 and Z offset of 0 added.
G1 X61.346 Y109.103 ; X offset of 56 Y offset of 90 and Z offset of 0 added.
G1 X60.432 Y108.532 ; X offset of 56 Y offset of 90 and Z offset of 0 added.
G1 X59.692 Y107.96 ; X offset of 56 Y offset of 90 and Z offset of 0 added.
G1 X58.906 Y107.215 ; X offset of 56 Y offset of 90 and Z offset of 0 added.
G1 X58.125 Y106.287 ; X offset of 56 Y offset of 90 and Z offset of 0 added.
G1 X57.529 Y105.389 ; X offset of 56 Y offset of 90 and Z offset of 0 added.
G1 X57.032 Y104.433 ; X offset of 56 Y offset of 90 and Z offset of 0 added.
G1 X56.639 Y103.43 ; X offset of 56 Y offset of 90 and Z offset of 0 added.
G1 X56.355 Y102.39 ; X offset of 56 Y offset of 90 and Z offset of 0 added.
G1 X56.183 Y101.326 ; X offset of 56 Y offset of 90 and Z offset of 0 added.
G1 X56.125 Y100.243 ; X offset of 56 Y offset of 90 and Z offset of 0 added.
G1 Z0.4 F480.000
 ; X offset of 56 Y offset of 90 and Z offset of 0 added.
G1 X56.184 Y99.162 F240.000
 ; X offset of 56 Y offset of 90 and Z offset of 0 added.
G1 X56.355 Y98.11 ; X offset of 56 Y offset of 90 and Z offset of 0 added.
G1 X56.639 Y97.07 ; X offset of 56 Y offset of 90 and Z offset of 0 added.
G1 X57.032 Y96.067 ; X offset of 56 Y offset of 90 and Z offset of 0 added.
G1 X57.529 Y95.111 ; X offset of 56 Y offset of 90 and Z offset of 0 added.
G1 X58.126 Y94.214 ; X offset of 56 Y offset of 90 and Z offset of 0 added.
G1 X58.906 Y93.285 ; X offset of 56 Y offset of 90 and Z offset of 0 added.
G1 X59.692 Y92.54 ; X offset of 56 Y offset of 90 and Z offset of 0 added.
G1 X60.432 Y91.968 ; X offset of 56 Y offset of 90 and Z offset of 0 added.
G1 X61.346 Y91.397 ; X offset of 56 Y offset of 90 and Z offset of 0 added.
G1 X62.315 Y90.926 ; X offset of 56 Y offset of 90 and Z offset of 0 added.
G1 X63.328 Y90.561 ; X offset of 56 Y offset of 90 and Z offset of 0 added.
G1 X64.375 Y90.305 ; X offset of 56 Y offset of 90 and Z offset of 0 added.
