; generated by Slic3r 1.2.9 on 2015-12-23 at 12:50:26

; external perimeters extrusion width = 0.20mm
; perimeters extrusion width = 0.21mm
; infill extrusion width = 0.21mm
; solid infill extrusion width = 0.21mm
; top infill extrusion width = 0.21mm

; external perimeters extrusion width = 0.20mm
; perimeters extrusion width = 0.21mm
; infill extrusion width = 0.21mm
; solid infill extrusion width = 0.21mm
; top infill extrusion width = 0.21mm

M107
M104 S200 T0 ; set temperature
M104 S200 T1 ; set temperature
G28 ; home all axes
M109 S200 T0 ; wait for temperature to be reached
M109 S200 T1 ; wait for temperature to be reached
G21 ; set units to millimeters
G90 ; use absolute coordinates
M82 ; use absolute distances for extrusion
G92 E0
T0
G92 E0
G1 Z0.200 F480.000
G1 E-1.00000 F240.00000
G92 E0
T1
G92 E0
G1 E-1.00000 F240.00000
G92 E0
G1 X0.125 Y-14.750 F480.000
G1 E1.00000 F240.00000
G1 X0.183 Y-15.826 E1.01089 F240.000
G1 X0.355 Y-16.890 E1.02178
G1 X0.639 Y-17.930 E1.03266
G1 X1.032 Y-18.933 E1.04355
G1 X1.529 Y-19.889 E1.05444
G1 X2.125 Y-20.787 E1.06532
G1 X2.906 Y-21.715 E1.07759
G1 X3.692 Y-22.460 E1.08853
G1 X4.432 Y-23.032 E1.09798
G1 X5.346 Y-23.603 E1.10886
G1 X6.315 Y-24.074 E1.11975
G1 X7.328 Y-24.439 E1.13063
G1 X8.375 Y-24.695 E1.14151
G1 X9.443 Y-24.837 E1.15240
G1 X10.519 Y-24.866 E1.16328
G1 X11.582 Y-24.781 E1.17405
G1 X12.651 Y-24.579 E1.18505
G1 X13.683 Y-24.269 E1.19593
G1 X14.675 Y-23.850 E1.20681
G1 X14.995 Y-23.687 E1.21044
G1 X15.617 Y-23.328 E1.21769
G1 X15.934 Y-23.121 E1.22151
G1 X16.498 Y-22.708 E1.22858
G1 X16.805 Y-22.458 E1.23259
G1 X17.309 Y-21.999 E1.23946
G1 X17.591 Y-21.713 E1.24353
G1 X18.039 Y-21.208 E1.25035
G1 X18.309 Y-20.868 E1.25473
G1 X18.681 Y-20.343 E1.26123
G1 X18.923 Y-19.961 E1.26580
G1 X19.228 Y-19.415 E1.27212
G1 X19.435 Y-18.993 E1.27688
G1 X19.673 Y-18.434 E1.28300
G1 X19.840 Y-17.975 E1.28795
G1 X20.011 Y-17.412 E1.29389
G1 X20.132 Y-16.919 E1.29902
G1 X20.239 Y-16.359 E1.30477
G1 X20.308 Y-15.850 E1.30996
G1 X20.375 Y-14.750 E1.32110
G1 X20.308 Y-13.650 E1.33224
G1 X20.239 Y-13.141 E1.33743
G1 X20.132 Y-12.581 E1.34318
G1 X20.011 Y-12.088 E1.34831
G1 X19.840 Y-11.525 E1.35425
G1 X19.673 Y-11.066 E1.35920
G1 X19.435 Y-10.507 E1.36533
G1 X19.228 Y-10.085 E1.37008
G1 X18.923 Y-9.539 E1.37640
G1 X18.681 Y-9.157 E1.38097
G1 X18.309 Y-8.632 E1.38747
G1 X18.039 Y-8.292 E1.39185
G1 X17.591 Y-7.787 E1.39867
G1 X17.309 Y-7.501 E1.40274
G1 X16.805 Y-7.042 E1.40962
G1 X16.507 Y-6.798 E1.41351
G1 X15.933 Y-6.379 E1.42069
G1 X15.617 Y-6.172 E1.42451
G1 X14.995 Y-5.813 E1.43176
G1 X14.675 Y-5.650 E1.43539
G1 X13.683 Y-5.231 E1.44627
G1 X12.651 Y-4.920 E1.45716
G1 X11.593 Y-4.720 E1.46804
G1 X10.519 Y-4.634 E1.47892
G1 X9.443 Y-4.663 E1.48980
G1 X8.375 Y-4.805 E1.50069
G1 X7.328 Y-5.061 E1.51157
G1 X6.315 Y-5.426 E1.52245
G1 X5.346 Y-5.897 E1.53334
G1 X4.432 Y-6.468 E1.54422
G1 X3.692 Y-7.040 E1.55367
G1 X2.906 Y-7.785 E1.56461
G1 X2.125 Y-8.713 E1.57688
G1 X1.529 Y-9.611 E1.58776
G1 X1.032 Y-10.567 E1.59865
G1 X0.639 Y-11.570 E1.60954
G1 X0.355 Y-12.610 E1.62043
G1 X0.183 Y-13.673 E1.63130
G1 X0.125 Y-14.750 E1.64220
G1 E0.64220 F240.00000
G92 E0
T0
G92 E0
G1 X0.125 Y10.243 F480.000
G1 E1.00000 F240.00000
G1 X0.184 Y9.162 E1.01094 F240.000
G1 X0.355 Y8.110 E1.02171
G1 X0.639 Y7.070 E1.03260
G1 X1.032 Y6.067 E1.04348
G1 X1.529 Y5.111 E1.05437
G1 X2.125 Y4.213 E1.06526
G1 X2.906 Y3.285 E1.07752
G1 X3.692 Y2.540 E1.08846
G1 X4.432 Y1.968 E1.09791
G1 X5.346 Y1.397 E1.10880
G1 X6.315 Y0.926 E1.11968
G1 X7.329 Y0.561 E1.13056
G1 X8.375 Y0.305 E1.14145
G1 X9.443 Y0.163 E1.15233
G1 X10.519 Y0.134 E1.16321
G1 X11.582 Y0.219 E1.17399
G1 X12.651 Y0.421 E1.18498
G1 X13.683 Y0.731 E1.19586
G1 X14.675 Y1.150 E1.20674
G1 X14.995 Y1.313 E1.21037
G1 X15.617 Y1.672 E1.21763
G1 X15.934 Y1.879 E1.22144
G1 X16.498 Y2.292 E1.22851
G1 X16.805 Y2.542 E1.23252
G1 X17.309 Y3.001 E1.23940
G1 X17.591 Y3.287 E1.24346
G1 X18.039 Y3.792 E1.25028
G1 X18.309 Y4.132 E1.25466
G1 X18.681 Y4.657 E1.26117
G1 X18.923 Y5.039 E1.26573
G1 X19.228 Y5.585 E1.27205
G1 X19.435 Y6.007 E1.27681
G1 X19.673 Y6.566 E1.28293
G1 X19.840 Y7.025 E1.28788
G1 X20.011 Y7.588 E1.29382
G1 X20.132 Y8.081 E1.29895
G1 X20.239 Y8.641 E1.30470
G1 X20.308 Y9.150 E1.30989
G1 X20.375 Y10.250 E1.32103
G1 X20.308 Y11.350 E1.33217
G1 X20.239 Y11.859 E1.33736
G1 X20.132 Y12.419 E1.34311
G1 X20.011 Y12.912 E1.34824
G1 X19.840 Y13.475 E1.35418
G1 X19.673 Y13.934 E1.35913
G1 X19.431 Y14.502 E1.36537
G1 X19.228 Y14.915 E1.37001
G1 X18.923 Y15.461 E1.37633
G1 X18.681 Y15.843 E1.38090
G1 X18.309 Y16.368 E1.38740
G1 X18.039 Y16.708 E1.39178
G1 X17.591 Y17.213 E1.39860
G1 X17.309 Y17.499 E1.40267
G1 X16.805 Y17.958 E1.40955
G1 X16.498 Y18.208 E1.41355
G1 X15.934 Y18.621 E1.42062
G1 X15.617 Y18.828 E1.42444
G1 X14.995 Y19.187 E1.43169
G1 X14.675 Y19.350 E1.43532
G1 X13.683 Y19.769 E1.44620
G1 X12.651 Y20.080 E1.45709
G1 X11.593 Y20.280 E1.46797
G1 X10.519 Y20.366 E1.47885
G1 X9.443 Y20.337 E1.48973
G1 X8.375 Y20.195 E1.50062
G1 X7.328 Y19.939 E1.51150
G1 X6.315 Y19.574 E1.52239
G1 X5.346 Y19.103 E1.53327
G1 X4.432 Y18.532 E1.54415
G1 X3.692 Y17.960 E1.55360
G1 X2.906 Y17.215 E1.56454
G1 X2.125 Y16.287 E1.57681
G1 X1.529 Y15.389 E1.58770
G1 X1.032 Y14.433 E1.59858
G1 X0.639 Y13.430 E1.60947
G1 X0.355 Y12.390 E1.62036
G1 X0.183 Y11.326 E1.63124
G1 X0.125 Y10.243 E1.64220
G1 Z0.400 F480.000
G1 X0.184 Y9.162 E1.64732 F240.000
G1 X0.355 Y8.110 E1.65236
G1 X0.639 Y7.070 E1.65745
G1 X1.032 Y6.067 E1.66255
G1 X1.529 Y5.111 E1.66764
G1 X2.126 Y4.214 E1.67273
G1 X2.906 Y3.285 E1.67847
G1 X3.692 Y2.540 E1.68359
G1 X4.432 Y1.968 E1.68801
G1 X5.346 Y1.397 E1.69311
G1 X6.315 Y0.926 E1.69820
G1 X7.328 Y0.561 E1.70329
G1 X8.375 Y0.305 E1.70838
G1 X9.443 Y0.163 E1.71348
G1 X10.519 Y0.134 E1.71857
G1 X11.561 Y0.217 E1.72351
G1 X11.894 Y0.267 E1.72510
G1 X12.651 Y0.421 E1.72875
G1 X13.683 Y0.731 E1.73384
G1 X14.675 Y1.150 E1.73894
G1 X14.995 Y1.313 E1.74063
G1 X15.617 Y1.672 E1.74403
G1 X15.934 Y1.879 E1.74582
G1 X16.498 Y2.292 E1.74912
G1 X16.805 Y2.542 E1.75100
G1 X17.309 Y3.001 E1.75422
G1 X17.591 Y3.287 E1.75612
G1 X18.039 Y3.792 E1.75931
G1 X18.309 Y4.132 E1.76136
G1 X18.681 Y4.657 E1.76440
G1 X18.923 Y5.039 E1.76654
G1 X19.228 Y5.585 E1.76949
G1 X19.435 Y6.008 E1.77172
G1 X19.672 Y6.566 E1.77459
G1 X19.850 Y7.057 E1.77705
G1 X20.002 Y7.557 E1.77953
G1 X20.132 Y8.081 E1.78208
G1 X20.239 Y8.641 E1.78477
G1 X20.309 Y9.162 E1.78726
G1 X20.375 Y10.250 E1.79241
G1 X20.308 Y11.350 E1.79762
G1 X20.239 Y11.859 E1.80005
G1 X20.132 Y12.419 E1.80274
G1 X20.011 Y12.912 E1.80515
G1 X19.840 Y13.475 E1.80793
G1 X19.673 Y13.934 E1.81024
G1 X19.435 Y14.493 E1.81311
G1 X19.228 Y14.915 E1.81533
G1 X18.923 Y15.461 E1.81829
G1 X18.681 Y15.843 E1.82042
G1 X18.309 Y16.368 E1.82347
G1 X18.039 Y16.708 E1.82552
G1 X17.591 Y17.213 E1.82871
G1 X17.309 Y17.499 E1.83061
G1 X16.805 Y17.958 E1.83383
G1 X16.498 Y18.208 E1.83570
G1 X15.934 Y18.621 E1.83901
G1 X15.617 Y18.827 E1.84080
G1 X14.675 Y19.350 E1.84589
G1 X13.683 Y19.769 E1.85098
G1 X12.651 Y20.080 E1.85607
G1 X11.593 Y20.280 E1.86116
G1 X10.519 Y20.366 E1.86626
G1 X9.443 Y20.337 E1.87135
G1 X8.375 Y20.194 E1.87644
G1 X7.328 Y19.939 E1.88153
G1 X6.315 Y19.574 E1.88663
G1 X5.346 Y19.103 E1.89172
G1 X4.432 Y18.532 E1.89681
G1 X3.692 Y17.960 E1.90123
G1 X2.906 Y17.215 E1.90635
G1 X2.125 Y16.287 E1.91209
G1 X1.529 Y15.389 E1.91718
G1 X1.032 Y14.433 E1.92228
G1 X0.639 Y13.430 E1.92737
G1 X0.355 Y12.390 E1.93247
G1 X0.183 Y11.326 E1.93756
G1 X0.125 Y10.243 E1.94269
G1 E0.94269 F240.00000
G92 E0
T1
G92 E0
G1 X0.125 Y-14.757 F480.000
G1 E1.00000 F240.00000
G1 X0.184 Y-15.838 E1.00512 F240.000
G1 X0.355 Y-16.890 E1.01016
G1 X0.639 Y-17.930 E1.01525
G1 X1.032 Y-18.933 E1.02035
G1 X1.529 Y-19.889 E1.02544
G1 X2.126 Y-20.786 E1.03053
G1 X2.906 Y-21.715 E1.03627
G1 X3.692 Y-22.460 E1.04139
G1 X4.432 Y-23.032 E1.04581
G1 X5.346 Y-23.603 E1.05091
G1 X6.315 Y-24.074 E1.05600
G1 X7.328 Y-24.439 E1.06109
G1 X8.375 Y-24.695 E1.06618
G1 X9.443 Y-24.837 E1.07128
G1 X10.519 Y-24.866 E1.07637
G1 X11.561 Y-24.783 E1.08131
G1 X12.652 Y-24.580 E1.08655
G1 X13.683 Y-24.269 E1.09164
G1 X14.675 Y-23.850 E1.09673
G1 X14.995 Y-23.687 E1.09843
G1 X15.617 Y-23.328 E1.10183
G1 X15.934 Y-23.121 E1.10361
G1 X16.498 Y-22.708 E1.10692
G1 X16.805 Y-22.458 E1.10880
G1 X17.309 Y-21.999 E1.11201
G1 X17.591 Y-21.713 E1.11392
G1 X18.039 Y-21.208 E1.11711
G1 X18.309 Y-20.868 E1.11916
G1 X18.681 Y-20.343 E1.12220
G1 X18.923 Y-19.961 E1.12434
G1 X19.228 Y-19.415 E1.12729
G1 X19.435 Y-18.993 E1.12952
G1 X19.673 Y-18.434 E1.13239
G1 X19.840 Y-17.975 E1.13470
G1 X20.011 Y-17.412 E1.13748
G1 X20.132 Y-16.919 E1.13988
G1 X20.239 Y-16.359 E1.14257
G1 X20.308 Y-15.850 E1.14500
G1 X20.375 Y-14.750 E1.15021
G1 X20.308 Y-13.650 E1.15542
G1 X20.239 Y-13.141 E1.15785
G1 X20.132 Y-12.581 E1.16054
G1 X20.011 Y-12.088 E1.16294
G1 X19.840 Y-11.525 E1.16572
G1 X19.673 Y-11.066 E1.16804
G1 X19.435 Y-10.507 E1.17091
G1 X19.228 Y-10.085 E1.17313
G1 X18.923 Y-9.539 E1.17609
G1 X18.681 Y-9.157 E1.17822
G1 X18.309 Y-8.632 E1.18127
G1 X18.039 Y-8.292 E1.18332
G1 X17.591 Y-7.787 E1.18651
G1 X17.309 Y-7.501 E1.18841
G1 X16.796 Y-7.034 E1.19169
G1 X15.933 Y-6.379 E1.19681
G1 X15.616 Y-6.173 E1.19860
G1 X14.675 Y-5.650 E1.20369
G1 X13.683 Y-5.231 E1.20878
G1 X12.651 Y-4.920 E1.21387
G1 X11.593 Y-4.720 E1.21896
G1 X10.519 Y-4.634 E1.22405
G1 X9.443 Y-4.663 E1.22915
G1 X8.375 Y-4.805 E1.23424
G1 X7.328 Y-5.061 E1.23933
G1 X6.315 Y-5.426 E1.24442
G1 X5.346 Y-5.897 E1.24952
G1 X4.432 Y-6.468 E1.25461
G1 X3.692 Y-7.040 E1.25903
G1 X2.906 Y-7.785 E1.26415
G1 X2.125 Y-8.713 E1.26989
G1 X1.529 Y-9.611 E1.27498
G1 X1.032 Y-10.567 E1.28008
G1 X0.639 Y-11.570 E1.28517
G1 X0.355 Y-12.610 E1.29026
G1 X0.183 Y-13.674 E1.29536
G1 X0.125 Y-14.757 E1.30048
G1 Z0.600 F480.000
G1 X0.125 Y-14.750 F480.000
G1 X0.183 Y-15.826 E1.30558 F240.000
G1 X0.355 Y-16.890 E1.31067
G1 X0.639 Y-17.930 E1.31577
G1 X1.032 Y-18.933 E1.32086
G1 X1.529 Y-19.889 E1.32596
G1 X2.125 Y-20.787 E1.33105
G1 X2.906 Y-21.715 E1.33679
G1 X3.692 Y-22.460 E1.34191
G1 X4.432 Y-23.032 E1.34633
G1 X5.347 Y-23.601 E1.35142
G1 X6.315 Y-24.074 E1.35651
G1 X7.328 Y-24.439 E1.36161
G1 X8.375 Y-24.695 E1.36670
G1 X9.443 Y-24.837 E1.37179
G1 X10.519 Y-24.866 E1.37688
G1 X11.539 Y-24.785 E1.38172
G1 X11.893 Y-24.733 E1.38341
G1 X12.652 Y-24.580 E1.38707
G1 X13.683 Y-24.269 E1.39216
G1 X14.675 Y-23.850 E1.39725
G1 X14.995 Y-23.687 E1.39895
G1 X15.617 Y-23.328 E1.40235
G1 X15.934 Y-23.121 E1.40413
G1 X16.498 Y-22.708 E1.40744
G1 X16.805 Y-22.458 E1.40931
G1 X17.309 Y-21.999 E1.41253
G1 X17.591 Y-21.713 E1.41443
G1 X18.039 Y-21.208 E1.41762
G1 X18.309 Y-20.868 E1.41967
G1 X18.681 Y-20.343 E1.42272
G1 X18.923 Y-19.961 E1.42486
G1 X19.228 Y-19.415 E1.42781
G1 X19.435 Y-18.993 E1.43004
G1 X19.673 Y-18.434 E1.43290
G1 X19.840 Y-17.975 E1.43522
G1 X20.011 Y-17.412 E1.43800
G1 X20.133 Y-16.918 E1.44040
G1 X20.237 Y-16.359 E1.44309
G1 X20.312 Y-15.796 E1.44578
G1 X20.375 Y-14.750 E1.45073
G1 X20.308 Y-13.650 E1.45594
G1 X20.239 Y-13.141 E1.45837
G1 X20.132 Y-12.581 E1.46106
G1 X20.011 Y-12.088 E1.46346
G1 X19.840 Y-11.525 E1.46624
G1 X19.673 Y-11.066 E1.46855
G1 X19.435 Y-10.507 E1.47142
G1 X19.228 Y-10.085 E1.47365
G1 X18.923 Y-9.539 E1.47660
G1 X18.681 Y-9.157 E1.47874
G1 X18.309 Y-8.632 E1.48178
G1 X18.039 Y-8.292 E1.48383
G1 X17.591 Y-7.787 E1.48703
G1 X17.309 Y-7.501 E1.48893
G1 X16.805 Y-7.042 E1.49215
G1 X16.498 Y-6.792 E1.49402
G1 X15.934 Y-6.379 E1.49733
G1 X15.617 Y-6.172 E1.49911
G1 X14.995 Y-5.813 E1.50251
G1 X14.675 Y-5.650 E1.50421
G1 X13.683 Y-5.231 E1.50930
G1 X12.651 Y-4.920 E1.51439
G1 X11.593 Y-4.720 E1.51948
G1 X10.519 Y-4.634 E1.52457
G1 X9.443 Y-4.663 E1.52967
G1 X8.375 Y-4.805 E1.53476
G1 X7.328 Y-5.060 E1.53985
G1 X6.315 Y-5.426 E1.54494
G1 X5.346 Y-5.897 E1.55004
G1 X4.432 Y-6.468 E1.55513
G1 X3.692 Y-7.040 E1.55955
G1 X2.906 Y-7.785 E1.56467
G1 X2.125 Y-8.713 E1.57041
G1 X1.529 Y-9.611 E1.57550
G1 X1.032 Y-10.567 E1.58060
G1 X0.639 Y-11.570 E1.58569
G1 X0.361 Y-12.581 E1.59064
G1 X0.185 Y-13.674 E1.59588
G1 X0.125 Y-14.750 E1.60097
G1 E0.60097 F240.00000
G92 E0
T0
G92 E0
G1 X0.125 Y10.243 F480.000
G1 E1.00000 F240.00000
G1 X0.184 Y9.162 E1.00512 F240.000
G1 X0.355 Y8.110 E1.01016
G1 X0.639 Y7.070 E1.01525
G1 X1.032 Y6.067 E1.02035
G1 X1.529 Y5.111 E1.02544
G1 X2.125 Y4.214 E1.03053
G1 X2.906 Y3.285 E1.03627
G1 X3.692 Y2.540 E1.04139
G1 X4.432 Y1.968 E1.04581
G1 X5.346 Y1.397 E1.05091
G1 X6.315 Y0.926 E1.05600
G1 X7.328 Y0.561 E1.06109
G1 X8.375 Y0.305 E1.06618
G1 X9.443 Y0.163 E1.07128
G1 X10.519 Y0.134 E1.07637
G1 X11.539 Y0.215 E1.08120
G1 X11.894 Y0.267 E1.08290
G1 X12.651 Y0.422 E1.08655
G1 X13.683 Y0.731 E1.09164
G1 X14.675 Y1.150 E1.09674
G1 X14.995 Y1.313 E1.09843
G1 X15.617 Y1.672 E1.10183
G1 X15.934 Y1.879 E1.10362
G1 X16.498 Y2.292 E1.10692
G1 X16.805 Y2.542 E1.10880
G1 X17.309 Y3.001 E1.11201
G1 X17.591 Y3.287 E1.11392
G1 X18.039 Y3.792 E1.11711
G1 X18.309 Y4.132 E1.11916
G1 X18.681 Y4.657 E1.12220
G1 X18.923 Y5.039 E1.12434
G1 X19.228 Y5.585 E1.12729
G1 X19.435 Y6.007 E1.12952
G1 X19.673 Y6.566 E1.13239
G1 X19.840 Y7.025 E1.13470
G1 X20.011 Y7.588 E1.13748
G1 X20.133 Y8.082 E1.13988
G1 X20.237 Y8.641 E1.14257
G1 X20.312 Y9.204 E1.14526
G1 X20.375 Y10.250 E1.15021
G1 X20.308 Y11.350 E1.15542
G1 X20.239 Y11.859 E1.15785
G1 X20.132 Y12.419 E1.16054
G1 X20.012 Y12.912 E1.16294
G1 X19.847 Y13.456 E1.16563
G1 X19.673 Y13.934 E1.16804
G1 X19.435 Y14.493 E1.17091
G1 X19.228 Y14.915 E1.17313
G1 X18.923 Y15.461 E1.17609
G1 X18.681 Y15.843 E1.17822
G1 X18.309 Y16.368 E1.18127
G1 X18.039 Y16.708 E1.18332
G1 X17.591 Y17.213 E1.18651
G1 X17.309 Y17.499 E1.18841
G1 X16.805 Y17.958 E1.19163
G1 X16.498 Y18.208 E1.19350
G1 X15.934 Y18.621 E1.19681
G1 X15.616 Y18.827 E1.19860
G1 X14.675 Y19.350 E1.20369
G1 X13.683 Y19.769 E1.20878
G1 X12.651 Y20.080 E1.21387
G1 X11.593 Y20.280 E1.21896
G1 X10.519 Y20.366 E1.22406
G1 X9.443 Y20.337 E1.22915
G1 X8.375 Y20.195 E1.23424
G1 X7.328 Y19.939 E1.23933
G1 X6.315 Y19.574 E1.24443
G1 X5.346 Y19.103 E1.24952
G1 X4.432 Y18.532 E1.25461
G1 X3.692 Y17.960 E1.25903
G1 X2.906 Y17.215 E1.26415
G1 X2.125 Y16.286 E1.26989
G1 X1.529 Y15.389 E1.27498
G1 X1.032 Y14.433 E1.28008
G1 X0.639 Y13.430 E1.28517
G1 X0.355 Y12.390 E1.29027
G1 X0.183 Y11.326 E1.29536
G1 X0.125 Y10.243 E1.30049
M106 S173.4
G1 Z0.800 F480.000
G1 X0.125 Y10.243 F480.000
G1 X0.184 Y9.162 E1.30561 F240.000
G1 X0.355 Y8.110 E1.31064
G1 X0.639 Y7.070 E1.31574
G1 X1.032 Y6.067 E1.32083
G1 X1.529 Y5.111 E1.32593
G1 X2.125 Y4.213 E1.33102
G1 X2.906 Y3.285 E1.33676
G1 X3.692 Y2.540 E1.34188
G1 X4.432 Y1.968 E1.34630
G1 X5.347 Y1.399 E1.35139
G1 X6.315 Y0.926 E1.35648
G1 X7.328 Y0.561 E1.36158
G1 X8.375 Y0.305 E1.36667
G1 X9.443 Y0.163 E1.37176
G1 X10.519 Y0.134 E1.37685
G1 X11.518 Y0.213 E1.38159
G1 X11.893 Y0.268 E1.38338
G1 X12.652 Y0.420 E1.38704
G1 X13.683 Y0.731 E1.39213
G1 X14.675 Y1.150 E1.39722
G1 X14.995 Y1.313 E1.39892
G1 X15.617 Y1.672 E1.40231
G1 X15.934 Y1.879 E1.40411
G1 X16.497 Y2.293 E1.40741
G1 X16.852 Y2.586 E1.40958
G1 X17.309 Y3.001 E1.41250
G1 X17.591 Y3.287 E1.41440
G1 X18.039 Y3.792 E1.41759
G1 X18.309 Y4.132 E1.41964
G1 X18.681 Y4.657 E1.42269
G1 X18.923 Y5.039 E1.42482
G1 X19.228 Y5.585 E1.42778
G1 X19.435 Y6.007 E1.43001
G1 X19.673 Y6.566 E1.43287
G1 X19.840 Y7.025 E1.43519
G1 X20.011 Y7.588 E1.43797
G1 X20.132 Y8.081 E1.44037
G1 X20.239 Y8.641 E1.44306
G1 X20.308 Y9.150 E1.44549
G1 X20.375 Y10.250 E1.45070
G1 X20.308 Y11.350 E1.45591
G1 X20.239 Y11.859 E1.45834
