; generated by Slic3r 1.2.9 on 2015-12-09 at 18:08:31

; external perimeters extrusion width = 0.50mm
; perimeters extrusion width = 0.85mm
; infill extrusion width = 1.02mm
; solid infill extrusion width = 0.85mm
; top infill extrusion width = 0.85mm

M107
M190 S5 ; set bed temperature
M104 S205 ; set temperature
G28
M109 S205 ; wait for temperature to be reached
G21 ; set units to millimeters
G90 ; use absolute coordinates
M82 ; use absolute distances for extrusion
G92 E0
G1 E-1.00000 F1800.00000
G92 E0
G1 Z0.200 F1080.000
G1 X14.178 Y59.180 F1080.000
G1 E1.00000 F1800.00000
G1 X25.178 Y59.180 E1.11114 F600.000
G1 X27.389 Y59.577 E1.13383
G1 X29.323 Y60.718 E1.15653 F600.000
G1 X30.741 Y62.461 E1.17922
G1 X31.535 Y65.537 E1.21132
G1 X31.535 Y76.537 E1.32246
G1 X31.138 Y78.748 E1.34515
G1 X29.997 Y80.683 E1.36785
G1 X28.254 Y82.101 E1.39054
G1 X25.178 Y82.895 E1.42264
G1 X14.178 Y82.895 E1.53378
G1 X11.967 Y82.498 E1.55647
G1 X10.032 Y81.357 E1.57917
G1 X8.615 Y79.614 E1.60186
G1 X7.821 Y76.537 E1.63396
G1 X7.821 Y65.537 E1.74510
G1 X8.217 Y63.327 E1.76779
G1 X9.358 Y61.392 E1.79049
G1 X11.101 Y59.974 E1.81318
G1 X14.105 Y59.199 E1.84453
G1 E0.84453 F1800.00000
G92 E0
G1 X25.178 Y76.287 F1080.000
G1 E1.00000 F1800.00000
G1 X14.178 Y76.287 E1.11114 F600.000
G1 E0.11114 F1800.00000
G92 E0
G1 X25.178 Y74.787 F1080.000
G1 E1.00000 F1800.00000
G1 X14.178 Y74.787 E1.11114 F600.000
G1 E0.11114 F1800.00000
G92 E0
G1 X25.178 Y73.287 F1080.000
G1 E1.00000 F1800.00000
G1 X14.178 Y73.287 E1.11114 F600.000
G1 E0.11114 F1800.00000
G92 E0
G1 X25.178 Y71.787 F1080.000
G1 E1.00000 F1800.00000
G1 X14.178 Y71.787 E1.11114 F600.000
G1 E0.11114 F1800.00000
G92 E0
G1 X25.178 Y70.287 F1080.000
G1 E1.00000 F1800.00000
G1 X14.178 Y70.287 E1.11114 F600.000
G1 E0.11114 F1800.00000
G92 E0
G1 X25.178 Y68.787 F1080.000
G1 E1.00000 F1800.00000
G1 X14.178 Y68.787 E1.11114 F600.000
G1 E0.11114 F1800.00000
G92 E0
G1 X25.178 Y67.287 F1080.000
G1 E1.00000 F1800.00000
G1 X14.178 Y67.287 E1.11114 F600.000
G1 E0.11114 F1800.00000
G92 E0
G1 X25.178 Y65.787 F1080.000
G1 E1.00000 F1800.00000
G1 X14.178 Y65.787 E1.11114 F600.000
M106 S255
M104 S200 ; set temperature
G1 E0.11114 F1800.00000
G92 E0
G1 Z0.400 F1080.000
G1 X25.178 Y76.287 F1080.000
G1 E1.00000 F1800.00000
G1 X14.178 Y76.287 E1.25119 F600.000
G1 E0.25119 F1800.00000
G92 E0
G1 X25.178 Y74.787 F1080.000
G1 E1.00000 F1800.00000
G1 X14.178 Y74.787 E1.25119 F600.000
G1 E0.25119 F1800.00000
G92 E0
G1 X25.178 Y73.287 F1080.000
G1 E1.00000 F1800.00000
G1 X14.178 Y73.287 E1.25119 F600.000
G1 E0.25119 F1800.00000
G92 E0
G1 X25.178 Y71.787 F1080.000
G1 E1.00000 F1800.00000
G1 X14.178 Y71.787 E1.25119 F600.000
G1 E0.25119 F1800.00000
G92 E0
G1 X25.178 Y70.287 F1080.000
G1 E1.00000 F1800.00000
G1 X14.178 Y70.287 E1.25119 F600.000
G1 E0.25119 F1800.00000
G92 E0
G1 X25.178 Y68.787 F1080.000
G1 E1.00000 F1800.00000
G1 X14.178 Y68.787 E1.25119 F600.000
G1 E0.25119 F1800.00000
G92 E0
G1 X25.178 Y67.287 F1080.000
G1 E1.00000 F1800.00000
G1 X14.178 Y67.287 E1.25119 F600.000
G1 E0.25119 F1800.00000
G92 E0
G1 X25.178 Y65.787 F1080.000
G1 E1.00000 F1800.00000
G1 X14.178 Y65.787 E1.25119 F600.000
G1 E0.25119 F1800.00000
G92 E0
G1 Z0.600 F1080.000
G1 X25.178 Y76.287 F1080.000
G1 E1.00000 F1800.00000
G1 X14.178 Y76.287 E1.25119 F600.000
G1 E0.25119 F1800.00000
G92 E0
G1 X25.178 Y74.787 F1080.000
G1 E1.00000 F1800.00000
G1 X14.178 Y74.787 E1.25119 F600.000
G1 E0.25119 F1800.00000
G92 E0
G1 X25.178 Y73.287 F1080.000
G1 E1.00000 F1800.00000
G1 X14.178 Y73.287 E1.25119 F600.000
G1 E0.25119 F1800.00000
G92 E0
G1 X25.178 Y71.787 F1080.000
G1 E1.00000 F1800.00000
G1 X14.178 Y71.787 E1.25119 F600.000
G1 E0.25119 F1800.00000
G92 E0
G1 X25.178 Y70.287 F1080.000
G1 E1.00000 F1800.00000
G1 X14.178 Y70.287 E1.25119 F600.000
G1 E0.25119 F1800.00000
G92 E0
G1 X25.178 Y68.787 F1080.000
G1 E1.00000 F1800.00000
G1 X14.178 Y68.787 E1.25119 F600.000
G1 E0.25119 F1800.00000
G92 E0
G1 X25.178 Y67.287 F1080.000
G1 E1.00000 F1800.00000
G1 X14.178 Y67.287 E1.25119 F600.000
G1 E0.25119 F1800.00000
G92 E0
G1 X25.178 Y65.787 F1080.000
G1 E1.00000 F1800.00000
G1 X14.178 Y65.787 E1.25119 F600.000
G1 E0.25119 F1800.00000
G92 E0
G1 Z0.800 F1080.000
G1 X25.178 Y76.287 F1080.000
G1 E1.00000 F1800.00000
G1 X14.178 Y76.287 E1.25119 F600.000
G1 E0.25119 F1800.00000
G92 E0
G1 X25.178 Y74.787 F1080.000
G1 E1.00000 F1800.00000
G1 X14.178 Y74.787 E1.25119 F600.000
G1 E0.25119 F1800.00000
G92 E0
G1 X25.178 Y73.287 F1080.000
G1 E1.00000 F1800.00000
G1 X14.178 Y73.287 E1.25119 F600.000
G1 E0.25119 F1800.00000
G92 E0
G1 X25.178 Y71.787 F1080.000
G1 E1.00000 F1800.00000
G1 X14.178 Y71.787 E1.25119 F600.000
G1 E0.25119 F1800.00000
G92 E0
G1 X25.178 Y70.287 F1080.000
G1 E1.00000 F1800.00000
G1 X14.178 Y70.287 E1.25119 F600.000
G1 E0.25119 F1800.00000
G92 E0
G1 X25.178 Y68.787 F1080.000
G1 E1.00000 F1800.00000
G1 X14.178 Y68.787 E1.25119 F600.000
G1 E0.25119 F1800.00000
G92 E0
G1 X25.178 Y67.287 F1080.000
G1 E1.00000 F1800.00000
G1 X14.178 Y67.287 E1.25119 F600.000
G1 E0.25119 F1800.00000
G92 E0
G1 X25.178 Y65.787 F1080.000
G1 E1.00000 F1800.00000
G1 X14.178 Y65.787 E1.25119 F600.000
G1 E0.25119 F1800.00000
G92 E0
G1 Z1.000 F1080.000
G1 X25.178 Y76.287 F1080.000
G1 E1.00000 F1800.00000
G1 X14.178 Y76.287 E1.25119 F600.000
G1 E0.25119 F1800.00000
G92 E0
G1 X25.178 Y74.787 F1080.000
G1 E1.00000 F1800.00000
G1 X14.178 Y74.787 E1.25119 F600.000
G1 E0.25119 F1800.00000
G92 E0
G1 X25.178 Y73.287 F1080.000
G1 E1.00000 F1800.00000
G1 X14.178 Y73.287 E1.25119 F600.000
G1 E0.25119 F1800.00000
G92 E0
G1 X25.178 Y71.787 F1080.000
G1 E1.00000 F1800.00000
G1 X14.178 Y71.787 E1.25119 F600.000
G1 E0.25119 F1800.00000
G92 E0
G1 X25.178 Y70.287 F1080.000
G1 E1.00000 F1800.00000
G1 X14.178 Y70.287 E1.25119 F600.000
G1 E0.25119 F1800.00000
G92 E0
G1 X25.178 Y68.787 F1080.000
G1 E1.00000 F1800.00000
G1 X14.178 Y68.787 E1.25119 F600.000
G1 E0.25119 F1800.00000
G92 E0
G1 X25.178 Y67.287 F1080.000
G1 E1.00000 F1800.00000
G1 X14.178 Y67.287 E1.25119 F600.000
G1 E0.25119 F1800.00000
G92 E0
G1 X25.178 Y65.787 F1080.000
G1 E1.00000 F1800.00000
G1 X14.178 Y65.787 E1.25119 F600.000
G1 E0.25119 F1800.00000
G92 E0
G1 Z1.200 F1080.000
G1 X25.178 Y76.287 F1080.000
G1 E1.00000 F1800.00000
G1 X14.178 Y76.287 E1.25119 F600.000
G1 E0.25119 F1800.00000
G92 E0
G1 X25.178 Y74.787 F1080.000
G1 E1.00000 F1800.00000
G1 X14.178 Y74.787 E1.25119 F600.000
G1 E0.25119 F1800.00000
G92 E0
G1 X25.178 Y73.287 F1080.000
G1 E1.00000 F1800.00000
G1 X14.178 Y73.287 E1.25119 F600.000
G1 E0.25119 F1800.00000
G92 E0
G1 X25.178 Y71.787 F1080.000
G1 E1.00000 F1800.00000
G1 X14.178 Y71.787 E1.25119 F600.000
G1 E0.25119 F1800.00000
G92 E0
G1 X25.178 Y70.287 F1080.000
G1 E1.00000 F1800.00000
G1 X14.178 Y70.287 E1.25119 F600.000
G1 E0.25119 F1800.00000
G92 E0
G1 X25.178 Y68.787 F1080.000
G1 E1.00000 F1800.00000
G1 X14.178 Y68.787 E1.25119 F600.000
G1 E0.25119 F1800.00000
G92 E0
G1 X25.178 Y67.287 F1080.000
G1 E1.00000 F1800.00000
G1 X14.178 Y67.287 E1.25119 F600.000
G1 E0.25119 F1800.00000
G92 E0
G1 X25.178 Y65.787 F1080.000
G1 E1.00000 F1800.00000
G1 X14.178 Y65.787 E1.25119 F600.000
G1 E0.25119 F1800.00000
G92 E0
G1 Z1.400 F1080.000
G1 X24.928 Y76.537 F1080.000
G1 E1.00000 F1800.00000
G1 X24.928 Y65.537 E1.25119 F600.000
G1 E0.25119 F1800.00000
G92 E0
G1 X23.428 Y76.537 F1080.000
G1 E1.00000 F1800.00000
G1 X23.428 Y65.537 E1.25119 F600.000
G1 E0.25119 F1800.00000
G92 E0
G1 X21.928 Y76.537 F1080.000
G1 E1.00000 F1800.00000
G1 X21.928 Y65.537 E1.25119 F600.000
G1 E0.25119 F1800.00000
G92 E0
G1 X20.428 Y76.537 F1080.000
G1 E1.00000 F1800.00000
G1 X20.428 Y65.537 E1.25119 F600.000
G1 E0.25119 F1800.00000
G92 E0
G1 X18.928 Y76.537 F1080.000
G1 E1.00000 F1800.00000
G1 X18.928 Y65.537 E1.25119 F600.000
G1 E0.25119 F1800.00000
G92 E0
G1 X17.428 Y76.537 F1080.000
G1 E1.00000 F1800.00000
G1 X17.428 Y65.537 E1.25119 F600.000
G1 E0.25119 F1800.00000
G92 E0
G1 X15.928 Y76.537 F1080.000
G1 E1.00000 F1800.00000
G1 X15.928 Y65.537 E1.25119 F600.000
G1 E0.25119 F1800.00000
G92 E0
G1 X14.428 Y76.537 F1080.000
G1 E1.00000 F1800.00000
G1 X14.428 Y65.537 E1.25119 F600.000
G1 E0.25119 F1800.00000
G92 E0
G1 Z1.600 F1080.000
G1 X24.928 Y76.537 F1080.000
G1 E1.00000 F1800.00000
G1 X24.928 Y65.537 E1.25119 F600.000
G1 E0.25119 F1800.00000
G92 E0
G1 X23.428 Y76.537 F1080.000
G1 E1.00000 F1800.00000
G1 X23.428 Y65.537 E1.25119 F600.000
G1 E0.25119 F1800.00000
G92 E0
G1 X21.928 Y76.537 F1080.000
G1 E1.00000 F1800.00000
G1 X21.928 Y65.537 E1.25119 F600.000
G1 E0.25119 F1800.00000
G92 E0
G1 X20.428 Y76.537 F1080.000
G1 E1.00000 F1800.00000
G1 X20.428 Y65.537 E1.25119 F600.000
G1 E0.25119 F1800.00000
G92 E0
G1 X18.928 Y76.537 F1080.000
G1 E1.00000 F1800.00000
G1 X18.928 Y65.537 E1.25119 F600.000
G1 E0.25119 F1800.00000
G92 E0
G1 X17.428 Y76.537 F1080.000
G1 E1.00000 F1800.00000
G1 X17.428 Y65.537 E1.25119 F600.000
G1 E0.25119 F1800.00000
G92 E0
G1 X15.928 Y76.537 F1080.000
G1 E1.00000 F1800.00000
G1 X15.928 Y65.537 E1.25119 F600.000
G1 E0.25119 F1800.00000
G92 E0
G1 X14.428 Y76.537 F1080.000
G1 E1.00000 F1800.00000
G1 X14.428 Y65.537 E1.25119 F600.000
G1 E0.25119 F1800.00000
G92 E0
G1 Z1.800 F1080.000
G1 X24.928 Y76.537 F1080.000
G1 E1.00000 F1800.00000
G1 X24.928 Y65.537 E1.25119 F600.000
G1 E0.25119 F1800.00000
G92 E0
G1 X23.428 Y76.537 F1080.000
G1 E1.00000 F1800.00000
G1 X23.428 Y65.537 E1.25119 F600.000
G1 E0.25119 F1800.00000
G92 E0
G1 X21.928 Y76.537 F1080.000
G1 E1.00000 F1800.00000
G1 X21.928 Y65.537 E1.25119 F600.000
G1 E0.25119 F1800.00000
G92 E0
G1 X20.428 Y76.537 F1080.000
G1 E1.00000 F1800.00000
G1 X20.428 Y65.537 E1.25119 F600.000
G1 E0.25119 F1800.00000
G92 E0
G1 X18.928 Y76.537 F1080.000
G1 E1.00000 F1800.00000
G1 X18.928 Y65.537 E1.25119 F600.000
G1 E0.25119 F1800.00000
G92 E0
G1 X17.428 Y76.537 F1080.000
G1 E1.00000 F1800.00000
G1 X17.428 Y65.537 E1.25119 F600.000
G1 E0.25119 F1800.00000
G92 E0
G1 X15.928 Y76.537 F1080.000
G1 E1.00000 F1800.00000
G1 X15.928 Y65.537 E1.25119 F600.000
G1 E0.25119 F1800.00000
G92 E0
G1 X14.428 Y76.537 F1080.000
G1 E1.00000 F1800.00000
G1 X14.428 Y65.537 E1.25119 F600.000
G1 E0.25119 F1800.00000
G92 E0
G1 Z2.000 F1080.000
G1 X24.928 Y76.537 F1080.000
G1 E1.00000 F1800.00000
G1 X24.928 Y65.537 E1.25119 F600.000
G1 E0.25119 F1800.00000
G92 E0
G1 X23.428 Y76.537 F1080.000
G1 E1.00000 F1800.00000
G1 X23.428 Y65.537 E1.25119 F600.000
G1 E0.25119 F1800.00000
G92 E0
G1 X21.928 Y76.537 F1080.000
G1 E1.00000 F1800.00000
G1 X21.928 Y65.537 E1.25119 F600.000
G1 E0.25119 F1800.00000
G92 E0
G1 X20.428 Y76.537 F1080.000
G1 E1.00000 F1800.00000
G1 X20.428 Y65.537 E1.25119 F600.000
G1 E0.25119 F1800.00000
G92 E0
G1 X18.928 Y76.537 F1080.000
G1 E1.00000 F1800.00000
G1 X18.928 Y65.537 E1.25119 F600.000
G1 E0.25119 F1800.00000
G92 E0
G1 X17.428 Y76.537 F1080.000
G1 E1.00000 F1800.00000
G1 X17.428 Y65.537 E1.25119 F600.000
G1 E0.25119 F1800.00000
G92 E0
G1 X15.928 Y76.537 F1080.000
G1 E1.00000 F1800.00000
G1 X15.928 Y65.537 E1.25119 F600.000
G1 E0.25119 F1800.00000
G92 E0
G1 X14.428 Y76.537 F1080.000
G1 E1.00000 F1800.00000
G1 X14.428 Y65.537 E1.25119 F600.000
G1 E0.25119 F1800.00000
G92 E0
G1 Z2.200 F1080.000
G1 X24.928 Y76.537 F1080.000
G1 E1.00000 F1800.00000
G1 X24.928 Y65.537 E1.25119 F600.000
G1 E0.25119 F1800.00000
G92 E0
G1 X23.428 Y76.537 F1080.000
G1 E1.00000 F1800.00000
G1 X23.428 Y65.537 E1.25119 F600.000
G1 E0.25119 F1800.00000
G92 E0
G1 X21.928 Y76.537 F1080.000
G1 E1.00000 F1800.00000
G1 X21.928 Y65.537 E1.25119 F600.000
G1 E0.25119 F1800.00000
G92 E0
G1 X20.428 Y76.537 F1080.000
G1 E1.00000 F1800.00000
G1 X20.428 Y65.537 E1.25119 F600.000
G1 E0.25119 F1800.00000
G92 E0
G1 X18.928 Y76.537 F1080.000
G1 E1.00000 F1800.00000
G1 X18.928 Y65.537 E1.25119 F600.000
G1 E0.25119 F1800.00000
G92 E0
G1 X17.428 Y76.537 F1080.000
G1 E1.00000 F1800.00000
G1 X17.428 Y65.537 E1.25119 F600.000
G1 E0.25119 F1800.00000
G92 E0
G1 X15.928 Y76.537 F1080.000
G1 E1.00000 F1800.00000
G1 X15.928 Y65.537 E1.25119 F600.000
G1 E0.25119 F1800.00000
G92 E0
G1 X14.428 Y76.537 F1080.000
G1 E1.00000 F1800.00000
G1 X14.428 Y65.537 E1.25119 F600.000
G1 E0.25119 F1800.00000
G92 E0
G1 Z2.400 F1080.000
G1 X24.928 Y76.537 F1080.000
G1 E1.00000 F1800.00000
G1 X24.928 Y65.537 E1.25119 F600.000
G1 E0.25119 F1800.00000
G92 E0
G1 X23.428 Y76.537 F1080.000
G1 E1.00000 F1800.00000
G1 X23.428 Y65.537 E1.25119 F600.000
G1 E0.25119 F1800.00000
G92 E0
G1 X21.928 Y76.537 F1080.000
G1 E1.00000 F1800.00000
G1 X21.928 Y65.537 E1.25119 F600.000
G1 E0.25119 F1800.00000
G92 E0
G1 X20.428 Y76.537 F1080.000
G1 E1.00000 F1800.00000
G1 X20.428 Y65.537 E1.25119 F600.000
G1 E0.25119 F1800.00000
G92 E0
G1 X18.928 Y76.537 F1080.000
G1 E1.00000 F1800.00000
G1 X18.928 Y65.537 E1.25119 F600.000
G1 E0.25119 F1800.00000
G92 E0
G1 X17.428 Y76.537 F1080.000
G1 E1.00000 F1800.00000
G1 X17.428 Y65.537 E1.25119 F600.000
G1 E0.25119 F1800.00000
G92 E0
G1 X15.928 Y76.537 F1080.000
G1 E1.00000 F1800.00000
G1 X15.928 Y65.537 E1.25119 F600.000
G1 E0.25119 F1800.00000
G92 E0
G1 X14.428 Y76.537 F1080.000
G1 E1.00000 F1800.00000
G1 X14.428 Y65.537 E1.25119 F600.000
G1 E0.25119 F1800.00000
G92 E0
G1 Z2.600 F1080.000
G1 X25.178 Y76.287 F1080.000
G1 E1.00000 F1800.00000
G1 X14.178 Y76.287 E1.25119 F600.000
G1 E0.25119 F1800.00000
G92 E0
G1 X25.178 Y74.787 F1080.000
G1 E1.00000 F1800.00000
G1 X14.178 Y74.787 E1.25119 F600.000
G1 E0.25119 F1800.00000
G92 E0
G1 X25.178 Y73.287 F1080.000
G1 E1.00000 F1800.00000
G1 X14.178 Y73.287 E1.25119 F600.000
G1 E0.25119 F1800.00000
G92 E0
G1 X25.178 Y71.787 F1080.000
G1 E1.00000 F1800.00000
G1 X14.178 Y71.787 E1.25119 F600.000
G1 E0.25119 F1800.00000
G92 E0
G1 X25.178 Y70.287 F1080.000
G1 E1.00000 F1800.00000
G1 X14.178 Y70.287 E1.25119 F600.000
G1 E0.25119 F1800.00000
G92 E0
G1 X25.178 Y68.787 F1080.000
G1 E1.00000 F1800.00000
G1 X14.178 Y68.787 E1.25119 F600.000
G1 E0.25119 F1800.00000
G92 E0
G1 X25.178 Y67.287 F1080.000
G1 E1.00000 F1800.00000
G1 X14.178 Y67.287 E1.25119 F600.000
G1 E0.25119 F1800.00000
G92 E0
G1 X25.178 Y65.787 F1080.000
G1 E1.00000 F1800.00000
G1 X14.178 Y65.787 E1.25119 F600.000
G1 E0.25119 F1800.00000
G92 E0
G1 Z2.800 F1080.000
G1 X25.178 Y76.287 F1080.000
G1 E1.00000 F1800.00000
G1 X14.178 Y76.287 E1.25119 F600.000
G1 E0.25119 F1800.00000
G92 E0
G1 X25.178 Y74.787 F1080.000
G1 E1.00000 F1800.00000
G1 X14.178 Y74.787 E1.25119 F600.000
G1 E0.25119 F1800.00000
G92 E0
G1 X25.178 Y73.287 F1080.000
G1 E1.00000 F1800.00000
G1 X14.178 Y73.287 E1.25119 F600.000
G1 E0.25119 F1800.00000
G92 E0
G1 X25.178 Y71.787 F1080.000
G1 E1.00000 F1800.00000
G1 X14.178 Y71.787 E1.25119 F600.000
G1 E0.25119 F1800.00000
G92 E0
G1 X25.178 Y70.287 F1080.000
G1 E1.00000 F1800.00000
G1 X14.178 Y70.287 E1.25119 F600.000
G1 E0.25119 F1800.00000
G92 E0
G1 X25.178 Y68.787 F1080.000
G1 E1.00000 F1800.00000
G1 X14.178 Y68.787 E1.25119 F600.000
G1 E0.25119 F1800.00000
G92 E0
G1 X25.178 Y67.287 F1080.000
G1 E1.00000 F1800.00000
G1 X14.178 Y67.287 E1.25119 F600.000
G1 E0.25119 F1800.00000
G92 E0
G1 X25.178 Y65.787 F1080.000
G1 E1.00000 F1800.00000
G1 X14.178 Y65.787 E1.25119 F600.000
G1 E0.25119 F1800.00000
G92 E0
G1 Z3.000 F1080.000
G1 X25.178 Y76.287 F1080.000
G1 E1.00000 F1800.00000
G1 X14.178 Y76.287 E1.25119 F600.000
G1 E0.25119 F1800.00000
G92 E0
G1 X25.178 Y74.787 F1080.000
G1 E1.00000 F1800.00000
G1 X14.178 Y74.787 E1.25119 F600.000
G1 E0.25119 F1800.00000
G92 E0
G1 X25.178 Y73.287 F1080.000
G1 E1.00000 F1800.00000
G1 X14.178 Y73.287 E1.25119 F600.000
G1 E0.25119 F1800.00000
G92 E0
G1 X25.178 Y71.787 F1080.000
G1 E1.00000 F1800.00000
G1 X14.178 Y71.787 E1.25119 F600.000
G1 E0.25119 F1800.00000
G92 E0
G1 X25.178 Y70.287 F1080.000
G1 E1.00000 F1800.00000
G1 X14.178 Y70.287 E1.25119 F600.000
G1 E0.25119 F1800.00000
G92 E0
G1 X25.178 Y68.787 F1080.000
G1 E1.00000 F1800.00000
G1 X14.178 Y68.787 E1.25119 F600.000
G1 E0.25119 F1800.00000
G92 E0
G1 X25.178 Y67.287 F1080.000
G1 E1.00000 F1800.00000
G1 X14.178 Y67.287 E1.25119 F600.000
G1 E0.25119 F1800.00000
G92 E0
G1 X25.178 Y65.787 F1080.000
G1 E1.00000 F1800.00000
G1 X14.178 Y65.787 E1.25119 F600.000
