; POST PROCESSED
G1 Z45
G1 E22
G21
G1 X11.2 Y63.0 F1000
; generated by Slic3r 1.2.9 on 2016-01-12 at 16:16:19

; external perimeters extrusion width = 0.20mm
; perimeters extrusion width = 0.21mm
; infill extrusion width = 0.21mm
; solid infill extrusion width = 0.21mm
; top infill extrusion width = 0.21mm

M400 ; wait for commands to complete
M42 P16 S0 ; turn extruder 0 off
M400
G91
G1 E-2
G90


G21 ; set units to millimeters
G90 ; use absolute coordinates
M82 ; use absolute distances for extrusion
T0 ; ensure we keep T0 active to prevent changing pressure
M400 ; wait for commands to complete
G1 E22 F1000.0 ; move extruder to midpoint
M400 ; wait for commands to complete
G1 Z25
M400 ; wait for commands to complete
M42 P16 S0 ; turn extruder 0 off
M400
G91
G1 E-2
G90
G1 F480.000

G1 X12.7 Y60.5 F480.000

G1 X12.7 Y60.5
G1 E46 ; Move extruder to E0 position of 46
G1 Z16.2
M400 ; wait for commands to complete
M42 P16 S255 ; turn extruder 0 on
M400 ; wait for commands to complete
G1 X12.7 Y65.5 F240.000

G1 X12.7 Y65.5
G1 X11.7 Y65.5
G1 X11.7 Y65.5
G1 X11.7 Y60.5
G1 X11.7 Y60.5
G1 X10.7 Y60.5
G1 X10.7 Y60.5
G1 X10.7 Y65.5
G1 X10.7 Y65.5
G1 X9.7 Y65.5
G1 X9.7 Y65.5
G1 X9.7 Y60.5
G92
M400 ; wait for commands to complete
M42 P16 S0 ; turn extruder 0 off
M400
G91
G1 E-2
G90
T0 ; ensure we keep T0 active to prevent changing pressure
M400 ; wait for commands to complete
G1 E22 F1000.0 ; move extruder to midpoint
M400 ; wait for commands to complete
G1 Z25
G1 X60.53 Y60.5 F480.000

G1 X60.53 Y60.5
G1 E0 ; Move extruder to E1 position of 0
G1 Z13
M400 ; wait for commands to complete
M42 P17 S255 ; turn extruder 1 on
M400 ; wait for commands to complete
G1 X60.53 Y65.0 F240.000

G92
M400 ; wait for commands to complete
M42 P17 S0 ; turn extruder 1 off
M400
G91
G1 E2
G90
G1 X59.53 Y65.5 F480.000

G1 X59.53 Y65.5
G1 E0 ; Move extruder to E1 position of 0
G1 Z13
M400 ; wait for commands to complete
M42 P17 S255 ; turn extruder 1 on
M400 ; wait for commands to complete
G1 X59.53 Y61.0 F240.000

G92
M400 ; wait for commands to complete
M42 P17 S0 ; turn extruder 1 off
M400
G91
G1 E2
G90
G1 X58.53 Y60.5 F480.000

G1 X58.53 Y60.5
G1 E0 ; Move extruder to E1 position of 0
G1 Z13
M400 ; wait for commands to complete
M42 P17 S255 ; turn extruder 1 on
M400 ; wait for commands to complete
G1 X58.53 Y65.0 F240.000

G92
M400 ; wait for commands to complete
M42 P17 S0 ; turn extruder 1 off
M400
G91
G1 E2
G90
M400 ; wait for commands to complete
M42 P17 S0 ; turn extruder 1 off
M400
G91
G1 E2
G90
G1 Z50 F1000
G1 E22
G1 X59.53 Y63.0
G1 Z13
G1 E0
M400
M42 P4 S25 ; CROSSLINK HERE
G4 P2000
M42 P4 S0
G1 Z50 F1000
G1 E22
G1 X59.53 Y63.0
G1 Z13
G1 F480.000

T0 ; ensure we keep T0 active to prevent changing pressure
M400 ; wait for commands to complete
G1 E22 F1000.0 ; move extruder to midpoint
M400 ; wait for commands to complete
G1 Z25
G1 X13.7 Y64.5 F480.000

G1 X13.7 Y64.5
G1 E46 ; Move extruder to E0 position of 46
G1 Z16.2
M400 ; wait for commands to complete
M42 P16 S255 ; turn extruder 0 on
M400 ; wait for commands to complete
G1 X8.7 Y64.5 F240.000

G1 X8.7 Y64.5
G1 X8.7 Y63.5
G1 X8.7 Y63.5
G1 X13.7 Y63.5
G1 X13.7 Y63.5
G1 X13.7 Y62.5
G1 X13.7 Y62.5
G1 X8.7 Y62.5
G1 X8.7 Y62.5
G1 X8.7 Y61.5
G1 X8.7 Y61.5
G1 X13.7 Y61.5
G92
M400 ; wait for commands to complete
M42 P16 S0 ; turn extruder 0 off
M400
G91
G1 E-2
G90
T0 ; ensure we keep T0 active to prevent changing pressure
M400 ; wait for commands to complete
G1 E22 F1000.0 ; move extruder to midpoint
M400 ; wait for commands to complete
G1 Z25
G1 X62.03 Y64.0 F480.000

G1 X62.03 Y64.0
G1 E0 ; Move extruder to E1 position of 0
G1 Z13.4
M400 ; wait for commands to complete
M42 P17 S255 ; turn extruder 1 on
M400 ; wait for commands to complete
G1 X57.53 Y64.0 F240.000

G92
M400 ; wait for commands to complete
M42 P17 S0 ; turn extruder 1 off
M400
G91
G1 E2
G90
G1 X57.03 Y63.0 F480.000

G1 X57.03 Y63.0
G1 E0 ; Move extruder to E1 position of 0
G1 Z13.4
M400 ; wait for commands to complete
M42 P17 S255 ; turn extruder 1 on
M400 ; wait for commands to complete
G1 X61.53 Y63.0 F240.000

G92
M400 ; wait for commands to complete
M42 P17 S0 ; turn extruder 1 off
M400
G91
G1 E2
G90
G1 X62.03 Y62.0 F480.000

G1 X62.03 Y62.0
G1 E0 ; Move extruder to E1 position of 0
G1 Z13.4
M400 ; wait for commands to complete
M42 P17 S255 ; turn extruder 1 on
M400 ; wait for commands to complete
G1 X57.53 Y62.0 F240.000

G92
M400 ; wait for commands to complete
M42 P17 S0 ; turn extruder 1 off
M400
G91
G1 E2
G90
M400 ; wait for commands to complete
M42 P17 S0 ; turn extruder 1 off
M400
G91
G1 E2
G90
G1 Z50 F1000
G1 E22
G1 X59.53 Y63.0
G1 Z13.4
G1 E0
M400
M42 P4 S25 ; CROSSLINK HERE
G4 P2000
M42 P4 S0
G1 Z50 F1000
G1 E22
G1 X59.53 Y63.0
G1 Z13.4
G1 F480.000

T0 ; ensure we keep T0 active to prevent changing pressure
M400 ; wait for commands to complete
G1 E22 F1000.0 ; move extruder to midpoint
M400 ; wait for commands to complete
G1 Z25
G1 X13.7 Y64.5 F480.000

G1 X12.7 Y60.5 F480.000

G1 X12.7 Y60.5
G1 E46 ; Move extruder to E0 position of 46
G1 Z16.2
M400 ; wait for commands to complete
M42 P16 S255 ; turn extruder 0 on
M400 ; wait for commands to complete
G1 X12.7 Y65.5 F240.000

G1 X12.7 Y65.5
G1 X11.7 Y65.5
G1 X11.7 Y65.5
G1 X11.7 Y60.5
G1 X11.7 Y60.5
G1 X10.7 Y60.5
G1 X10.7 Y60.5
G1 X10.7 Y65.5
G1 X10.7 Y65.5
G1 X9.7 Y65.5
G1 X9.7 Y65.5
G1 X9.7 Y60.5
G92
M400 ; wait for commands to complete
M42 P16 S0 ; turn extruder 0 off
M400
G91
G1 E-2
G90
T0 ; ensure we keep T0 active to prevent changing pressure
M400 ; wait for commands to complete
G1 E22 F1000.0 ; move extruder to midpoint
M400 ; wait for commands to complete
G1 Z25
G1 X60.53 Y60.5 F480.000

G1 X60.53 Y60.5
G1 E0 ; Move extruder to E1 position of 0
G1 Z14.0
M400 ; wait for commands to complete
M42 P17 S255 ; turn extruder 1 on
M400 ; wait for commands to complete
G1 X60.53 Y65.0
G92
M400 ; wait for commands to complete
M42 P17 S0 ; turn extruder 1 off
M400
G91
G1 E2
G90
G1 X59.53 Y65.5 F480.000

G1 X59.53 Y65.5
G1 E0 ; Move extruder to E1 position of 0
G1 Z14.0
M400 ; wait for commands to complete
M42 P17 S255 ; turn extruder 1 on
M400 ; wait for commands to complete
G1 X59.53 Y61.0
G92
M400 ; wait for commands to complete
M42 P17 S0 ; turn extruder 1 off
M400
G91
G1 E2
G90
G1 X58.53 Y60.5 F480.000

G1 X58.53 Y60.5
G1 E0 ; Move extruder to E1 position of 0
G1 Z14.0
M400 ; wait for commands to complete
M42 P17 S255 ; turn extruder 1 on
M400 ; wait for commands to complete
G1 X58.53 Y65.0
G92
M400 ; wait for commands to complete
M42 P17 S0 ; turn extruder 1 off
M400
G91
G1 E2
G90
M400 ; wait for commands to complete
M42 P17 S0 ; turn extruder 1 off
M400
G91
G1 E2
G90
G1 Z50 F1000
G1 E22
G1 X59.53 Y63.0
G1 Z14.0
G1 E0
M400
M42 P4 S25 ; CROSSLINK HERE
G4 P2000
M42 P4 S0
G1 Z50 F1000
G1 E22
G1 X59.53 Y63.0
G1 Z14.0
G1 F480.000

T0 ; ensure we keep T0 active to prevent changing pressure
M400 ; wait for commands to complete
G1 E22 F1000.0 ; move extruder to midpoint
M400 ; wait for commands to complete
G1 Z25
G1 X13.7 Y64.5 F480.000

G1 X13.7 Y64.5
G1 E46 ; Move extruder to E0 position of 46
G1 Z16.2
M400 ; wait for commands to complete
M42 P16 S255 ; turn extruder 0 on
M400 ; wait for commands to complete
G1 X8.7 Y64.5 F240.000

G1 X8.7 Y64.5
G1 X8.7 Y63.5
G1 X8.7 Y63.5
G1 X13.7 Y63.5
G1 X13.7 Y63.5
G1 X13.7 Y62.5
G1 X13.7 Y62.5
G1 X8.7 Y62.5
G1 X8.7 Y62.5
G1 X8.7 Y61.5
G1 X8.7 Y61.5
G1 X13.7 Y61.5
G92
M400 ; wait for commands to complete
M42 P16 S0 ; turn extruder 0 off
M400
G91
G1 E-2
G90
T0 ; ensure we keep T0 active to prevent changing pressure
M400 ; wait for commands to complete
G1 E22 F1000.0 ; move extruder to midpoint
M400 ; wait for commands to complete
G1 Z25
G1 X62.03 Y64.0 F480.000

G1 X62.03 Y64.0
G1 E0 ; Move extruder to E1 position of 0
G1 Z14.8
M400 ; wait for commands to complete
M42 P17 S255 ; turn extruder 1 on
M400 ; wait for commands to complete
G1 X57.53 Y64.0 F240.000

G92
M400 ; wait for commands to complete
M42 P17 S0 ; turn extruder 1 off
M400
G91
G1 E2
G90
G1 X57.03 Y63.0 F480.000

G1 X57.03 Y63.0
G1 E0 ; Move extruder to E1 position of 0
G1 Z14.8
M400 ; wait for commands to complete
M42 P17 S255 ; turn extruder 1 on
M400 ; wait for commands to complete
G1 X61.53 Y63.0 F240.000

G92
M400 ; wait for commands to complete
M42 P17 S0 ; turn extruder 1 off
M400
G91
G1 E2
G90
G1 X62.03 Y62.0 F480.000

G1 X62.03 Y62.0
G1 E0 ; Move extruder to E1 position of 0
G1 Z14.8
M400 ; wait for commands to complete
M42 P17 S255 ; turn extruder 1 on
M400 ; wait for commands to complete
G1 X57.53 Y62.0 F240.000

G92
M400 ; wait for commands to complete
M42 P17 S0 ; turn extruder 1 off
M400
G91
G1 E2
G90
; filament used = 0.1mm (0.0cm3)

; avoid_crossing_perimeters = 0
; bed_shape = 44.7535x4.70378,44.0166x9.35603,42.7975x13.9058,41.1095x18.3031,38.9711x22.5,36.4058x26.4503,33.4415x30.1109,30.1109x33.4415,26.4503x36.4058,22.5x38.9711,18.3031x41.1095,13.9058x42.7975,9.35603x44.0166,4.70378x44.7535,0x45,-4.70378x44.7535,-9.35603x44.0166,-13.9058x42.7975,-18.3031x41.1095,-22.5x38.9711,-26.4503x36.4058,-30.1109x33.4415,-33.4415x30.1109,-36.4058x26.4503,-38.9711x22.5,-41.1095x18.3031,-42.7975x13.9058,-44.0166x9.35603,-44.7535x4.70378,-45x0,-44.7535x-4.70378,-44.0166x-9.35603,-42.7975x-13.9058,-41.1095x-18.3031,-38.9711x-22.5,-36.4058x-26.4503,-33.4415x-30.1109,-30.1109x-33.4415,-26.4503x-36.4058,-22.5x-38.9711,-18.3031x-41.1095,-13.9058x-42.7975,-9.35603x-44.0166,-4.70378x-44.7535,0x-45,4.70378x-44.7535,9.35603x-44.0166,13.9058x-42.7975,18.3031x-41.1095,22.5x-38.9711,26.4503x-36.4058,30.1109x-33.4415,33.4415x-30.1109,36.4058x-26.4503,38.9711x-22.5,41.1095x-18.3031,42.7975x-13.9058,44.0166x-9.35603,44.7535x-4.70378,45x0
; bed_temperature = 0
; before_layer_gcode = 
; bridge_acceleration = 0
; bridge_fan_speed = 100
; brim_width = 0
; complete_objects = 0
; cooling = 1
; default_acceleration = 0
; disable_fan_first_layers = 3
; duplicate_distance = 6
; end_gcode = M84     ; disable motors\n
; extruder_clearance_height = 20
; extruder_clearance_radius = 20
; extruder_offset = 0x0,0x0
; extrusion_axis = E
; extrusion_multiplier = 1
; fan_always_on = 0
; fan_below_layer_time = 60
; filament_colour = #FFFFFF
; filament_diameter = 3
; first_layer_acceleration = 0
; first_layer_bed_temperature = 0
; first_layer_extrusion_width = 0
; first_layer_speed = 4
; first_layer_temperature = 200
; gcode_arcs = 0
; gcode_comments = 0
; gcode_flavor = reprap
; infill_acceleration = 0
; infill_first = 0
; layer_gcode = 
; max_fan_speed = 100
; max_print_speed = 4
; max_volumetric_speed = 0
; min_fan_speed = 35
; min_print_speed = 10
; min_skirt_length = 0
; notes = 
; nozzle_diameter = 0.2,0.2
; only_retract_when_crossing_perimeters = 1
; ooze_prevention = 0
; output_filename_format = [input_filename_base].gcode
; perimeter_acceleration = 0
; post_process = 
; pressure_advance = 0
; resolution = 0
; retract_before_travel = 0,0
; retract_layer_change = 1,1
; retract_length = 0,0
; retract_length_toolchange = 0,0
; retract_lift = 0,0
; retract_restart_extra = 0,0
; retract_restart_extra_toolchange = 1,1
; retract_speed = 4,4
; skirt_distance = 6
; skirt_height = 1
; skirts = 0
; slowdown_below_layer_time = 5
; spiral_vase = 0
; standby_temperature_delta = -5
; start_gcode = G28 ; home all axes\n\n
; temperature = 200
; threads = 2
; toolchange_gcode = 
; travel_speed = 8
; use_firmware_retraction = 0
; use_relative_e_distances = 0
; use_volumetric_e = 0
; vibration_limit = 0
; wipe = 0,0
; z_offset = 0
; dont_support_bridges = 1
; extrusion_width = 0
; first_layer_height = 0.2
; infill_only_where_needed = 0
; interface_shells = 0
; layer_height = 0.2
; raft_layers = 0
; seam_position = aligned
; support_material = 0
; support_material_angle = 0
; support_material_contact_distance = 0.2
; support_material_enforce_layers = 0
; support_material_extruder = 1
; support_material_extrusion_width = 0
; support_material_interface_extruder = 1
; support_material_interface_layers = 3
; support_material_interface_spacing = 0
; support_material_interface_speed = 100%
; support_material_pattern = pillars
; support_material_spacing = 2.5
; support_material_speed = 4
; support_material_threshold = 0
; xy_size_compensation = 0
; bottom_solid_layers = 1
; bridge_flow_ratio = 1
; bridge_speed = 4
; external_fill_pattern = rectilinear
; external_perimeter_extrusion_width = 0
; external_perimeter_speed = 4
; external_perimeters_first = 0
; extra_perimeters = 1
; fill_angle = 45
; fill_density = 99%
; fill_pattern = honeycomb
; gap_fill_speed = 4
; infill_every_layers = 1
; infill_extruder = 1
; infill_extrusion_width = 0
; infill_overlap = 15%
; infill_speed = 4
; overhangs = 1
; perimeter_extruder = 1
; perimeter_extrusion_width = 0
; perimeter_speed = 4
; perimeters = 1
; small_perimeter_speed = 4
; solid_infill_below_area = 70
; solid_infill_every_layers = 0
; solid_infill_extruder = 1
; solid_infill_extrusion_width = 0
; solid_infill_speed = 4
; thin_walls = 1
; top_infill_extrusion_width = 0
; top_solid_infill_speed = 4
; top_solid_layers = 1

M400 ; wait for commands to complete
M42 P17 S0 ; turn extruder 1 off
M400
G91
G1 E2
G90
G1 Z50 F1000
G1 E22
G1 X59.53 Y63.0
G1 Z14.8
G1 E0
M400
M42 P4 S100 ; CROSSLINK HERE
G4 P2000
M42 P4 S0
G1 Z50 F1000
G1 E22
G1 X59.53 Y63.0
G1 Z14.8
M42 P16 S0
M42 P17 S0
G1 Z50 F1000
G1 E0 F1000
G1 X0 Y0 F1000
