; POST PROCESSED
G1 Z45
G1 E22
G21
G1 X11.2 Y63.0 F1000
; generated by Slic3r 1.2.9 on 2016-01-12 at 16:16:19

; external perimeters extrusion width = 0.20mm
; perimeters extrusion width = 0.21mm
; infill extrusion width = 0.21mm
; solid infill extrusion width = 0.21mm
; top infill extrusion width = 0.21mm

M400 ; wait for commands to complete
M42 P16 S0 ; turn extruder 0 off
M400
G91
G1 E-2
G90


G21 ; set units to millimeters
G90 ; use absolute coordinates
M82 ; use absolute distances for extrusion
T0 ; ensure we keep T0 active to prevent changing pressure
M400 ; wait for commands to complete
G1 E22 F1000.0 ; move extruder to midpoint
M400 ; wait for commands to complete
G1 Z25
M400 ; wait for commands to complete
M42 P16 S0 ; turn extruder 0 off
M400
G91
G1 E-2
G90
G1 F480.000

G1 X12.7 Y60.5 F480.000

G1 X12.7 Y60.5
G1 E46 ; Move extruder to E0 position of 46
G1 Z16.2
M400 ; wait for commands to complete
M42 P16 S255 ; turn extruder 0 on
M400 ; wait for commands to complete
G1 X12.7 Y65.5 F240.000

G1 X12.7 Y65.5
G1 X11.7 Y65.5
G1 X11.7 Y65.5
G1 X11.7 Y60.5
G1 X11.7 Y60.5
G1 X10.7 Y60.5
G1 X10.7 Y60.5
G1 X10.7 Y65.5
G1 X10.7 Y65.5
G1 X9.7 Y65.5
G1 X9.7 Y65.5
G1 X9.7 Y60.5
G92
M400 ; wait for commands to complete
M42 P16 S0 ; turn extruder 0 off
M400
G91
G1 E-2
G90
T0 ; ensure we keep T0 active to prevent changing pressure
M400 ; wait for commands to complete
G1 E22 F1000.0 ; move extruder to midpoint
M400 ; wait for commands to complete
G1 Z25
G1 X60.53 Y60.5 F480.000

G1 X60.53 Y60.5
G1 E0 ; Move extruder to E1 position of 0
G1 Z13
M400 ; wait for commands to complete
M42 P17 S255 ; turn extruder 1 on
M400 ; wait for commands to complete
G1 X60.53 Y65.0 F240.000

G92
M400 ; wait for commands to complete
M42 P17 S0 ; turn extruder 1 off
M400
G91
G1 E2
G90
G1 X59.53 Y65.5 F480.000

G1 X59.53 Y65.5
G1 E0 ; Move extruder to E1 position of 0
G1 Z13
M400 ; wait for commands to complete
M42 P17 S255 ; turn extruder 1 on
M400 ; wait for commands to complete
G1 X59.53 Y61.0 F240.000

G92
M400 ; wait for commands to complete
M42 P17 S0 ; turn extruder 1 off
M400
G91
G1 E2
G90
G1 X58.53 Y60.5 F480.000

G1 X58.53 Y60.5
G1 E0 ; Move extruder to E1 position of 0
G1 Z13
M400 ; wait for commands to complete
M42 P17 S255 ; turn extruder 1 on
M400 ; wait for commands to complete
G1 X58.53 Y65.0 F240.000

G92
M400 ; wait for commands to complete
M42 P17 S0 ; turn extruder 1 off
M400
G91
G1 E2
G90
M400 ; wait for commands to complete
M42 P17 S0 ; turn extruder 1 off
M400
G91
G1 E2
G90
