; generated by Slic3r 1.1.7 on 2016-02-09 at 10:31:37

; perimeters extrusion width = 0.25mm
; infill extrusion width = 0.26mm
; solid infill extrusion width = 0.26mm
; top infill extrusion width = 0.26mm

G21 ; set units to millimeters
G28; home all axes
G1 Z5 F5000
G90 ; use absolute coordinates
G92 E0
M82 ; use absolute distances for extrusion
G1 Z0.200 F480.000
G1 X33.954 Y31.672 F480.000
G1 X28.368 Y37.258 E0.08221 F240.000
G1 X28.297 Y37.304 E0.08309
G1 X28.226 Y37.258 E0.08398
G1 X22.711 Y31.742 E0.16515
G1 X22.640 Y31.696 E0.16603
G1 X22.569 Y31.742 E0.16691
G1 X17.054 Y37.258 E0.24808
G1 X16.983 Y37.304 E0.24896
G1 X16.912 Y37.258 E0.24984
G1 X11.391 Y31.736 E0.33111
G1 X11.320 Y31.690 E0.33199
G1 X11.249 Y31.736 E0.33287
G1 X5.728 Y37.258 E0.41414
G1 X5.657 Y37.304 E0.41502
G1 X5.586 Y37.258 E0.41590
G1 X0.071 Y31.742 E0.49707
G1 X0.000 Y31.696 E0.49795
G1 X-0.071 Y31.742 E0.49883
G1 X-5.586 Y37.258 E0.58001
G1 X-5.657 Y37.304 E0.58089
G1 X-5.728 Y37.258 E0.58177
G1 X-11.249 Y31.736 E0.66303
G1 X-11.320 Y31.690 E0.66391
G1 X-11.391 Y31.736 E0.66480
G1 X-16.912 Y37.258 E0.74606
G1 X-16.983 Y37.304 E0.74694
G1 X-17.054 Y37.258 E0.74782
G1 X-22.569 Y31.742 E0.82900
G1 X-22.640 Y31.696 E0.82988
G1 X-22.711 Y31.742 E0.83076
G1 X-28.226 Y37.258 E0.91193
G1 X-28.297 Y37.304 E0.91281
G1 X-28.368 Y37.258 E0.91369
G1 X-33.954 Y31.672 E0.99591
G1 X33.954 Y26.672 F480.000
G1 X28.368 Y32.258 E1.07812 F240.000
G1 X28.297 Y32.304 E1.07900
G1 X28.226 Y32.258 E1.07988
G1 X22.711 Y26.742 E1.16105
G1 X22.640 Y26.696 E1.16194
G1 X22.569 Y26.742 E1.16282
G1 X17.054 Y32.258 E1.24399
G1 X16.983 Y32.304 E1.24487
G1 X16.912 Y32.258 E1.24575
G1 X11.391 Y26.736 E1.32702
G1 X11.320 Y26.690 E1.32790
G1 X11.249 Y26.736 E1.32878
G1 X5.728 Y32.258 E1.41004
G1 X5.657 Y32.304 E1.41092
G1 X5.586 Y32.258 E1.41180
G1 X0.071 Y26.742 E1.49298
G1 X0.000 Y26.696 E1.49386
G1 X-0.071 Y26.742 E1.49474
G1 X-5.586 Y32.258 E1.57591
G1 X-5.657 Y32.304 E1.57679
G1 X-5.728 Y32.258 E1.57767
G1 X-11.249 Y26.736 E1.65894
G1 X-11.320 Y26.690 E1.65982
G1 X-11.391 Y26.736 E1.66070
G1 X-16.912 Y32.258 E1.74197
G1 X-16.983 Y32.304 E1.74285
G1 X-17.054 Y32.258 E1.74373
G1 X-22.569 Y26.742 E1.82490
G1 X-22.640 Y26.696 E1.82578
G1 X-22.711 Y26.742 E1.82666
G1 X-28.226 Y32.258 E1.90784
G1 X-28.297 Y32.304 E1.90872
G1 X-28.368 Y32.258 E1.90960
G1 X-33.954 Y26.672 E1.99181
G1 X33.954 Y21.672 F480.000
G1 X28.368 Y27.258 E2.07403 F240.000
G1 X28.297 Y27.304 E2.07491
G1 X28.226 Y27.258 E2.07579
G1 X22.711 Y21.742 E2.15696
G1 X22.640 Y21.696 E2.15784
G1 X22.569 Y21.742 E2.15872
G1 X17.054 Y27.258 E2.23990
G1 X16.983 Y27.304 E2.24078
G1 X16.912 Y27.258 E2.24166
G1 X11.391 Y21.736 E2.32292
G1 X11.320 Y21.690 E2.32380
G1 X11.249 Y21.736 E2.32468
G1 X5.728 Y27.258 E2.40595
G1 X5.657 Y27.304 E2.40683
G1 X5.586 Y27.258 E2.40771
G1 X0.071 Y21.742 E2.48888
G1 X0.000 Y21.696 E2.48976
G1 X-0.071 Y21.742 E2.49064
G1 X-5.586 Y27.258 E2.57182
G1 X-5.657 Y27.304 E2.57270
G1 X-5.728 Y27.258 E2.57358
G1 X-11.249 Y21.736 E2.65485
G1 X-11.320 Y21.690 E2.65573
G1 X-11.391 Y21.736 E2.65661
G1 X-16.912 Y27.258 E2.73787
G1 X-16.983 Y27.304 E2.73875
G1 X-17.054 Y27.258 E2.73963
G1 X-22.569 Y21.742 E2.82081
G1 X-22.640 Y21.696 E2.82169
G1 X-22.711 Y21.742 E2.82257
G1 X-28.226 Y27.258 E2.90374
G1 X-28.297 Y27.304 E2.90462
G1 X-28.368 Y27.258 E2.90550
G1 X-33.954 Y21.672 E2.98772
G1 X33.954 Y17.672 F480.000
G1 X28.368 Y23.258 E3.06993 F240.000
G1 X28.297 Y23.304 E3.07081
G1 X28.226 Y23.258 E3.07169
G1 X22.711 Y17.742 E3.15287
G1 X22.640 Y17.696 E3.15375
G1 X22.569 Y17.742 E3.15463
G1 X17.054 Y23.258 E3.23580
G1 X16.983 Y23.304 E3.23668
G1 X16.912 Y23.258 E3.23756
G1 X11.391 Y17.736 E3.31883
G1 X11.320 Y17.690 E3.31971
G1 X11.249 Y17.736 E3.32059
G1 X5.728 Y23.258 E3.40186
G1 X5.657 Y23.304 E3.40274
G1 X5.586 Y23.258 E3.40362
G1 X0.071 Y17.742 E3.48479
G1 X0.000 Y17.696 E3.48567
G1 X-0.071 Y17.742 E3.48655
G1 X-5.586 Y23.258 E3.56772
G1 X-5.657 Y23.304 E3.56860
G1 X-5.728 Y23.258 E3.56949
G1 X-11.249 Y17.736 E3.65075
G1 X-11.320 Y17.690 E3.65163
G1 X-11.391 Y17.736 E3.65251
G1 X-16.912 Y23.258 E3.73378
G1 X-16.983 Y23.304 E3.73466
G1 X-17.054 Y23.258 E3.73554
G1 X-22.569 Y17.742 E3.81671
G1 X-22.640 Y17.696 E3.81759
G1 X-22.711 Y17.742 E3.81847
G1 X-28.226 Y23.258 E3.89965
G1 X-28.297 Y23.304 E3.90053
G1 X-28.368 Y23.258 E3.90141
G1 X-33.954 Y17.672 E3.98362
G1 X33.954 Y12.672 F480.000
G1 X28.368 Y18.258 E4.06584 F240.000
G1 X28.297 Y18.304 E4.06672
G1 X28.226 Y18.258 E4.06760
G1 X22.711 Y12.742 E4.14877
G1 X22.640 Y12.696 E4.14965
G1 X22.569 Y12.742 E4.15053
G1 X17.054 Y18.258 E4.23171
G1 X16.983 Y18.304 E4.23259
G1 X16.912 Y18.258 E4.23347
G1 X11.391 Y12.736 E4.31473
G1 X11.320 Y12.690 E4.31561
G1 X11.249 Y12.736 E4.31649
G1 X5.728 Y18.258 E4.39776
G1 X5.657 Y18.304 E4.39864
G1 X5.586 Y18.258 E4.39952
G1 X0.071 Y12.742 E4.48070
G1 X0.000 Y12.696 E4.48158
G1 X-0.071 Y12.742 E4.48246
G1 X-5.586 Y18.258 E4.56363
G1 X-5.657 Y18.304 E4.56451
G1 X-5.728 Y18.258 E4.56539
G1 X-11.249 Y12.736 E4.64666
G1 X-11.320 Y12.690 E4.64754
G1 X-11.391 Y12.736 E4.64842
G1 X-16.912 Y18.258 E4.72968
G1 X-16.983 Y18.304 E4.73056
G1 X-17.054 Y18.258 E4.73145
G1 X-22.569 Y12.742 E4.81262
G1 X-22.640 Y12.696 E4.81350
G1 X-22.711 Y12.742 E4.81438
G1 X-28.226 Y18.258 E4.89555
G1 X-28.297 Y18.304 E4.89643
G1 X-28.368 Y18.258 E4.89731
G1 X-33.954 Y12.672 E4.97953
G1 X33.954 Y7.672 F480.000
G1 X28.368 Y13.258 E5.06174 F240.000
G1 X28.297 Y13.304 E5.06262
G1 X28.226 Y13.258 E5.06350
G1 X22.711 Y7.742 E5.14468
G1 X22.640 Y7.696 E5.14556
G1 X22.569 Y7.742 E5.14644
G1 X17.054 Y13.258 E5.22761
G1 X16.983 Y13.304 E5.22849
G1 X16.912 Y13.258 E5.22937
G1 X11.391 Y7.736 E5.31064
G1 X11.320 Y7.690 E5.31152
G1 X11.249 Y7.736 E5.31240
G1 X5.728 Y13.258 E5.39367
G1 X5.657 Y13.304 E5.39455
G1 X5.586 Y13.258 E5.39543
G1 X0.071 Y7.742 E5.47660
G1 X0.000 Y7.696 E5.47748
G1 X-0.071 Y7.742 E5.47836
G1 X-5.586 Y13.258 E5.55954
G1 X-5.657 Y13.304 E5.56042
G1 X-5.728 Y13.258 E5.56130
G1 X-11.249 Y7.736 E5.64256
G1 X-11.320 Y7.690 E5.64344
G1 X-11.391 Y7.736 E5.64432
G1 X-16.912 Y13.258 E5.72559
G1 X-16.983 Y13.304 E5.72647
G1 X-17.054 Y13.258 E5.72735
G1 X-22.569 Y7.742 E5.80852
G1 X-22.640 Y7.696 E5.80941
G1 X-22.711 Y7.742 E5.81029
G1 X-28.226 Y13.258 E5.89146
G1 X-28.297 Y13.304 E5.89234
G1 X-28.368 Y13.258 E5.89322
G1 X-33.954 Y7.672 E5.97543
G1 X33.954 Y1.702 F480.000
G1 X28.368 Y7.288 E6.05765 F240.000
G1 X28.297 Y7.334 E6.05853
G1 X28.226 Y7.288 E6.05941
G1 X22.711 Y1.772 E6.14058
G1 X22.640 Y1.726 E6.14146
G1 X22.569 Y1.772 E6.14234
G1 X17.054 Y7.288 E6.22352
G1 X16.983 Y7.334 E6.22440
G1 X16.912 Y7.288 E6.22528
G1 X11.391 Y1.766 E6.30655
G1 X11.320 Y1.720 E6.30743
G1 X11.249 Y1.766 E6.30831
G1 X5.728 Y7.288 E6.38957
G1 X5.657 Y7.334 E6.39045
G1 X5.586 Y7.288 E6.39133
G1 X0.071 Y1.772 E6.47251
G1 X0.000 Y1.726 E6.47339
G1 X-0.071 Y1.772 E6.47427
G1 X-5.586 Y7.288 E6.55544
G1 X-5.657 Y7.334 E6.55632
G1 X-5.728 Y7.288 E6.55720
G1 X-11.249 Y1.766 E6.63847
G1 X-11.320 Y1.720 E6.63935
G1 X-11.391 Y1.766 E6.64023
G1 X-16.912 Y7.288 E6.72150
G1 X-16.983 Y7.334 E6.72238
G1 X-17.054 Y7.288 E6.72326
G1 X-22.569 Y1.772 E6.80443
G1 X-22.640 Y1.726 E6.80531
G1 X-22.711 Y1.772 E6.80619
G1 X-28.226 Y7.288 E6.88737
G1 X-28.297 Y7.334 E6.88825
G1 X-28.368 Y7.288 E6.88913
G1 X-33.954 Y1.702 E6.97134
G1 X33.954 Y-3.298 F480.000
G1 X28.368 Y2.288 E7.05355 F240.000
G1 X28.297 Y2.334 E7.05444
G1 X28.226 Y2.288 E7.05532
G1 X22.711 Y-3.228 E7.13649
G1 X22.640 Y-3.274 E7.13737
G1 X22.569 Y-3.228 E7.13825
G1 X17.054 Y2.288 E7.21942
G1 X16.983 Y2.334 E7.22030
G1 X16.912 Y2.288 E7.22118
G1 X11.391 Y-3.234 E7.30245
G1 X11.320 Y-3.280 E7.30333
G1 X11.249 Y-3.234 E7.30421
G1 X5.728 Y2.288 E7.38548
G1 X5.657 Y2.334 E7.38636
G1 X5.586 Y2.288 E7.38724
G1 X0.071 Y-3.228 E7.46841
G1 X0.000 Y-3.274 E7.46929
G1 X-0.071 Y-3.228 E7.47017
G1 X-5.586 Y2.288 E7.55135
G1 X-5.657 Y2.334 E7.55223
G1 X-5.728 Y2.288 E7.55311
G1 X-11.249 Y-3.234 E7.63437
G1 X-11.320 Y-3.280 E7.63526
G1 X-11.391 Y-3.234 E7.63614
G1 X-16.912 Y2.288 E7.71740
G1 X-16.983 Y2.334 E7.71828
G1 X-17.054 Y2.288 E7.71916
G1 X-22.569 Y-3.228 E7.80034
G1 X-22.640 Y-3.274 E7.80122
G1 X-22.711 Y-3.228 E7.80210
G1 X-28.226 Y2.288 E7.88327
G1 X-28.297 Y2.334 E7.88415
G1 X-28.368 Y2.288 E7.88503
G1 X-33.954 Y-3.298 E7.96725
G1 X33.954 Y-8.298 F480.000
G1 X28.368 Y-2.712 E8.04946 F240.000
G1 X28.297 Y-2.666 E8.05034
G1 X28.226 Y-2.712 E8.05122
G1 X22.711 Y-8.228 E8.13240
G1 X22.640 Y-8.274 E8.13328
G1 X22.569 Y-8.228 E8.13416
G1 X17.054 Y-2.712 E8.21533
G1 X16.983 Y-2.666 E8.21621
G1 X16.912 Y-2.712 E8.21709
G1 X11.391 Y-8.234 E8.29836
G1 X11.320 Y-8.280 E8.29924
G1 X11.249 Y-8.234 E8.30012
G1 X5.728 Y-2.712 E8.38138
G1 X5.657 Y-2.666 E8.38226
G1 X5.586 Y-2.712 E8.38315
G1 X0.071 Y-8.228 E8.46432
G1 X0.000 Y-8.274 E8.46520
G1 X-0.071 Y-8.228 E8.46608
G1 X-5.586 Y-2.712 E8.54725
G1 X-5.657 Y-2.666 E8.54813
G1 X-5.728 Y-2.712 E8.54901
G1 X-11.249 Y-8.234 E8.63028
G1 X-11.320 Y-8.280 E8.63116
G1 X-11.391 Y-8.234 E8.63204
G1 X-16.912 Y-2.712 E8.71331
G1 X-16.983 Y-2.666 E8.71419
G1 X-17.054 Y-2.712 E8.71507
G1 X-22.569 Y-8.228 E8.79624
G1 X-22.640 Y-8.274 E8.79712
G1 X-22.711 Y-8.228 E8.79800
G1 X-28.226 Y-2.712 E8.87918
G1 X-28.297 Y-2.666 E8.88006
G1 X-28.368 Y-2.712 E8.88094
G1 X-33.954 Y-8.298 E8.96315
G1 X33.954 Y-15.328 F480.000
G1 X28.368 Y-9.742 E9.04537 F240.000
G1 X28.297 Y-9.696 E9.04625
G1 X28.226 Y-9.742 E9.04713
G1 X22.711 Y-15.258 E9.12830
G1 X22.640 Y-15.304 E9.12918
G1 X22.569 Y-15.258 E9.13006
G1 X17.054 Y-9.742 E9.21124
G1 X16.983 Y-9.696 E9.21212
G1 X16.912 Y-9.742 E9.21300
G1 X11.391 Y-15.264 E9.29426
G1 X11.320 Y-15.310 E9.29514
G1 X11.249 Y-15.264 E9.29602
G1 X5.728 Y-9.742 E9.37729
G1 X5.657 Y-9.696 E9.37817
G1 X5.586 Y-9.742 E9.37905
G1 X0.071 Y-15.258 E9.46022
G1 X0.000 Y-15.304 E9.46111
G1 X-0.071 Y-15.258 E9.46199
G1 X-5.586 Y-9.742 E9.54316
G1 X-5.657 Y-9.696 E9.54404
G1 X-5.728 Y-9.742 E9.54492
G1 X-11.249 Y-15.264 E9.62619
G1 X-11.320 Y-15.310 E9.62707
G1 X-11.391 Y-15.264 E9.62795
G1 X-16.912 Y-9.742 E9.70921
G1 X-16.983 Y-9.696 E9.71009
G1 X-17.054 Y-9.742 E9.71097
G1 X-22.569 Y-15.258 E9.79215
G1 X-22.640 Y-15.304 E9.79303
G1 X-22.711 Y-15.258 E9.79391
G1 X-28.226 Y-9.742 E9.87508
G1 X-28.297 Y-9.696 E9.87596
G1 X-28.368 Y-9.742 E9.87684
G1 X-33.954 Y-15.328 E9.95906
G1 X33.954 Y-20.328 F480.000
G1 X28.368 Y-14.742 E10.04127 F240.000
G1 X28.297 Y-14.696 E10.04215
G1 X28.226 Y-14.742 E10.04303
G1 X22.711 Y-20.258 E10.12421
G1 X22.640 Y-20.304 E10.12509
G1 X22.569 Y-20.258 E10.12597
G1 X17.054 Y-14.742 E10.20714
G1 X16.983 Y-14.696 E10.20802
G1 X16.912 Y-14.742 E10.20890
G1 X11.391 Y-20.264 E10.29017
G1 X11.320 Y-20.310 E10.29105
G1 X11.249 Y-20.264 E10.29193
G1 X5.728 Y-14.742 E10.37320
G1 X5.657 Y-14.696 E10.37408
G1 X5.586 Y-14.742 E10.37496
G1 X0.071 Y-20.258 E10.45613
G1 X0.000 Y-20.304 E10.45701
G1 X-0.071 Y-20.258 E10.45789
G1 X-5.586 Y-14.742 E10.53907
G1 X-5.657 Y-14.696 E10.53995
G1 X-5.728 Y-14.742 E10.54083
G1 X-11.249 Y-20.264 E10.62209
G1 X-11.320 Y-20.310 E10.62297
G1 X-11.391 Y-20.264 E10.62385
G1 X-16.912 Y-14.742 E10.70512
G1 X-16.983 Y-14.696 E10.70600
G1 X-17.054 Y-14.742 E10.70688
G1 X-22.569 Y-20.258 E10.78805
G1 X-22.640 Y-20.304 E10.78893
G1 X-22.711 Y-20.258 E10.78982
G1 X-28.226 Y-14.742 E10.87099
G1 X-28.297 Y-14.696 E10.87187
G1 X-28.368 Y-14.742 E10.87275
G1 X-33.954 Y-20.328 E10.95496
G1 X33.954 Y-25.328 F480.000
G1 X28.368 Y-19.742 E11.03718 F240.000
G1 X28.297 Y-19.696 E11.03806
G1 X28.226 Y-19.742 E11.03894
G1 X22.711 Y-25.258 E11.12011
G1 X22.640 Y-25.304 E11.12099
G1 X22.569 Y-25.258 E11.12187
G1 X17.054 Y-19.742 E11.20305
G1 X16.983 Y-19.696 E11.20393
G1 X16.912 Y-19.742 E11.20481
G1 X11.391 Y-25.264 E11.28607
G1 X11.320 Y-25.310 E11.28696
G1 X11.249 Y-25.264 E11.28784
G1 X5.728 Y-19.742 E11.36910
G1 X5.657 Y-19.696 E11.36998
G1 X5.586 Y-19.742 E11.37086
G1 X0.071 Y-25.258 E11.45204
G1 X0.000 Y-25.304 E11.45292
G1 X-0.071 Y-25.258 E11.45380
G1 X-5.586 Y-19.742 E11.53497
G1 X-5.657 Y-19.696 E11.53585
G1 X-5.728 Y-19.742 E11.53673
G1 X-11.249 Y-25.264 E11.61800
G1 X-11.320 Y-25.310 E11.61888
G1 X-11.391 Y-25.264 E11.61976
G1 X-16.912 Y-19.742 E11.70103
G1 X-16.983 Y-19.696 E11.70191
G1 X-17.054 Y-19.742 E11.70279
G1 X-22.569 Y-25.258 E11.78396
G1 X-22.640 Y-25.304 E11.78484
G1 X-22.711 Y-25.258 E11.78572
G1 X-28.226 Y-19.742 E11.86689
G1 X-28.297 Y-19.696 E11.86778
G1 X-28.368 Y-19.742 E11.86866
G1 X-33.954 Y-25.328 E11.95087
G1 Z0.400 F480.000
G1 X33.954 Y31.672 F480.000
G1 X28.368 Y37.258 E12.00675 F240.000
G1 X28.297 Y37.304 E12.00735
G1 X28.226 Y37.258 E12.00795
G1 X22.711 Y31.742 E12.06312
G1 X22.640 Y31.696 E12.06372
G1 X22.569 Y31.742 E12.06432
G1 X17.054 Y37.258 E12.11949
G1 X16.983 Y37.304 E12.12009
G1 X16.912 Y37.258 E12.12069
G1 X11.391 Y31.736 E12.17593
G1 X11.320 Y31.690 E12.17652
G1 X11.249 Y31.736 E12.17712
G1 X5.728 Y37.258 E12.23236
G1 X5.657 Y37.304 E12.23296
G1 X5.586 Y37.258 E12.23356
G1 X0.071 Y31.742 E12.28873
G1 X0.000 Y31.696 E12.28933
G1 X-0.071 Y31.742 E12.28993
G1 X-5.586 Y37.258 E12.34510
G1 X-5.657 Y37.304 E12.34570
G1 X-5.728 Y37.258 E12.34630
G1 X-11.249 Y31.736 E12.40153
G1 X-11.320 Y31.690 E12.40213
G1 X-11.391 Y31.736 E12.40273
G1 X-16.912 Y37.258 E12.45797
G1 X-16.983 Y37.304 E12.45857
G1 X-17.054 Y37.258 E12.45916
G1 X-22.569 Y31.742 E12.51434
G1 X-22.640 Y31.696 E12.51494
G1 X-22.711 Y31.742 E12.51553
G1 X-28.226 Y37.258 E12.57071
G1 X-28.297 Y37.304 E12.57131
G1 X-28.368 Y37.258 E12.57191
G1 X-33.954 Y31.672 E12.62779
G1 X33.954 Y26.672 F480.000
G1 X28.368 Y32.258 E12.68367 F240.000
G1 X28.297 Y32.304 E12.68427
G1 X28.226 Y32.258 E12.68486
G1 X22.711 Y26.742 E12.74004
G1 X22.640 Y26.696 E12.74064
G1 X22.569 Y26.742 E12.74124
G1 X17.054 Y32.258 E12.79641
G1 X16.983 Y32.304 E12.79701
G1 X16.912 Y32.258 E12.79761
G1 X11.391 Y26.736 E12.85284
G1 X11.320 Y26.690 E12.85344
G1 X11.249 Y26.736 E12.85404
G1 X5.728 Y32.258 E12.90928
G1 X5.657 Y32.304 E12.90987
G1 X5.586 Y32.258 E12.91047
G1 X0.071 Y26.742 E12.96565
G1 X0.000 Y26.696 E12.96624
G1 X-0.071 Y26.742 E12.96684
G1 X-5.586 Y32.258 E13.02202
G1 X-5.657 Y32.304 E13.02262
G1 X-5.728 Y32.258 E13.02321
G1 X-11.249 Y26.736 E13.07845
G1 X-11.320 Y26.690 E13.07905
G1 X-11.391 Y26.736 E13.07965
G1 X-16.912 Y32.258 E13.13488
G1 X-16.983 Y32.304 E13.13548
G1 X-17.054 Y32.258 E13.13608
G1 X-22.569 Y26.742 E13.19125
G1 X-22.640 Y26.696 E13.19185
G1 X-22.711 Y26.742 E13.19245
G1 X-28.226 Y32.258 E13.24762
G1 X-28.297 Y32.304 E13.24822
G1 X-28.368 Y32.258 E13.24882
G1 X-33.954 Y26.672 E13.30470
G1 X33.954 Y21.672 F480.000
G1 X28.368 Y27.258 E13.36058 F240.000
G1 X28.297 Y27.304 E13.36118
G1 X28.226 Y27.258 E13.36178
G1 X22.711 Y21.742 E13.41695
G1 X22.640 Y21.696 E13.41755
G1 X22.569 Y21.742 E13.41815
G1 X17.054 Y27.258 E13.47333
G1 X16.983 Y27.304 E13.47392
G1 X16.912 Y27.258 E13.47452
G1 X11.391 Y21.736 E13.52976
G1 X11.320 Y21.690 E13.53036
G1 X11.249 Y21.736 E13.53096
G1 X5.728 Y27.258 E13.58619
G1 X5.657 Y27.304 E13.58679
G1 X5.586 Y27.258 E13.58739
G1 X0.071 Y21.742 E13.64256
G1 X0.000 Y21.696 E13.64316
G1 X-0.071 Y21.742 E13.64376
G1 X-5.586 Y27.258 E13.69893
G1 X-5.657 Y27.304 E13.69953
G1 X-5.728 Y27.258 E13.70013
G1 X-11.249 Y21.736 E13.75537
G1 X-11.320 Y21.690 E13.75597
G1 X-11.391 Y21.736 E13.75656
G1 X-16.912 Y27.258 E13.81180
G1 X-16.983 Y27.304 E13.81240
G1 X-17.054 Y27.258 E13.81300
G1 X-22.569 Y21.742 E13.86817
G1 X-22.640 Y21.696 E13.86877
G1 X-22.711 Y21.742 E13.86937
G1 X-28.226 Y27.258 E13.92454
