; generated by Slic3r 0.9.9 on 2015-12-02 at 18:52:15

; layer_height = 0.4
; perimeters = 3
; top_solid_layers = 3
; bottom_solid_layers = 3
; fill_density = 0.4
; perimeter_speed = 30
; infill_speed = 60
; travel_speed = 130
; nozzle_diameter = 0.5
; filament_diameter = 3
; extrusion_multiplier = 1
; perimeters extrusion width = 0.53mm
; infill extrusion width = 0.53mm
; solid infill extrusion width = 0.53mm
; top infill extrusion width = 0.53mm
; first layer extrusion width = 0.70mm

G21 ; set units to millimeters
M104 S200 ; set temperature
G28 ; home all axes
G1 Z5 F5000 ; lift nozzle
M109 S200 ; wait for temperature to be reached
G90 ; use absolute coordinates
M400 ; wait for commands to complete
M42 P16 S0 ; turn extruder 0 off
M82 ; use absolute distances for extrusion
G1 F1800.000
M400 ; wait for commands to complete
M42 P16 S0 ; turn extruder 0 off
G1 Z0.350 F7800.000
G1 X100.516 Y100.924
G1 F1800.000
G1 X101.125 Y100.894 F540.000
G1 X101.125 Y99.700
G1 X100.375 Y99.700
G1 X100.312 Y99.250
G1 X100.375 Y99.700 F7800.000
G1 X99.625 Y99.700 F540.000
G1 X99.625 Y99.700 F7800.000
G1 X99.562 Y99.250 F540.000
G1 X98.812 Y99.250 F7800.000
G1 X98.875 Y99.700 F540.000
G1 X98.125 Y99.700
G1 X98.125 Y99.700 F7800.000
G1 X98.062 Y99.250 F540.000
G1 X98.125 Y99.700 F7800.000
G1 X98.125 Y99.700 F1800.000
G1 X97.522 Y99.700 F7800.000
G1 X98.125 Y99.700 F540.000
G1 X98.125 Y100.907
G1 X97.875 Y100.890
G1 X97.875 Y100.890 F7800.000
G1 X97.551 Y100.899 F540.000
G1 X97.551 Y100.899 F7800.000
G1 X97.331 Y100.686 F540.000
G1 X97.331 Y100.686 F7800.000
G1 X97.320 Y100.343 F540.000
G1 X97.320 Y100.343 F7800.000
G1 X97.419 Y100.150 F540.000
G1 X97.316 Y100.000
G1 X97.522 Y99.700
G1 X97.367 Y99.279
G1 X98.875 Y99.700 F7800.000
G1 X98.875 Y100.894 F540.000
G1 X98.375 Y100.894 F7800.000
G1 X99.484 Y100.924 F540.000
G1 X99.484 Y100.924 F7800.000
G1 X99.625 Y100.888 F540.000
G1 X99.625 Y99.700
G1 X98.875 Y99.700
G1 X98.375 Y100.894 F7800.000
G1 X98.125 Y100.907 F540.000
G1 X99.625 Y100.888 F7800.000
G1 X99.875 Y100.900 F540.000
G1 X99.875 Y100.900 F7800.000
G1 X100.375 Y100.888 F540.000
G1 X100.375 Y99.700
G1 X101.125 Y99.700 F7800.000
G1 X101.125 Y99.700 F540.000
G1 X101.062 Y99.250 F7800.000
G1 X101.125 Y99.700 F540.000
G1 X101.875 Y99.700
G1 X101.875 Y100.907
G1 X101.125 Y100.894
G1 X100.516 Y100.924 F7800.000
G1 X100.375 Y100.888 F540.000
G1 X101.875 Y100.907 F7800.000
G1 X101.891 Y100.915 F540.000
G1 X101.891 Y100.915 F7800.000
G1 X102.375 Y100.888 F540.000
G1 X102.375 Y100.888 F7800.000
G1 X102.653 Y100.690 F540.000
G1 X102.538 Y100.450
G1 X102.375 Y99.803 F7800.000
G1 X102.326 Y99.700 F540.000
G1 X102.375 Y99.577 F7800.000
G1 X102.125 Y99.700 F540.000
G1 X102.125 Y99.700 F7800.000
G1 X101.875 Y99.700 F540.000
G1 X101.875 Y99.700 F7800.000
G1 X101.812 Y99.250 F540.000
G1 F1800.000
M400 ; wait for commands to complete
M42 P16 S0 ; turn extruder 0 off
G1 Z0.750 F7800.000
G1 Z1.150
G1 X102.423 Y100.899
G1 F1800.000
G1 X102.633 Y100.606 F1800.000
G1 X102.563 Y99.885
G1 X102.302 Y99.700
G1 X102.375 Y99.562
G1 X102.302 Y99.700 F7800.000
G1 X102.125 Y99.700 F1800.000
G1 X102.125 Y99.700 F7800.000
G1 X101.875 Y99.700 F1800.000
G1 X101.875 Y99.700 F7800.000
G1 X101.875 Y100.894 F1800.000
G1 X101.310 Y100.911
G1 X101.310 Y100.911 F7800.000
G1 X101.125 Y100.889 F1800.000
G1 X100.524 Y100.914 F7800.000
G1 X101.125 Y100.889 F1800.000
G1 X101.125 Y100.100
G1 X101.125 Y100.100 F7800.000
G1 X101.125 Y99.700 F1800.000
G1 X101.125 Y99.700 F7800.000
G1 X101.875 Y99.700 F1800.000
G1 X101.792 Y99.100
G1 X101.083 Y99.300 F7800.000
G1 X101.125 Y99.700 F1800.000
G1 X100.375 Y99.700
G1 X100.292 Y99.100
G1 X99.583 Y99.300 F7800.000
G1 X99.625 Y99.700 F1800.000
G1 X98.875 Y99.700
G1 X98.875 Y99.700 F7800.000
G1 X98.875 Y100.889 F1800.000
G1 X98.625 Y100.891 F7800.000
G1 X99.476 Y100.914 F1800.000
G1 X99.476 Y100.914 F7800.000
G1 X99.625 Y100.887 F1800.000
G1 X99.625 Y99.700
G1 X99.625 Y99.700 F7800.000
G1 X100.375 Y99.700 F1800.000
G1 X100.375 Y100.100
G1 X100.375 Y100.100 F7800.000
G1 X100.375 Y100.887 F1800.000
G1 X99.738 Y100.914
G1 X99.738 Y100.914 F7800.000
G1 X99.625 Y100.887 F1800.000
G1 X100.375 Y100.887 F7800.000
G1 X100.524 Y100.914 F1800.000
G1 X101.875 Y100.894 F7800.000
G1 X102.423 Y100.899 F1800.000
G1 F1800.000
M400 ; wait for commands to complete
M42 P16 S0 ; turn extruder 0 off
G1 X101.083 Y99.300 F7800.000
G1 F1800.000
G1 X101.042 Y99.100 F1800.000
G1 X99.583 Y99.300 F7800.000
G1 X99.542 Y99.100 F1800.000
G1 X98.792 Y99.100 F7800.000
G1 X98.875 Y99.700 F1800.000
G1 X98.375 Y99.700
G1 X98.375 Y99.700 F7800.000
G1 X98.125 Y99.700 F1800.000
G1 X98.125 Y99.700 F7800.000
G1 X98.083 Y99.300 F1800.000
G1 X98.083 Y99.300 F7800.000
G1 X98.042 Y99.100 F1800.000
G1 X97.295 Y99.160 F7800.000
G1 X97.548 Y99.700 F1800.000
G1 X98.125 Y99.700
G1 X98.125 Y100.300
G1 X98.125 Y100.300 F7800.000
G1 X98.125 Y100.894 F1800.000
G1 X97.547 Y100.899
G1 X97.346 Y100.600
G1 X97.359 Y100.120
G1 X97.359 Y100.120 F7800.000
G1 X97.375 Y99.880 F1800.000
G1 X97.375 Y99.880 F7800.000
G1 X97.548 Y99.700 F1800.000
G1 X98.125 Y100.894 F7800.000
G1 X98.429 Y100.910 F1800.000
G1 X98.429 Y100.910 F7800.000
G1 X98.625 Y100.891 F1800.000
G1 F1800.000
M400 ; wait for commands to complete
M42 P16 S0 ; turn extruder 0 off
G1 Z1.550 F7800.000
G1 Z1.950
G1 X102.423 Y100.899
G1 F1800.000
G1 X102.633 Y100.606 F1800.000
G1 X102.563 Y99.885
G1 X102.302 Y99.700
G1 X102.375 Y99.562
G1 X102.302 Y99.700 F7800.000
G1 X102.125 Y99.700 F1800.000
G1 X102.125 Y99.700 F7800.000
G1 X101.875 Y99.700 F1800.000
G1 X101.875 Y99.700 F7800.000
G1 X101.875 Y100.894 F1800.000
G1 X101.310 Y100.911
G1 X101.310 Y100.911 F7800.000
G1 X101.125 Y100.889 F1800.000
G1 X100.524 Y100.914 F7800.000
G1 X101.125 Y100.889 F1800.000
G1 X101.125 Y100.100
G1 X101.125 Y100.100 F7800.000
G1 X101.125 Y99.700 F1800.000
G1 X101.125 Y99.700 F7800.000
G1 X101.875 Y99.700 F1800.000
G1 X101.792 Y99.100
G1 X101.083 Y99.300 F7800.000
G1 X101.125 Y99.700 F1800.000
G1 X100.375 Y99.700
G1 X100.292 Y99.100
G1 X99.583 Y99.300 F7800.000
G1 X99.625 Y99.700 F1800.000
G1 X98.875 Y99.700
G1 X98.875 Y99.700 F7800.000
G1 X98.875 Y100.889 F1800.000
G1 X98.625 Y100.891 F7800.000
G1 X99.476 Y100.914 F1800.000
G1 X99.476 Y100.914 F7800.000
G1 X99.625 Y100.887 F1800.000
G1 X99.625 Y99.700
G1 X99.625 Y99.700 F7800.000
G1 X100.375 Y99.700 F1800.000
G1 X100.375 Y100.100
G1 X100.375 Y100.100 F7800.000
G1 X100.375 Y100.887 F1800.000
G1 X99.738 Y100.914
G1 X99.738 Y100.914 F7800.000
G1 X99.625 Y100.887 F1800.000
G1 X100.375 Y100.887 F7800.000
G1 X100.524 Y100.914 F1800.000
G1 X101.875 Y100.894 F7800.000
G1 X102.423 Y100.899 F1800.000
G1 F1800.000
M400 ; wait for commands to complete
M42 P16 S0 ; turn extruder 0 off
G1 X101.083 Y99.300 F7800.000
G1 F1800.000
G1 X101.042 Y99.100 F1800.000
G1 X99.583 Y99.300 F7800.000
G1 X99.542 Y99.100 F1800.000
G1 X98.792 Y99.100 F7800.000
G1 X98.875 Y99.700 F1800.000
G1 X98.375 Y99.700
G1 X98.375 Y99.700 F7800.000
G1 X98.125 Y99.700 F1800.000
G1 X98.125 Y99.700 F7800.000
G1 X98.083 Y99.300 F1800.000
G1 X98.083 Y99.300 F7800.000
G1 X98.042 Y99.100 F1800.000
G1 X97.295 Y99.160 F7800.000
G1 X97.548 Y99.700 F1800.000
G1 X98.125 Y99.700
G1 X98.125 Y100.300
G1 X98.125 Y100.300 F7800.000
G1 X98.125 Y100.894 F1800.000
G1 X97.547 Y100.899
G1 X97.346 Y100.600
G1 X97.359 Y100.120
G1 X97.359 Y100.120 F7800.000
G1 X97.375 Y99.880 F1800.000
G1 X97.375 Y99.880 F7800.000
G1 X97.548 Y99.700 F1800.000
G1 X98.125 Y100.894 F7800.000
G1 X98.429 Y100.910 F1800.000
G1 X98.429 Y100.910 F7800.000
G1 X98.625 Y100.891 F1800.000
G1 F1800.000
M400 ; wait for commands to complete
M42 P16 S0 ; turn extruder 0 off
G1 Z2.350 F7800.000
G1 Z2.750
G1 Z3.150
G1 Z3.550
G1 Z3.950
G1 X102.423 Y100.899
G1 F1800.000
G1 X102.633 Y100.606 F1800.000
G1 X102.563 Y99.885
G1 X102.302 Y99.700
G1 X102.375 Y99.562
G1 X102.302 Y99.700 F7800.000
G1 X102.125 Y99.700 F1800.000
G1 X102.125 Y99.700 F7800.000
G1 X101.875 Y99.700 F1800.000
G1 X101.875 Y99.700 F7800.000
G1 X101.875 Y100.894 F1800.000
G1 X101.310 Y100.911
G1 X101.310 Y100.911 F7800.000
G1 X101.125 Y100.889 F1800.000
G1 X100.524 Y100.914 F7800.000
G1 X101.125 Y100.889 F1800.000
G1 X101.125 Y100.100
G1 X101.125 Y100.100 F7800.000
G1 X101.125 Y99.700 F1800.000
G1 X101.125 Y99.700 F7800.000
G1 X101.875 Y99.700 F1800.000
G1 X101.792 Y99.100
G1 X101.083 Y99.300 F7800.000
G1 X101.125 Y99.700 F1800.000
G1 X100.375 Y99.700
G1 X100.292 Y99.100
G1 X99.583 Y99.300 F7800.000
G1 X99.625 Y99.700 F1800.000
G1 X98.875 Y99.700
G1 X98.875 Y99.700 F7800.000
G1 X98.875 Y100.889 F1800.000
G1 X98.625 Y100.891 F7800.000
G1 X99.476 Y100.914 F1800.000
G1 X99.476 Y100.914 F7800.000
G1 X99.625 Y100.887 F1800.000
G1 X99.625 Y99.700
G1 X99.625 Y99.700 F7800.000
G1 X100.375 Y99.700 F1800.000
G1 X100.375 Y100.100
G1 X100.375 Y100.100 F7800.000
G1 X100.375 Y100.887 F1800.000
G1 X99.738 Y100.914
G1 X99.738 Y100.914 F7800.000
G1 X99.625 Y100.887 F1800.000
G1 X100.375 Y100.887 F7800.000
G1 X100.524 Y100.914 F1800.000
G1 X101.875 Y100.894 F7800.000
G1 X102.423 Y100.899 F1800.000
G1 F1800.000
M400 ; wait for commands to complete
M42 P16 S0 ; turn extruder 0 off
G1 X101.083 Y99.300 F7800.000
G1 F1800.000
G1 X101.042 Y99.100 F1800.000
G1 X99.583 Y99.300 F7800.000
G1 X99.542 Y99.100 F1800.000
G1 X98.792 Y99.100 F7800.000
G1 X98.875 Y99.700 F1800.000
G1 X98.375 Y99.700
G1 X98.375 Y99.700 F7800.000
G1 X98.125 Y99.700 F1800.000
G1 X98.125 Y99.700 F7800.000
G1 X98.083 Y99.300 F1800.000
G1 X98.083 Y99.300 F7800.000
G1 X98.042 Y99.100 F1800.000
G1 X97.295 Y99.160 F7800.000
G1 X97.548 Y99.700 F1800.000
G1 X98.125 Y99.700
G1 X98.125 Y100.300
G1 X98.125 Y100.300 F7800.000
G1 X98.125 Y100.894 F1800.000
G1 X97.547 Y100.899
G1 X97.346 Y100.600
G1 X97.359 Y100.120
G1 X97.359 Y100.120 F7800.000
G1 X97.375 Y99.880 F1800.000
G1 X97.375 Y99.880 F7800.000
G1 X97.548 Y99.700 F1800.000
G1 X98.125 Y100.894 F7800.000
G1 X98.429 Y100.910 F1800.000
G1 X98.429 Y100.910 F7800.000
G1 X98.625 Y100.891 F1800.000
G1 F1800.000
M400 ; wait for commands to complete
M42 P16 S0 ; turn extruder 0 off
G1 Z4.350 F7800.000
G1 Z4.750
G1 X102.423 Y100.899
G1 F1800.000
G1 X102.633 Y100.606 F1800.000
G1 X102.563 Y99.885
G1 X102.302 Y99.700
G1 X102.375 Y99.562
G1 X102.302 Y99.700 F7800.000
G1 X102.125 Y99.700 F1800.000
G1 X102.125 Y99.700 F7800.000
G1 X101.875 Y99.700 F1800.000
G1 X101.875 Y99.700 F7800.000
G1 X101.875 Y100.894 F1800.000
G1 X101.310 Y100.911
G1 X101.310 Y100.911 F7800.000
G1 X101.125 Y100.889 F1800.000
G1 X100.524 Y100.914 F7800.000
G1 X101.125 Y100.889 F1800.000
G1 X101.125 Y100.100
G1 X101.125 Y100.100 F7800.000
G1 X101.125 Y99.700 F1800.000
G1 X101.125 Y99.700 F7800.000
G1 X101.875 Y99.700 F1800.000
G1 X101.792 Y99.100
G1 X101.083 Y99.300 F7800.000
G1 X101.125 Y99.700 F1800.000
G1 X100.375 Y99.700
G1 X100.292 Y99.100
G1 X99.583 Y99.300 F7800.000
G1 X99.625 Y99.700 F1800.000
G1 X98.875 Y99.700
G1 X98.875 Y99.700 F7800.000
G1 X98.875 Y100.889 F1800.000
G1 X98.625 Y100.891 F7800.000
G1 X99.476 Y100.914 F1800.000
G1 X99.476 Y100.914 F7800.000
G1 X99.625 Y100.887 F1800.000
G1 X99.625 Y99.700
G1 X99.625 Y99.700 F7800.000
G1 X100.375 Y99.700 F1800.000
G1 X100.375 Y100.100
G1 X100.375 Y100.100 F7800.000
G1 X100.375 Y100.887 F1800.000
G1 X99.738 Y100.914
G1 X99.738 Y100.914 F7800.000
G1 X99.625 Y100.887 F1800.000
G1 X100.375 Y100.887 F7800.000
G1 X100.524 Y100.914 F1800.000
G1 X101.875 Y100.894 F7800.000
G1 X102.423 Y100.899 F1800.000
G1 F1800.000
M400 ; wait for commands to complete
M42 P16 S0 ; turn extruder 0 off
G1 X101.083 Y99.300 F7800.000
G1 F1800.000
G1 X101.042 Y99.100 F1800.000
G1 X99.583 Y99.300 F7800.000
G1 X99.542 Y99.100 F1800.000
G1 X98.792 Y99.100 F7800.000
G1 X98.875 Y99.700 F1800.000
G1 X98.375 Y99.700
G1 X98.375 Y99.700 F7800.000
G1 X98.125 Y99.700 F1800.000
G1 X98.125 Y99.700 F7800.000
G1 X98.083 Y99.300 F1800.000
G1 X98.083 Y99.300 F7800.000
G1 X98.042 Y99.100 F1800.000
G1 X97.295 Y99.160 F7800.000
G1 X97.548 Y99.700 F1800.000
G1 X98.125 Y99.700
G1 X98.125 Y100.300
G1 X98.125 Y100.300 F7800.000
G1 X98.125 Y100.894 F1800.000
G1 X97.547 Y100.899
G1 X97.346 Y100.600
G1 X97.359 Y100.120
G1 X97.359 Y100.120 F7800.000
G1 X97.375 Y99.880 F1800.000
G1 X97.375 Y99.880 F7800.000
G1 X97.548 Y99.700 F1800.000
G1 X98.125 Y100.894 F7800.000
G1 X98.429 Y100.910 F1800.000
G1 X98.429 Y100.910 F7800.000
G1 X98.625 Y100.891 F1800.000
G1 F1800.000
M400 ; wait for commands to complete
M42 P16 S0 ; turn extruder 0 off
G1 Z5.150 F7800.000
G1 Z5.550
G1 X102.423 Y100.899
G1 F1800.000
G1 X102.633 Y100.606 F1800.000
G1 X102.563 Y99.885
G1 X102.302 Y99.700
G1 X102.375 Y99.562
G1 X102.302 Y99.700 F7800.000
G1 X102.125 Y99.700 F1800.000
G1 X102.125 Y99.700 F7800.000
G1 X101.875 Y99.700 F1800.000
G1 X101.875 Y99.700 F7800.000
G1 X101.875 Y100.894 F1800.000
G1 X101.310 Y100.911
G1 X101.310 Y100.911 F7800.000
G1 X101.125 Y100.889 F1800.000
G1 X100.524 Y100.914 F7800.000
G1 X101.125 Y100.889 F1800.000
G1 X101.125 Y100.100
G1 X101.125 Y100.100 F7800.000
G1 X101.125 Y99.700 F1800.000
G1 X101.125 Y99.700 F7800.000
G1 X101.875 Y99.700 F1800.000
G1 X101.792 Y99.100
G1 X101.083 Y99.300 F7800.000
G1 X101.125 Y99.700 F1800.000
G1 X100.375 Y99.700
G1 X100.292 Y99.100
G1 X99.583 Y99.300 F7800.000
G1 X99.625 Y99.700 F1800.000
G1 X98.875 Y99.700
G1 X98.875 Y99.700 F7800.000
G1 X98.875 Y100.889 F1800.000
G1 X98.625 Y100.891 F7800.000
G1 X99.476 Y100.914 F1800.000
G1 X99.476 Y100.914 F7800.000
G1 X99.625 Y100.887 F1800.000
G1 X99.625 Y99.700
G1 X99.625 Y99.700 F7800.000
G1 X100.375 Y99.700 F1800.000
G1 X100.375 Y100.100
G1 X100.375 Y100.100 F7800.000
G1 X100.375 Y100.887 F1800.000
G1 X99.738 Y100.914
G1 X99.738 Y100.914 F7800.000
G1 X99.625 Y100.887 F1800.000
G1 X100.375 Y100.887 F7800.000
G1 X100.524 Y100.914 F1800.000
G1 X101.875 Y100.894 F7800.000
G1 X102.423 Y100.899 F1800.000
G1 F1800.000
M400 ; wait for commands to complete
M42 P16 S0 ; turn extruder 0 off
G1 X101.083 Y99.300 F7800.000
G1 F1800.000
G1 X101.042 Y99.100 F1800.000
G1 X99.583 Y99.300 F7800.000
G1 X99.542 Y99.100 F1800.000
G1 X98.792 Y99.100 F7800.000
G1 X98.875 Y99.700 F1800.000
G1 X98.375 Y99.700
G1 X98.375 Y99.700 F7800.000
G1 X98.125 Y99.700 F1800.000
G1 X98.125 Y99.700 F7800.000
G1 X98.083 Y99.300 F1800.000
G1 X98.083 Y99.300 F7800.000
G1 X98.042 Y99.100 F1800.000
G1 X97.295 Y99.160 F7800.000
G1 X97.548 Y99.700 F1800.000
G1 X98.125 Y99.700
G1 X98.125 Y100.300
G1 X98.125 Y100.300 F7800.000
G1 X98.125 Y100.894 F1800.000
G1 X97.547 Y100.899
G1 X97.346 Y100.600
G1 X97.359 Y100.120
G1 X97.359 Y100.120 F7800.000
G1 X97.375 Y99.880 F1800.000
G1 X97.375 Y99.880 F7800.000
G1 X97.548 Y99.700 F1800.000
G1 X98.125 Y100.894 F7800.000
G1 X98.429 Y100.910 F1800.000
G1 X98.429 Y100.910 F7800.000
G1 X98.625 Y100.891 F1800.000
G1 F1800.000
M400 ; wait for commands to complete
M42 P16 S0 ; turn extruder 0 off
M104 S0 ; turn off temperature
G28 X0  ; home X axis
M84     ; disable motors
; filament used = 4.2mm (0.0cm3)
