; generated by Slic3r 0.9.9 on 2015-12-02 at 15:47:59

; layer_height = 0.4
; perimeters = 3
; top_solid_layers = 3
; bottom_solid_layers = 3
; fill_density = 0.4
; perimeter_speed = 30
; infill_speed = 60
; travel_speed = 130
; nozzle_diameter = 0.5
; filament_diameter = 3
; extrusion_multiplier = 1
; perimeters extrusion width = 0.53mm
; infill extrusion width = 0.53mm
; solid infill extrusion width = 0.53mm
; top infill extrusion width = 0.53mm
; first layer extrusion width = 0.70mm

G21 ; set units to millimeters
M107
M104 S200 ; set temperature
G28 ; home all axes
G1 Z5 F5000 ; lift nozzle

M109 S200 ; wait for temperature to be reached
G90 ; use absolute coordinates
G92 E0
M82 ; use absolute distances for extrusion
G1 F1800.000 E-1.00000
G92 E0
G1 Z0.350 F7800.000
G1 X92.640 Y94.000
G1 F1800.000 E1.00000
G1 X93.040 Y93.640 F600.000 E1.01751
G1 X93.690 Y93.170 E1.04361
G1 X93.920 Y93.030 E1.05237
G1 X94.640 Y92.680 E1.07841
G1 X95.140 Y92.490 E1.09582
G1 X95.660 Y92.340 E1.11342
G1 X96.180 Y92.230 E1.13072
G1 X96.710 Y92.160 E1.14811
G1 X97.250 Y92.140 E1.16569
G1 X102.750 Y92.140 E1.34463
G1 X103.290 Y92.160 E1.36222
G1 X103.550 Y92.190 E1.37073
G1 X104.340 Y92.340 E1.39689
G1 X105.110 Y92.580 E1.42313
G1 X105.600 Y92.790 E1.44048
G1 X106.080 Y93.030 E1.45794
G1 X106.530 Y93.320 E1.47536
G1 X106.960 Y93.640 E1.49280
G1 X107.550 Y94.190 E1.51904
G1 X107.910 Y94.590 E1.53655
G1 X108.070 Y94.800 E1.54514
G1 X108.520 Y95.470 E1.57140
G1 X108.870 Y96.190 E1.59744
G1 X109.060 Y96.690 E1.61484
G1 X109.270 Y97.470 E1.64113
G1 X109.360 Y98.000 E1.65862
G1 X109.390 Y98.260 E1.66713
G1 X109.410 Y98.800 E1.68471
G1 X109.410 Y101.200 E1.76280
G1 X109.390 Y101.740 E1.78038
G1 X109.320 Y102.270 E1.79777
G1 X109.140 Y103.050 E1.82382
G1 X108.870 Y103.810 E1.85006
G1 X108.520 Y104.530 E1.87610
G1 X108.230 Y104.980 E1.89352
G1 X107.910 Y105.410 E1.91096
G1 X107.360 Y106.000 E1.93720
G1 X106.960 Y106.360 E1.95471
G1 X106.750 Y106.520 E1.96330
G1 X106.080 Y106.970 E1.98956
G1 X105.360 Y107.320 E2.01561
G1 X104.860 Y107.510 E2.03301
G1 X104.080 Y107.720 E2.05929
G1 X103.290 Y107.840 E2.08529
G1 X102.750 Y107.860 E2.10287
G1 X97.250 Y107.860 E2.28181
G1 X96.710 Y107.840 E2.29939
G1 X96.450 Y107.810 E2.30791
G1 X95.660 Y107.660 E2.33407
G1 X94.890 Y107.420 E2.36031
G1 X94.400 Y107.210 E2.37766
G1 X93.920 Y106.970 E2.39512
G1 X93.470 Y106.680 E2.41253
G1 X93.040 Y106.360 E2.42997
G1 X92.450 Y105.810 E2.45622
G1 X92.090 Y105.410 E2.47372
G1 X91.930 Y105.200 E2.48231
G1 X91.480 Y104.530 E2.50857
G1 X91.130 Y103.810 E2.53462
G1 X90.940 Y103.310 E2.55202
G1 X90.730 Y102.530 E2.57830
G1 X90.610 Y101.740 E2.60430
G1 X90.590 Y101.200 E2.62188
G1 X90.590 Y98.800 E2.69997
G1 X90.610 Y98.260 E2.71755
G1 X90.680 Y97.730 E2.73494
G1 X90.790 Y97.210 E2.75223
G1 X91.030 Y96.440 E2.77847
G1 X91.240 Y95.950 E2.79582
G1 X91.480 Y95.470 E2.81328
G1 X91.770 Y95.020 E2.83070
G1 X92.090 Y94.590 E2.84814
G1 X92.570 Y94.070 E2.87117
G1 F1800.000 E1.87117
G92 E0
G1 X100.516 Y100.924 F7800.000
G1 F1800.000 E1.00000
G1 X101.125 Y100.894 F600.000 E1.01985
G1 X101.125 Y99.700 E1.05871
G1 X100.375 Y99.700 E1.08311
G1 X100.312 Y99.250 E1.09789
G1 X100.375 Y99.700 F7800.000
G1 X99.625 Y99.700 F600.000 E1.12229
G1 X99.625 Y99.700 F7800.000
G1 X99.562 Y99.250 F600.000 E1.13707
G1 X98.812 Y99.250 F7800.000
G1 X98.875 Y99.700 F600.000 E1.15185
G1 X98.125 Y99.700 E1.17626
G1 X98.125 Y99.700 F7800.000
G1 X98.062 Y99.250 F600.000 E1.19104
G1 X98.125 Y99.700 F7800.000
G1 X98.125 Y99.700 F1800.000
G1 X97.522 Y99.700 F7800.000
G1 X98.125 Y99.700 F600.000 E1.21066
G1 X98.125 Y100.907 E1.24994
G1 X97.875 Y100.890 E1.25809
G1 X97.875 Y100.890 F7800.000
G1 X97.551 Y100.899 F600.000 E1.26865
G1 X97.551 Y100.899 F7800.000
G1 X97.331 Y100.686 F600.000 E1.27862
G1 X97.331 Y100.686 F7800.000
G1 X97.320 Y100.343 F600.000 E1.28978
G1 X97.320 Y100.343 F7800.000
G1 X97.419 Y100.150 F600.000 E1.29684
G1 X97.316 Y100.000 E1.30275
G1 X97.522 Y99.700 E1.31459
G1 X97.367 Y99.279 E1.32917
G1 X98.875 Y99.700 F7800.000
G1 X98.875 Y100.894 F600.000 E1.36803
G1 X98.375 Y100.894 F7800.000
G1 X99.484 Y100.924 F600.000 E1.40414
G1 X99.484 Y100.924 F7800.000
G1 X99.625 Y100.888 F600.000 E1.40886
G1 X99.625 Y99.700 E1.44751
G1 X98.875 Y99.700 E1.47191
G1 X98.375 Y100.894 F7800.000
G1 X98.125 Y100.907 F600.000 E1.48006
G1 X99.625 Y100.888 F7800.000
G1 X99.875 Y100.900 F600.000 E1.48820
G1 X99.875 Y100.900 F7800.000
G1 X100.375 Y100.888 F600.000 E1.50447
G1 X100.375 Y99.700 E1.54312
G1 X101.125 Y99.700 F7800.000
G1 X101.125 Y99.700 F600.000 E1.54312
G1 X101.062 Y99.250 F7800.000
G1 X101.125 Y99.700 F600.000 E1.55790
G1 X101.875 Y99.700 E1.58230
G1 X101.875 Y100.907 E1.62158
G1 X101.125 Y100.894 E1.64599
G1 X100.516 Y100.924 F7800.000
G1 X100.375 Y100.888 F600.000 E1.65071
G1 X101.875 Y100.907 F7800.000
G1 X101.891 Y100.915 F600.000 E1.65127
G1 X101.891 Y100.915 F7800.000
G1 X102.375 Y100.888 F600.000 E1.66706
G1 X102.375 Y100.888 F7800.000
G1 X102.653 Y100.690 F600.000 E1.67816
G1 X102.538 Y100.450 E1.68683
G1 X102.375 Y99.803 F7800.000
G1 X102.326 Y99.700 F600.000 E1.69053
G1 X102.375 Y99.577 F7800.000
G1 X102.125 Y99.700 F600.000 E1.69960
G1 X102.125 Y99.700 F7800.000
G1 X101.875 Y99.700 F600.000 E1.70774
G1 X101.875 Y99.700 F7800.000
G1 X101.812 Y99.250 F600.000 E1.72252
M106 S255
G1 F1800.000 E0.72252
G92 E0
G1 Z0.750 F7800.000
G1 Z1.150
G1 X102.423 Y100.899
G1 F1800.000 E1.00000
G1 X102.633 Y100.606 F600.000 E1.01059
G1 X102.563 Y99.885 E1.03188
G1 X102.302 Y99.700 E1.04129
G1 X102.375 Y99.562 E1.04590
G1 X102.302 Y99.700 F7800.000
G1 X102.125 Y99.700 F600.000 E1.05109
G1 X102.125 Y99.700 F7800.000
G1 X101.875 Y99.700 F600.000 E1.05844
G1 X101.875 Y99.700 F7800.000
G1 X101.875 Y100.894 F600.000 E1.09354
G1 X101.310 Y100.911 E1.11018
G1 X101.310 Y100.911 F7800.000
G1 X101.125 Y100.889 F600.000 E1.11564
G1 X100.524 Y100.914 F7800.000
G1 X101.125 Y100.889 F600.000 E1.13333
G1 X101.125 Y100.100 E1.15655
G1 X101.125 Y100.100 F7800.000
G1 X101.125 Y99.700 F600.000 E1.16831
G1 X101.125 Y99.700 F7800.000
G1 X101.875 Y99.700 F600.000 E1.19036
G1 X101.792 Y99.100 E1.20817
G1 X101.083 Y99.300 F7800.000
G1 X101.125 Y99.700 F600.000 E1.22000
G1 X100.375 Y99.700 E1.24205
G1 X100.292 Y99.100 E1.25987
G1 X99.583 Y99.300 F7800.000
G1 X99.625 Y99.700 F600.000 E1.27169
G1 X98.875 Y99.700 E1.29375
G1 X98.875 Y99.700 F7800.000
G1 X98.875 Y100.889 F600.000 E1.32872
G1 X98.625 Y100.891 F7800.000
G1 X99.476 Y100.914 F600.000 E1.35376
G1 X99.476 Y100.914 F7800.000
G1 X99.625 Y100.887 F600.000 E1.35820
G1 X99.625 Y99.700 E1.39312
G1 X99.625 Y99.700 F7800.000
G1 X100.375 Y99.700 F600.000 E1.41517
G1 X100.375 Y100.100 E1.42693
G1 X100.375 Y100.100 F7800.000
G1 X100.375 Y100.887 F600.000 E1.45008
G1 X99.738 Y100.914 E1.46883
G1 X99.738 Y100.914 F7800.000
G1 X99.625 Y100.887 F600.000 E1.47224
G1 X100.375 Y100.887 F7800.000
G1 X100.524 Y100.914 F600.000 E1.47669
G1 X101.875 Y100.894 F7800.000
G1 X102.423 Y100.899 F600.000 E1.49280
G1 F1800.000 E0.49280
G92 E0
G1 X101.083 Y99.300 F7800.000
G1 F1800.000 E1.00000
G1 X101.042 Y99.100 F600.000 E1.00601
G1 X99.583 Y99.300 F7800.000
G1 X99.542 Y99.100 F600.000 E1.01201
G1 X98.792 Y99.100 F7800.000
G1 X98.875 Y99.700 F600.000 E1.02983
G1 X98.375 Y99.700 E1.04453
G1 X98.375 Y99.700 F7800.000
G1 X98.125 Y99.700 F600.000 E1.05188
G1 X98.125 Y99.700 F7800.000
G1 X98.083 Y99.300 F600.000 E1.06371
G1 X98.083 Y99.300 F7800.000
G1 X98.042 Y99.100 F600.000 E1.06971
G1 X97.295 Y99.160 F7800.000
G1 X97.548 Y99.700 F600.000 E1.08725
G1 X98.125 Y99.700 E1.10422
G1 X98.125 Y100.300 E1.12186
G1 X98.125 Y100.300 F7800.000
G1 X98.125 Y100.894 F600.000 E1.13932
G1 X97.547 Y100.899 E1.15633
G1 X97.346 Y100.600 E1.16692
G1 X97.359 Y100.120 E1.18104
G1 X97.359 Y100.120 F7800.000
G1 X97.375 Y99.880 F600.000 E1.18811
G1 X97.375 Y99.880 F7800.000
G1 X97.548 Y99.700 F600.000 E1.19545
G1 X98.125 Y100.894 F7800.000
G1 X98.429 Y100.910 F600.000 E1.20439
G1 X98.429 Y100.910 F7800.000
G1 X98.625 Y100.891 F600.000 E1.21019
G1 F1800.000 E0.21019
G92 E0
G1 Z1.550 F7800.000
G1 Z1.950
G1 X102.423 Y100.899
G1 F1800.000 E1.00000
G1 X102.633 Y100.606 F600.000 E1.01059
G1 X102.563 Y99.885 E1.03188
G1 X102.302 Y99.700 E1.04129
G1 X102.375 Y99.562 E1.04590
G1 X102.302 Y99.700 F7800.000
G1 X102.125 Y99.700 F600.000 E1.05109
G1 X102.125 Y99.700 F7800.000
G1 X101.875 Y99.700 F600.000 E1.05844
G1 X101.875 Y99.700 F7800.000
G1 X101.875 Y100.894 F600.000 E1.09354
G1 X101.310 Y100.911 E1.11018
G1 X101.310 Y100.911 F7800.000
G1 X101.125 Y100.889 F600.000 E1.11564
G1 X100.524 Y100.914 F7800.000
G1 X101.125 Y100.889 F600.000 E1.13333
G1 X101.125 Y100.100 E1.15655
G1 X101.125 Y100.100 F7800.000
G1 X101.125 Y99.700 F600.000 E1.16831
G1 X101.125 Y99.700 F7800.000
G1 X101.875 Y99.700 F600.000 E1.19036
G1 X101.792 Y99.100 E1.20817
G1 X101.083 Y99.300 F7800.000
G1 X101.125 Y99.700 F600.000 E1.22000
G1 X100.375 Y99.700 E1.24205
G1 X100.292 Y99.100 E1.25987
G1 X99.583 Y99.300 F7800.000
G1 X99.625 Y99.700 F600.000 E1.27169
G1 X98.875 Y99.700 E1.29375
G1 X98.875 Y99.700 F7800.000
G1 X98.875 Y100.889 F600.000 E1.32872
G1 X98.625 Y100.891 F7800.000
G1 X99.476 Y100.914 F600.000 E1.35376
G1 X99.476 Y100.914 F7800.000
G1 X99.625 Y100.887 F600.000 E1.35820
G1 X99.625 Y99.700 E1.39312
G1 X99.625 Y99.700 F7800.000
G1 X100.375 Y99.700 F600.000 E1.41517
G1 X100.375 Y100.100 E1.42693
G1 X100.375 Y100.100 F7800.000
G1 X100.375 Y100.887 F600.000 E1.45008
G1 X99.738 Y100.914 E1.46883
G1 X99.738 Y100.914 F7800.000
G1 X99.625 Y100.887 F600.000 E1.47224
G1 X100.375 Y100.887 F7800.000
G1 X100.524 Y100.914 F600.000 E1.47669
G1 X101.875 Y100.894 F7800.000
G1 X102.423 Y100.899 F600.000 E1.49280
G1 F1800.000 E0.49280
G92 E0
G1 X101.083 Y99.300 F7800.000
G1 F1800.000 E1.00000
G1 X101.042 Y99.100 F600.000 E1.00601
G1 X99.583 Y99.300 F7800.000
G1 X99.542 Y99.100 F600.000 E1.01201
G1 X98.792 Y99.100 F7800.000
G1 X98.875 Y99.700 F600.000 E1.02983
G1 X98.375 Y99.700 E1.04453
G1 X98.375 Y99.700 F7800.000
G1 X98.125 Y99.700 F600.000 E1.05188
G1 X98.125 Y99.700 F7800.000
G1 X98.083 Y99.300 F600.000 E1.06371
G1 X98.083 Y99.300 F7800.000
G1 X98.042 Y99.100 F600.000 E1.06971
G1 X97.295 Y99.160 F7800.000
G1 X97.548 Y99.700 F600.000 E1.08725
G1 X98.125 Y99.700 E1.10422
G1 X98.125 Y100.300 E1.12186
G1 X98.125 Y100.300 F7800.000
G1 X98.125 Y100.894 F600.000 E1.13932
G1 X97.547 Y100.899 E1.15633
G1 X97.346 Y100.600 E1.16692
G1 X97.359 Y100.120 E1.18104
G1 X97.359 Y100.120 F7800.000
G1 X97.375 Y99.880 F600.000 E1.18811
G1 X97.375 Y99.880 F7800.000
G1 X97.548 Y99.700 F600.000 E1.19545
G1 X98.125 Y100.894 F7800.000
G1 X98.429 Y100.910 F600.000 E1.20439
G1 X98.429 Y100.910 F7800.000
G1 X98.625 Y100.891 F600.000 E1.21019
G1 F1800.000 E0.21019
G92 E0
G1 Z2.350 F7800.000
G1 Z2.750
G1 Z3.150
G1 Z3.550
G1 Z3.950
G1 X102.423 Y100.899
G1 F1800.000 E1.00000
G1 X102.633 Y100.606 F600.000 E1.01059
G1 X102.563 Y99.885 E1.03188
G1 X102.302 Y99.700 E1.04129
G1 X102.375 Y99.562 E1.04590
G1 X102.302 Y99.700 F7800.000
G1 X102.125 Y99.700 F600.000 E1.05109
G1 X102.125 Y99.700 F7800.000
G1 X101.875 Y99.700 F600.000 E1.05844
G1 X101.875 Y99.700 F7800.000
G1 X101.875 Y100.894 F600.000 E1.09354
G1 X101.310 Y100.911 E1.11018
G1 X101.310 Y100.911 F7800.000
G1 X101.125 Y100.889 F600.000 E1.11564
G1 X100.524 Y100.914 F7800.000
G1 X101.125 Y100.889 F600.000 E1.13333
G1 X101.125 Y100.100 E1.15655
G1 X101.125 Y100.100 F7800.000
G1 X101.125 Y99.700 F600.000 E1.16831
G1 X101.125 Y99.700 F7800.000
G1 X101.875 Y99.700 F600.000 E1.19036
G1 X101.792 Y99.100 E1.20817
G1 X101.083 Y99.300 F7800.000
G1 X101.125 Y99.700 F600.000 E1.22000
G1 X100.375 Y99.700 E1.24205
G1 X100.292 Y99.100 E1.25987
G1 X99.583 Y99.300 F7800.000
G1 X99.625 Y99.700 F600.000 E1.27169
G1 X98.875 Y99.700 E1.29375
G1 X98.875 Y99.700 F7800.000
G1 X98.875 Y100.889 F600.000 E1.32872
G1 X98.625 Y100.891 F7800.000
G1 X99.476 Y100.914 F600.000 E1.35376
G1 X99.476 Y100.914 F7800.000
G1 X99.625 Y100.887 F600.000 E1.35820
G1 X99.625 Y99.700 E1.39312
G1 X99.625 Y99.700 F7800.000
G1 X100.375 Y99.700 F600.000 E1.41517
G1 X100.375 Y100.100 E1.42693
G1 X100.375 Y100.100 F7800.000
G1 X100.375 Y100.887 F600.000 E1.45008
G1 X99.738 Y100.914 E1.46883
G1 X99.738 Y100.914 F7800.000
G1 X99.625 Y100.887 F600.000 E1.47224
G1 X100.375 Y100.887 F7800.000
G1 X100.524 Y100.914 F600.000 E1.47669
G1 X101.875 Y100.894 F7800.000
G1 X102.423 Y100.899 F600.000 E1.49280
G1 F1800.000 E0.49280
G92 E0
G1 X101.083 Y99.300 F7800.000
G1 F1800.000 E1.00000
G1 X101.042 Y99.100 F600.000 E1.00601
G1 X99.583 Y99.300 F7800.000
G1 X99.542 Y99.100 F600.000 E1.01201
G1 X98.792 Y99.100 F7800.000
G1 X98.875 Y99.700 F600.000 E1.02983
G1 X98.375 Y99.700 E1.04453
G1 X98.375 Y99.700 F7800.000
G1 X98.125 Y99.700 F600.000 E1.05188
G1 X98.125 Y99.700 F7800.000
G1 X98.083 Y99.300 F600.000 E1.06371
G1 X98.083 Y99.300 F7800.000
G1 X98.042 Y99.100 F600.000 E1.06971
G1 X97.295 Y99.160 F7800.000
G1 X97.548 Y99.700 F600.000 E1.08725
G1 X98.125 Y99.700 E1.10422
G1 X98.125 Y100.300 E1.12186
G1 X98.125 Y100.300 F7800.000
G1 X98.125 Y100.894 F600.000 E1.13932
G1 X97.547 Y100.899 E1.15633
G1 X97.346 Y100.600 E1.16692
G1 X97.359 Y100.120 E1.18104
G1 X97.359 Y100.120 F7800.000
G1 X97.375 Y99.880 F600.000 E1.18811
G1 X97.375 Y99.880 F7800.000
G1 X97.548 Y99.700 F600.000 E1.19545
G1 X98.125 Y100.894 F7800.000
G1 X98.429 Y100.910 F600.000 E1.20439
G1 X98.429 Y100.910 F7800.000
G1 X98.625 Y100.891 F600.000 E1.21019
G1 F1800.000 E0.21019
G92 E0
G1 Z4.350 F7800.000
G1 Z4.750
G1 X102.423 Y100.899
G1 F1800.000 E1.00000
G1 X102.633 Y100.606 F600.000 E1.01059
G1 X102.563 Y99.885 E1.03188
G1 X102.302 Y99.700 E1.04129
G1 X102.375 Y99.562 E1.04590
G1 X102.302 Y99.700 F7800.000
G1 X102.125 Y99.700 F600.000 E1.05109
G1 X102.125 Y99.700 F7800.000
G1 X101.875 Y99.700 F600.000 E1.05844
G1 X101.875 Y99.700 F7800.000
G1 X101.875 Y100.894 F600.000 E1.09354
G1 X101.310 Y100.911 E1.11018
G1 X101.310 Y100.911 F7800.000
G1 X101.125 Y100.889 F600.000 E1.11564
G1 X100.524 Y100.914 F7800.000
G1 X101.125 Y100.889 F600.000 E1.13333
G1 X101.125 Y100.100 E1.15655
G1 X101.125 Y100.100 F7800.000
G1 X101.125 Y99.700 F600.000 E1.16831
G1 X101.125 Y99.700 F7800.000
G1 X101.875 Y99.700 F600.000 E1.19036
G1 X101.792 Y99.100 E1.20817
G1 X101.083 Y99.300 F7800.000
G1 X101.125 Y99.700 F600.000 E1.22000
G1 X100.375 Y99.700 E1.24205
G1 X100.292 Y99.100 E1.25987
G1 X99.583 Y99.300 F7800.000
G1 X99.625 Y99.700 F600.000 E1.27169
G1 X98.875 Y99.700 E1.29375
G1 X98.875 Y99.700 F7800.000
G1 X98.875 Y100.889 F600.000 E1.32872
G1 X98.625 Y100.891 F7800.000
G1 X99.476 Y100.914 F600.000 E1.35376
G1 X99.476 Y100.914 F7800.000
G1 X99.625 Y100.887 F600.000 E1.35820
G1 X99.625 Y99.700 E1.39312
G1 X99.625 Y99.700 F7800.000
G1 X100.375 Y99.700 F600.000 E1.41517
G1 X100.375 Y100.100 E1.42693
G1 X100.375 Y100.100 F7800.000
G1 X100.375 Y100.887 F600.000 E1.45008
G1 X99.738 Y100.914 E1.46883
G1 X99.738 Y100.914 F7800.000
G1 X99.625 Y100.887 F600.000 E1.47224
G1 X100.375 Y100.887 F7800.000
G1 X100.524 Y100.914 F600.000 E1.47669
G1 X101.875 Y100.894 F7800.000
G1 X102.423 Y100.899 F600.000 E1.49280
G1 F1800.000 E0.49280
G92 E0
G1 X101.083 Y99.300 F7800.000
G1 F1800.000 E1.00000
G1 X101.042 Y99.100 F600.000 E1.00601
G1 X99.583 Y99.300 F7800.000
G1 X99.542 Y99.100 F600.000 E1.01201
G1 X98.792 Y99.100 F7800.000
G1 X98.875 Y99.700 F600.000 E1.02983
G1 X98.375 Y99.700 E1.04453
G1 X98.375 Y99.700 F7800.000
G1 X98.125 Y99.700 F600.000 E1.05188
G1 X98.125 Y99.700 F7800.000
G1 X98.083 Y99.300 F600.000 E1.06371
G1 X98.083 Y99.300 F7800.000
G1 X98.042 Y99.100 F600.000 E1.06971
G1 X97.295 Y99.160 F7800.000
G1 X97.548 Y99.700 F600.000 E1.08725
G1 X98.125 Y99.700 E1.10422
G1 X98.125 Y100.300 E1.12186
G1 X98.125 Y100.300 F7800.000
G1 X98.125 Y100.894 F600.000 E1.13932
G1 X97.547 Y100.899 E1.15633
G1 X97.346 Y100.600 E1.16692
G1 X97.359 Y100.120 E1.18104
G1 X97.359 Y100.120 F7800.000
G1 X97.375 Y99.880 F600.000 E1.18811
G1 X97.375 Y99.880 F7800.000
G1 X97.548 Y99.700 F600.000 E1.19545
G1 X98.125 Y100.894 F7800.000
G1 X98.429 Y100.910 F600.000 E1.20439
G1 X98.429 Y100.910 F7800.000
