; generated by Slic3r 0.9.9 on 2015-12-02 at 18:52:15

; layer_height = 0.4
; perimeters = 3
; top_solid_layers = 3
; bottom_solid_layers = 3
; fill_density = 0.4
; perimeter_speed = 30
; infill_speed = 60
; travel_speed = 130
; nozzle_diameter = 0.5
; filament_diameter = 3
; extrusion_multiplier = 1
; perimeters extrusion width = 0.53mm
; infill extrusion width = 0.53mm
; solid infill extrusion width = 0.53mm
; top infill extrusion width = 0.53mm
; first layer extrusion width = 0.70mm

G21 ; set units to millimeters
M104 S200 ; set temperature
G28 ; home all axes
G1 Z5 F5000 ; lift nozzle
M109 S200 ; wait for temperature to be reached
G90 ; use absolute coordinates
G92 E0
M82 ; use absolute distances for extrusion
G1 F1800.000 E-1.00000
G92 E0
G1 Z0.350 F7800.000
G1 X100.516 Y100.924
G1 F1800.000 E1.00000
G1 X101.125 Y100.894 F540.000 E1.01985
G1 X101.125 Y99.700 E1.05871
G1 X100.375 Y99.700 E1.08311
G1 X100.312 Y99.250 E1.09789
G1 X100.375 Y99.700 F7800.000
G1 X99.625 Y99.700 F540.000 E1.12229
G1 X99.625 Y99.700 F7800.000
G1 X99.562 Y99.250 F540.000 E1.13707
G1 X98.812 Y99.250 F7800.000
G1 X98.875 Y99.700 F540.000 E1.15185
G1 X98.125 Y99.700 E1.17626
G1 X98.125 Y99.700 F7800.000
G1 X98.062 Y99.250 F540.000 E1.19104
G1 X98.125 Y99.700 F7800.000
G1 X98.125 Y99.700 F1800.000
G1 X97.522 Y99.700 F7800.000
G1 X98.125 Y99.700 F540.000 E1.21066
G1 X98.125 Y100.907 E1.24994
G1 X97.875 Y100.890 E1.25809
G1 X97.875 Y100.890 F7800.000
G1 X97.551 Y100.899 F540.000 E1.26865
G1 X97.551 Y100.899 F7800.000
G1 X97.331 Y100.686 F540.000 E1.27862
G1 X97.331 Y100.686 F7800.000
G1 X97.320 Y100.343 F540.000 E1.28978
G1 X97.320 Y100.343 F7800.000
G1 X97.419 Y100.150 F540.000 E1.29684
G1 X97.316 Y100.000 E1.30275
G1 X97.522 Y99.700 E1.31459
G1 X97.367 Y99.279 E1.32917
G1 X98.875 Y99.700 F7800.000
G1 X98.875 Y100.894 F540.000 E1.36803
G1 X98.375 Y100.894 F7800.000
G1 X99.484 Y100.924 F540.000 E1.40414
G1 X99.484 Y100.924 F7800.000
G1 X99.625 Y100.888 F540.000 E1.40886
G1 X99.625 Y99.700 E1.44751
G1 X98.875 Y99.700 E1.47191
G1 X98.375 Y100.894 F7800.000
G1 X98.125 Y100.907 F540.000 E1.48006
G1 X99.625 Y100.888 F7800.000
G1 X99.875 Y100.900 F540.000 E1.48820
G1 X99.875 Y100.900 F7800.000
G1 X100.375 Y100.888 F540.000 E1.50447
G1 X100.375 Y99.700 E1.54312
G1 X101.125 Y99.700 F7800.000
G1 X101.125 Y99.700 F540.000 E1.54312
G1 X101.062 Y99.250 F7800.000
G1 X101.125 Y99.700 F540.000 E1.55790
G1 X101.875 Y99.700 E1.58230
G1 X101.875 Y100.907 E1.62158
G1 X101.125 Y100.894 E1.64599
G1 X100.516 Y100.924 F7800.000
G1 X100.375 Y100.888 F540.000 E1.65071
G1 X101.875 Y100.907 F7800.000
G1 X101.891 Y100.915 F540.000 E1.65127
G1 X101.891 Y100.915 F7800.000
G1 X102.375 Y100.888 F540.000 E1.66706
G1 X102.375 Y100.888 F7800.000
G1 X102.653 Y100.690 F540.000 E1.67816
G1 X102.538 Y100.450 E1.68683
G1 X102.375 Y99.803 F7800.000
G1 X102.326 Y99.700 F540.000 E1.69053
G1 X102.375 Y99.577 F7800.000
G1 X102.125 Y99.700 F540.000 E1.69960
G1 X102.125 Y99.700 F7800.000
G1 X101.875 Y99.700 F540.000 E1.70774
G1 X101.875 Y99.700 F7800.000
G1 X101.812 Y99.250 F540.000 E1.72252
G1 F1800.000 E0.72252
G92 E0
G1 Z0.750 F7800.000
G1 Z1.150
G1 X102.423 Y100.899
G1 F1800.000 E1.00000
G1 X102.633 Y100.606 F1800.000 E1.01059
G1 X102.563 Y99.885 E1.03188
G1 X102.302 Y99.700 E1.04129
G1 X102.375 Y99.562 E1.04590
G1 X102.302 Y99.700 F7800.000
G1 X102.125 Y99.700 F1800.000 E1.05109
G1 X102.125 Y99.700 F7800.000
G1 X101.875 Y99.700 F1800.000 E1.05844
G1 X101.875 Y99.700 F7800.000
G1 X101.875 Y100.894 F1800.000 E1.09354
G1 X101.310 Y100.911 E1.11018
G1 X101.310 Y100.911 F7800.000
G1 X101.125 Y100.889 F1800.000 E1.11564
G1 X100.524 Y100.914 F7800.000
G1 X101.125 Y100.889 F1800.000 E1.13333
G1 X101.125 Y100.100 E1.15655
G1 X101.125 Y100.100 F7800.000
G1 X101.125 Y99.700 F1800.000 E1.16831
G1 X101.125 Y99.700 F7800.000
G1 X101.875 Y99.700 F1800.000 E1.19036
G1 X101.792 Y99.100 E1.20817
G1 X101.083 Y99.300 F7800.000
G1 X101.125 Y99.700 F1800.000 E1.22000
G1 X100.375 Y99.700 E1.24205
G1 X100.292 Y99.100 E1.25987
G1 X99.583 Y99.300 F7800.000
G1 X99.625 Y99.700 F1800.000 E1.27169
G1 X98.875 Y99.700 E1.29375
G1 X98.875 Y99.700 F7800.000
G1 X98.875 Y100.889 F1800.000 E1.32872
G1 X98.625 Y100.891 F7800.000
G1 X99.476 Y100.914 F1800.000 E1.35376
G1 X99.476 Y100.914 F7800.000
G1 X99.625 Y100.887 F1800.000 E1.35820
G1 X99.625 Y99.700 E1.39312
G1 X99.625 Y99.700 F7800.000
G1 X100.375 Y99.700 F1800.000 E1.41517
G1 X100.375 Y100.100 E1.42693
G1 X100.375 Y100.100 F7800.000
G1 X100.375 Y100.887 F1800.000 E1.45008
G1 X99.738 Y100.914 E1.46883
G1 X99.738 Y100.914 F7800.000
G1 X99.625 Y100.887 F1800.000 E1.47224
G1 X100.375 Y100.887 F7800.000
G1 X100.524 Y100.914 F1800.000 E1.47669
G1 X101.875 Y100.894 F7800.000
G1 X102.423 Y100.899 F1800.000 E1.49280
G1 F1800.000 E0.49280
G92 E0
G1 X101.083 Y99.300 F7800.000
G1 F1800.000 E1.00000
G1 X101.042 Y99.100 F1800.000 E1.00601
G1 X99.583 Y99.300 F7800.000
G1 X99.542 Y99.100 F1800.000 E1.01201
G1 X98.792 Y99.100 F7800.000
G1 X98.875 Y99.700 F1800.000 E1.02983
G1 X98.375 Y99.700 E1.04453
G1 X98.375 Y99.700 F7800.000
G1 X98.125 Y99.700 F1800.000 E1.05188
G1 X98.125 Y99.700 F7800.000
G1 X98.083 Y99.300 F1800.000 E1.06371
G1 X98.083 Y99.300 F7800.000
G1 X98.042 Y99.100 F1800.000 E1.06971
G1 X97.295 Y99.160 F7800.000
G1 X97.548 Y99.700 F1800.000 E1.08725
G1 X98.125 Y99.700 E1.10422
G1 X98.125 Y100.300 E1.12186
G1 X98.125 Y100.300 F7800.000
G1 X98.125 Y100.894 F1800.000 E1.13932
G1 X97.547 Y100.899 E1.15633
G1 X97.346 Y100.600 E1.16692
G1 X97.359 Y100.120 E1.18104
G1 X97.359 Y100.120 F7800.000
G1 X97.375 Y99.880 F1800.000 E1.18811
G1 X97.375 Y99.880 F7800.000
G1 X97.548 Y99.700 F1800.000 E1.19545
G1 X98.125 Y100.894 F7800.000
G1 X98.429 Y100.910 F1800.000 E1.20439
G1 X98.429 Y100.910 F7800.000
G1 X98.625 Y100.891 F1800.000 E1.21019
G1 F1800.000 E0.21019
G92 E0
G1 Z1.550 F7800.000
G1 Z1.950
G1 X102.423 Y100.899
G1 F1800.000 E1.00000
G1 X102.633 Y100.606 F1800.000 E1.01059
G1 X102.563 Y99.885 E1.03188
G1 X102.302 Y99.700 E1.04129
G1 X102.375 Y99.562 E1.04590
G1 X102.302 Y99.700 F7800.000
G1 X102.125 Y99.700 F1800.000 E1.05109
G1 X102.125 Y99.700 F7800.000
G1 X101.875 Y99.700 F1800.000 E1.05844
G1 X101.875 Y99.700 F7800.000
G1 X101.875 Y100.894 F1800.000 E1.09354
G1 X101.310 Y100.911 E1.11018
G1 X101.310 Y100.911 F7800.000
G1 X101.125 Y100.889 F1800.000 E1.11564
G1 X100.524 Y100.914 F7800.000
G1 X101.125 Y100.889 F1800.000 E1.13333
G1 X101.125 Y100.100 E1.15655
G1 X101.125 Y100.100 F7800.000
G1 X101.125 Y99.700 F1800.000 E1.16831
G1 X101.125 Y99.700 F7800.000
G1 X101.875 Y99.700 F1800.000 E1.19036
G1 X101.792 Y99.100 E1.20817
G1 X101.083 Y99.300 F7800.000
G1 X101.125 Y99.700 F1800.000 E1.22000
G1 X100.375 Y99.700 E1.24205
G1 X100.292 Y99.100 E1.25987
G1 X99.583 Y99.300 F7800.000
G1 X99.625 Y99.700 F1800.000 E1.27169
G1 X98.875 Y99.700 E1.29375
G1 X98.875 Y99.700 F7800.000
G1 X98.875 Y100.889 F1800.000 E1.32872
G1 X98.625 Y100.891 F7800.000
G1 X99.476 Y100.914 F1800.000 E1.35376
G1 X99.476 Y100.914 F7800.000
G1 X99.625 Y100.887 F1800.000 E1.35820
G1 X99.625 Y99.700 E1.39312
G1 X99.625 Y99.700 F7800.000
G1 X100.375 Y99.700 F1800.000 E1.41517
G1 X100.375 Y100.100 E1.42693
G1 X100.375 Y100.100 F7800.000
G1 X100.375 Y100.887 F1800.000 E1.45008
G1 X99.738 Y100.914 E1.46883
G1 X99.738 Y100.914 F7800.000
G1 X99.625 Y100.887 F1800.000 E1.47224
G1 X100.375 Y100.887 F7800.000
G1 X100.524 Y100.914 F1800.000 E1.47669
G1 X101.875 Y100.894 F7800.000
G1 X102.423 Y100.899 F1800.000 E1.49280
G1 F1800.000 E0.49280
G92 E0
G1 X101.083 Y99.300 F7800.000
G1 F1800.000 E1.00000
G1 X101.042 Y99.100 F1800.000 E1.00601
G1 X99.583 Y99.300 F7800.000
G1 X99.542 Y99.100 F1800.000 E1.01201
G1 X98.792 Y99.100 F7800.000
G1 X98.875 Y99.700 F1800.000 E1.02983
G1 X98.375 Y99.700 E1.04453
G1 X98.375 Y99.700 F7800.000
G1 X98.125 Y99.700 F1800.000 E1.05188
G1 X98.125 Y99.700 F7800.000
G1 X98.083 Y99.300 F1800.000 E1.06371
G1 X98.083 Y99.300 F7800.000
G1 X98.042 Y99.100 F1800.000 E1.06971
G1 X97.295 Y99.160 F7800.000
G1 X97.548 Y99.700 F1800.000 E1.08725
G1 X98.125 Y99.700 E1.10422
G1 X98.125 Y100.300 E1.12186
G1 X98.125 Y100.300 F7800.000
G1 X98.125 Y100.894 F1800.000 E1.13932
G1 X97.547 Y100.899 E1.15633
G1 X97.346 Y100.600 E1.16692
G1 X97.359 Y100.120 E1.18104
G1 X97.359 Y100.120 F7800.000
G1 X97.375 Y99.880 F1800.000 E1.18811
G1 X97.375 Y99.880 F7800.000
G1 X97.548 Y99.700 F1800.000 E1.19545
G1 X98.125 Y100.894 F7800.000
G1 X98.429 Y100.910 F1800.000 E1.20439
G1 X98.429 Y100.910 F7800.000
G1 X98.625 Y100.891 F1800.000 E1.21019
G1 F1800.000 E0.21019
G92 E0
G1 Z2.350 F7800.000
G1 Z2.750
G1 Z3.150
G1 Z3.550
G1 Z3.950
G1 X102.423 Y100.899
G1 F1800.000 E1.00000
G1 X102.633 Y100.606 F1800.000 E1.01059
G1 X102.563 Y99.885 E1.03188
G1 X102.302 Y99.700 E1.04129
G1 X102.375 Y99.562 E1.04590
G1 X102.302 Y99.700 F7800.000
G1 X102.125 Y99.700 F1800.000 E1.05109
G1 X102.125 Y99.700 F7800.000
G1 X101.875 Y99.700 F1800.000 E1.05844
G1 X101.875 Y99.700 F7800.000
G1 X101.875 Y100.894 F1800.000 E1.09354
G1 X101.310 Y100.911 E1.11018
G1 X101.310 Y100.911 F7800.000
G1 X101.125 Y100.889 F1800.000 E1.11564
G1 X100.524 Y100.914 F7800.000
G1 X101.125 Y100.889 F1800.000 E1.13333
G1 X101.125 Y100.100 E1.15655
G1 X101.125 Y100.100 F7800.000
G1 X101.125 Y99.700 F1800.000 E1.16831
G1 X101.125 Y99.700 F7800.000
G1 X101.875 Y99.700 F1800.000 E1.19036
G1 X101.792 Y99.100 E1.20817
G1 X101.083 Y99.300 F7800.000
G1 X101.125 Y99.700 F1800.000 E1.22000
G1 X100.375 Y99.700 E1.24205
G1 X100.292 Y99.100 E1.25987
G1 X99.583 Y99.300 F7800.000
G1 X99.625 Y99.700 F1800.000 E1.27169
G1 X98.875 Y99.700 E1.29375
G1 X98.875 Y99.700 F7800.000
G1 X98.875 Y100.889 F1800.000 E1.32872
G1 X98.625 Y100.891 F7800.000
G1 X99.476 Y100.914 F1800.000 E1.35376
G1 X99.476 Y100.914 F7800.000
G1 X99.625 Y100.887 F1800.000 E1.35820
G1 X99.625 Y99.700 E1.39312
G1 X99.625 Y99.700 F7800.000
G1 X100.375 Y99.700 F1800.000 E1.41517
G1 X100.375 Y100.100 E1.42693
G1 X100.375 Y100.100 F7800.000
G1 X100.375 Y100.887 F1800.000 E1.45008
G1 X99.738 Y100.914 E1.46883
G1 X99.738 Y100.914 F7800.000
G1 X99.625 Y100.887 F1800.000 E1.47224
G1 X100.375 Y100.887 F7800.000
G1 X100.524 Y100.914 F1800.000 E1.47669
G1 X101.875 Y100.894 F7800.000
G1 X102.423 Y100.899 F1800.000 E1.49280
G1 F1800.000 E0.49280
G92 E0
G1 X101.083 Y99.300 F7800.000
G1 F1800.000 E1.00000
G1 X101.042 Y99.100 F1800.000 E1.00601
G1 X99.583 Y99.300 F7800.000
G1 X99.542 Y99.100 F1800.000 E1.01201
G1 X98.792 Y99.100 F7800.000
G1 X98.875 Y99.700 F1800.000 E1.02983
G1 X98.375 Y99.700 E1.04453
G1 X98.375 Y99.700 F7800.000
G1 X98.125 Y99.700 F1800.000 E1.05188
G1 X98.125 Y99.700 F7800.000
G1 X98.083 Y99.300 F1800.000 E1.06371
G1 X98.083 Y99.300 F7800.000
G1 X98.042 Y99.100 F1800.000 E1.06971
G1 X97.295 Y99.160 F7800.000
G1 X97.548 Y99.700 F1800.000 E1.08725
G1 X98.125 Y99.700 E1.10422
G1 X98.125 Y100.300 E1.12186
G1 X98.125 Y100.300 F7800.000
G1 X98.125 Y100.894 F1800.000 E1.13932
G1 X97.547 Y100.899 E1.15633
G1 X97.346 Y100.600 E1.16692
G1 X97.359 Y100.120 E1.18104
G1 X97.359 Y100.120 F7800.000
G1 X97.375 Y99.880 F1800.000 E1.18811
G1 X97.375 Y99.880 F7800.000
G1 X97.548 Y99.700 F1800.000 E1.19545
G1 X98.125 Y100.894 F7800.000
G1 X98.429 Y100.910 F1800.000 E1.20439
G1 X98.429 Y100.910 F7800.000
G1 X98.625 Y100.891 F1800.000 E1.21019
G1 F1800.000 E0.21019
G92 E0
G1 Z4.350 F7800.000
G1 Z4.750
G1 X102.423 Y100.899
G1 F1800.000 E1.00000
G1 X102.633 Y100.606 F1800.000 E1.01059
G1 X102.563 Y99.885 E1.03188
G1 X102.302 Y99.700 E1.04129
G1 X102.375 Y99.562 E1.04590
G1 X102.302 Y99.700 F7800.000
G1 X102.125 Y99.700 F1800.000 E1.05109
G1 X102.125 Y99.700 F7800.000
G1 X101.875 Y99.700 F1800.000 E1.05844
G1 X101.875 Y99.700 F7800.000
G1 X101.875 Y100.894 F1800.000 E1.09354
G1 X101.310 Y100.911 E1.11018
G1 X101.310 Y100.911 F7800.000
G1 X101.125 Y100.889 F1800.000 E1.11564
G1 X100.524 Y100.914 F7800.000
G1 X101.125 Y100.889 F1800.000 E1.13333
G1 X101.125 Y100.100 E1.15655
G1 X101.125 Y100.100 F7800.000
G1 X101.125 Y99.700 F1800.000 E1.16831
G1 X101.125 Y99.700 F7800.000
G1 X101.875 Y99.700 F1800.000 E1.19036
G1 X101.792 Y99.100 E1.20817
G1 X101.083 Y99.300 F7800.000
G1 X101.125 Y99.700 F1800.000 E1.22000
G1 X100.375 Y99.700 E1.24205
G1 X100.292 Y99.100 E1.25987
G1 X99.583 Y99.300 F7800.000
G1 X99.625 Y99.700 F1800.000 E1.27169
G1 X98.875 Y99.700 E1.29375
G1 X98.875 Y99.700 F7800.000
G1 X98.875 Y100.889 F1800.000 E1.32872
G1 X98.625 Y100.891 F7800.000
G1 X99.476 Y100.914 F1800.000 E1.35376
G1 X99.476 Y100.914 F7800.000
G1 X99.625 Y100.887 F1800.000 E1.35820
G1 X99.625 Y99.700 E1.39312
G1 X99.625 Y99.700 F7800.000
G1 X100.375 Y99.700 F1800.000 E1.41517
G1 X100.375 Y100.100 E1.42693
G1 X100.375 Y100.100 F7800.000
G1 X100.375 Y100.887 F1800.000 E1.45008
G1 X99.738 Y100.914 E1.46883
G1 X99.738 Y100.914 F7800.000
G1 X99.625 Y100.887 F1800.000 E1.47224
G1 X100.375 Y100.887 F7800.000
G1 X100.524 Y100.914 F1800.000 E1.47669
G1 X101.875 Y100.894 F7800.000
G1 X102.423 Y100.899 F1800.000 E1.49280
G1 F1800.000 E0.49280
G92 E0
G1 X101.083 Y99.300 F7800.000
G1 F1800.000 E1.00000
G1 X101.042 Y99.100 F1800.000 E1.00601
G1 X99.583 Y99.300 F7800.000
G1 X99.542 Y99.100 F1800.000 E1.01201
G1 X98.792 Y99.100 F7800.000
G1 X98.875 Y99.700 F1800.000 E1.02983
G1 X98.375 Y99.700 E1.04453
G1 X98.375 Y99.700 F7800.000
G1 X98.125 Y99.700 F1800.000 E1.05188
G1 X98.125 Y99.700 F7800.000
G1 X98.083 Y99.300 F1800.000 E1.06371
G1 X98.083 Y99.300 F7800.000
G1 X98.042 Y99.100 F1800.000 E1.06971
G1 X97.295 Y99.160 F7800.000
G1 X97.548 Y99.700 F1800.000 E1.08725
G1 X98.125 Y99.700 E1.10422
G1 X98.125 Y100.300 E1.12186
G1 X98.125 Y100.300 F7800.000
G1 X98.125 Y100.894 F1800.000 E1.13932
G1 X97.547 Y100.899 E1.15633
G1 X97.346 Y100.600 E1.16692
G1 X97.359 Y100.120 E1.18104
G1 X97.359 Y100.120 F7800.000
G1 X97.375 Y99.880 F1800.000 E1.18811
G1 X97.375 Y99.880 F7800.000
G1 X97.548 Y99.700 F1800.000 E1.19545
G1 X98.125 Y100.894 F7800.000
G1 X98.429 Y100.910 F1800.000 E1.20439
G1 X98.429 Y100.910 F7800.000
G1 X98.625 Y100.891 F1800.000 E1.21019
G1 F1800.000 E0.21019
G92 E0
G1 Z5.150 F7800.000
G1 Z5.550
G1 X102.423 Y100.899
G1 F1800.000 E1.00000
G1 X102.633 Y100.606 F1800.000 E1.01059
G1 X102.563 Y99.885 E1.03188
G1 X102.302 Y99.700 E1.04129
G1 X102.375 Y99.562 E1.04590
G1 X102.302 Y99.700 F7800.000
G1 X102.125 Y99.700 F1800.000 E1.05109
G1 X102.125 Y99.700 F7800.000
G1 X101.875 Y99.700 F1800.000 E1.05844
G1 X101.875 Y99.700 F7800.000
G1 X101.875 Y100.894 F1800.000 E1.09354
G1 X101.310 Y100.911 E1.11018
G1 X101.310 Y100.911 F7800.000
G1 X101.125 Y100.889 F1800.000 E1.11564
G1 X100.524 Y100.914 F7800.000
G1 X101.125 Y100.889 F1800.000 E1.13333
G1 X101.125 Y100.100 E1.15655
G1 X101.125 Y100.100 F7800.000
G1 X101.125 Y99.700 F1800.000 E1.16831
G1 X101.125 Y99.700 F7800.000
G1 X101.875 Y99.700 F1800.000 E1.19036
G1 X101.792 Y99.100 E1.20817
G1 X101.083 Y99.300 F7800.000
G1 X101.125 Y99.700 F1800.000 E1.22000
G1 X100.375 Y99.700 E1.24205
G1 X100.292 Y99.100 E1.25987
G1 X99.583 Y99.300 F7800.000
G1 X99.625 Y99.700 F1800.000 E1.27169
G1 X98.875 Y99.700 E1.29375
G1 X98.875 Y99.700 F7800.000
G1 X98.875 Y100.889 F1800.000 E1.32872
G1 X98.625 Y100.891 F7800.000
G1 X99.476 Y100.914 F1800.000 E1.35376
G1 X99.476 Y100.914 F7800.000
G1 X99.625 Y100.887 F1800.000 E1.35820
G1 X99.625 Y99.700 E1.39312
G1 X99.625 Y99.700 F7800.000
G1 X100.375 Y99.700 F1800.000 E1.41517
G1 X100.375 Y100.100 E1.42693
G1 X100.375 Y100.100 F7800.000
G1 X100.375 Y100.887 F1800.000 E1.45008
G1 X99.738 Y100.914 E1.46883
G1 X99.738 Y100.914 F7800.000
G1 X99.625 Y100.887 F1800.000 E1.47224
G1 X100.375 Y100.887 F7800.000
G1 X100.524 Y100.914 F1800.000 E1.47669
G1 X101.875 Y100.894 F7800.000
G1 X102.423 Y100.899 F1800.000 E1.49280
G1 F1800.000 E0.49280
G92 E0
G1 X101.083 Y99.300 F7800.000
G1 F1800.000 E1.00000
G1 X101.042 Y99.100 F1800.000 E1.00601
G1 X99.583 Y99.300 F7800.000
G1 X99.542 Y99.100 F1800.000 E1.01201
G1 X98.792 Y99.100 F7800.000
G1 X98.875 Y99.700 F1800.000 E1.02983
G1 X98.375 Y99.700 E1.04453
G1 X98.375 Y99.700 F7800.000
G1 X98.125 Y99.700 F1800.000 E1.05188
G1 X98.125 Y99.700 F7800.000
